IRLabUoB/boris-robot/boris_tools/scripts/contact_trajectories/cylinder_slide_trajectory.csv
time,left_arm_0_joint,left_arm_1_joint,left_arm_2_joint,left_arm_3_joint,left_arm_4_joint,left_arm_5_joint,left_arm_6_joint,left_hand_synergy_joint,right_arm_0_joint,right_arm_1_joint,right_arm_2_joint,right_arm_3_joint,right_arm_4_joint,right_arm_5_joint,right_arm_6_joint,right_hand_synergy_joint,head_neck_pitch_joint,head_neck_roll_joint,head_neck_yaw_joint,head_head_tilt_joint,head_eyes_tilt_joint,head_left_eye_joint,head_right_eye_joint
0.000199,-0.684281826019,1.08198416233,-1.13449883461,-0.852957010269,-2.19738602638,-1.68058109283,-2.3796877861,0.0667058823529,0.0,0.0,0.0,0.0,0.0,0.0,0.0,0.0,0.0,0.0,0.0,0.0,0.0,0.0,0.0
0.033471,-0.684281826019,1.08198416233,-1.13449883461,-0.852957010269,-2.19738602638,-1.68058109283,-2.3796877861,0.0667058823529,0.0,0.0,0.0,0.0,0.0,0.0,0.0,0.0,0.0,0.0,0.0,0.0,0.0,0.0,0.0
0.066773,-0.684281826019,1.08198416233,-1.13449883461,-0.852957010269,-2.19738602638,-1.68058109283,-2.3796877861,0.0667058823529,0.0,0.0,0.0,0.0,0.0,0.0,0.0,0.0,0.0,0.0,0.0,0.0,0.0,0.0,0.0
0.100111,-0.684281826019,1.08198416233,-1.13449883461,-0.852957010269,-2.19738602638,-1.68058109283,-2.3796877861,0.0667058823529,0.0,0.0,0.0,0.0,0.0,0.0,0.0,0.0,0.0,0.0,0.0,0.0,0.0,0.0,0.0
0.133444,-0.684281826019,1.08198416233,-1.13449883461,-0.852957010269,-2.19738602638,-1.68058109283,-2.3796877861,0.0667058823529,0.0,0.0,0.0,0.0,0.0,0.0,0.0,0.0,0.0,0.0,0.0,0.0,0.0,0.0,0.0
0.166827,-0.684281826019,1.08198416233,-1.13449883461,-0.852957010269,-2.19738602638,-1.68058109283,-2.3796877861,0.0667058823529,0.0,0.0,0.0,0.0,0.0,0.0,0.0,0.0,0.0,0.0,0.0,0.0,0.0,0.0,0.0
0.200099,-0.684281826019,1.08198416233,-1.13449883461,-0.852957010269,-2.19738602638,-1.68058109283,-2.3796877861,0.0667058823529,0.0,0.0,0.0,0.0,0.0,0.0,0.0,0.0,0.0,0.0,0.0,0.0,0.0,0.0,0.0
0.233434,-0.684281826019,1.08198416233,-1.13449883461,-0.852957010269,-2.19738602638,-1.68058109283,-2.3796877861,0.0665882352941,0.0,0.0,0.0,0.0,0.0,0.0,0.0,0.0,0.0,0.0,0.0,0.0,0.0,0.0,0.0
0.266767,-0.684281826019,1.08198416233,-1.13449883461,-0.852957010269,-2.19738602638,-1.68058109283,-2.3796877861,0.0665882352941,0.0,0.0,0.0,0.0,0.0,0.0,0.0,0.0,0.0,0.0,0.0,0.0,0.0,0.0,0.0
0.300099,-0.684281826019,1.08198416233,-1.13449883461,-0.852957010269,-2.19738602638,-1.68058109283,-2.3796877861,0.0665882352941,0.0,0.0,0.0,0.0,0.0,0.0,0.0,0.0,0.0,0.0,0.0,0.0,0.0,0.0,0.0
0.333398,-0.684281826019,1.08198416233,-1.13449883461,-0.852957010269,-2.19738602638,-1.68058109283,-2.3796877861,0.0665882352941,0.0,0.0,0.0,0.0,0.0,0.0,0.0,0.0,0.0,0.0,0.0,0.0,0.0,0.0,0.0
0.366767,-0.684281826019,1.08198416233,-1.13449883461,-0.852957010269,-2.19738602638,-1.68058109283,-2.3796877861,0.0665882352941,0.0,0.0,0.0,0.0,0.0,0.0,0.0,0.0,0.0,0.0,0.0,0.0,0.0,0.0,0.0
0.400143,-0.684281826019,1.08198416233,-1.13449883461,-0.852957010269,-2.19738602638,-1.68058109283,-2.3796877861,0.0665882352941,0.0,0.0,0.0,0.0,0.0,0.0,0.0,0.0,0.0,0.0,0.0,0.0,0.0,0.0,0.0
0.433430,-0.684281826019,1.08198416233,-1.13449883461,-0.852957010269,-2.19738602638,-1.68058109283,-2.3796877861,0.0665882352941,0.0,0.0,0.0,0.0,0.0,0.0,0.0,0.0,0.0,0.0,0.0,0.0,0.0,0.0,0.0
0.466760,-0.684281826019,1.08198416233,-1.13449883461,-0.852957010269,-2.19738602638,-1.68058109283,-2.3796877861,0.0665882352941,0.0,0.0,0.0,0.0,0.0,0.0,0.0,0.0,0.0,0.0,0.0,0.0,0.0,0.0,0.0
0.500136,-0.684281826019,1.08198416233,-1.13449883461,-0.852957010269,-2.19738602638,-1.68058109283,-2.3796877861,0.0665882352941,0.0,0.0,0.0,0.0,0.0,0.0,0.0,0.0,0.0,0.0,0.0,0.0,0.0,0.0,0.0
0.533439,-0.684281826019,1.08198416233,-1.13449883461,-0.852957010269,-2.19738602638,-1.68058109283,-2.3796877861,0.0664705882353,0.0,0.0,0.0,0.0,0.0,0.0,0.0,0.0,0.0,0.0,0.0,0.0,0.0,0.0,0.0
0.566765,-0.684281826019,1.08198416233,-1.13449883461,-0.852957010269,-2.19738602638,-1.68058109283,-2.3796877861,0.0665882352941,0.0,0.0,0.0,0.0,0.0,0.0,0.0,0.0,0.0,0.0,0.0,0.0,0.0,0.0,0.0
0.600103,-0.684281826019,1.08198416233,-1.13449883461,-0.852957010269,-2.19738602638,-1.68058109283,-2.3796877861,0.0665882352941,0.0,0.0,0.0,0.0,0.0,0.0,0.0,0.0,0.0,0.0,0.0,0.0,0.0,0.0,0.0
0.633428,-0.684281826019,1.08198416233,-1.13449883461,-0.852957010269,-2.19738602638,-1.68058109283,-2.3796877861,0.0665882352941,0.0,0.0,0.0,0.0,0.0,0.0,0.0,0.0,0.0,0.0,0.0,0.0,0.0,0.0,0.0
0.666726,-0.684281826019,1.08198416233,-1.13449883461,-0.852957010269,-2.19738602638,-1.68058109283,-2.3796877861,0.0665882352941,0.0,0.0,0.0,0.0,0.0,0.0,0.0,0.0,0.0,0.0,0.0,0.0,0.0,0.0,0.0
0.700091,-0.684281826019,1.08198416233,-1.13449883461,-0.852957010269,-2.19738602638,-1.68058109283,-2.3796877861,0.0665882352941,0.0,0.0,0.0,0.0,0.0,0.0,0.0,0.0,0.0,0.0,0.0,0.0,0.0,0.0,0.0
0.733451,-0.684281826019,1.08198416233,-1.13449883461,-0.852957010269,-2.19738602638,-1.68058109283,-2.3796877861,0.0665882352941,0.0,0.0,0.0,0.0,0.0,0.0,0.0,0.0,0.0,0.0,0.0,0.0,0.0,0.0,0.0
0.766758,-0.684281826019,1.08198416233,-1.13449883461,-0.852957010269,-2.19738602638,-1.68058109283,-2.3796877861,0.0665882352941,0.0,0.0,0.0,0.0,0.0,0.0,0.0,0.0,0.0,0.0,0.0,0.0,0.0,0.0,0.0
0.800091,-0.684281826019,1.08198416233,-1.13449883461,-0.852957010269,-2.19738602638,-1.68058109283,-2.3796877861,0.0665882352941,0.0,0.0,0.0,0.0,0.0,0.0,0.0,0.0,0.0,0.0,0.0,0.0,0.0,0.0,0.0
0.833452,-0.684281826019,1.08198416233,-1.13449883461,-0.852957010269,-2.19738602638,-1.68058109283,-2.3796877861,0.0665882352941,0.0,0.0,0.0,0.0,0.0,0.0,0.0,0.0,0.0,0.0,0.0,0.0,0.0,0.0,0.0
0.866759,-0.684281826019,1.08198416233,-1.13449883461,-0.852957010269,-2.19738602638,-1.68058109283,-2.3796877861,0.0665882352941,0.0,0.0,0.0,0.0,0.0,0.0,0.0,0.0,0.0,0.0,0.0,0.0,0.0,0.0,0.0
0.900093,-0.684281826019,1.08198416233,-1.13449883461,-0.852957010269,-2.19738602638,-1.68058109283,-2.3796877861,0.0665882352941,0.0,0.0,0.0,0.0,0.0,0.0,0.0,0.0,0.0,0.0,0.0,0.0,0.0,0.0,0.0
0.933459,-0.684281826019,1.08198416233,-1.13449883461,-0.852957010269,-2.19738602638,-1.68058109283,-2.3796877861,0.0665882352941,0.0,0.0,0.0,0.0,0.0,0.0,0.0,0.0,0.0,0.0,0.0,0.0,0.0,0.0,0.0
0.966758,-0.684281826019,1.08198416233,-1.13449883461,-0.852957010269,-2.19738602638,-1.68058109283,-2.3796877861,0.0665882352941,0.0,0.0,0.0,0.0,0.0,0.0,0.0,0.0,0.0,0.0,0.0,0.0,0.0,0.0,0.0
1.000090,-0.684281826019,1.08198416233,-1.13449883461,-0.852957010269,-2.19738602638,-1.68058109283,-2.3796877861,0.0665882352941,0.0,0.0,0.0,0.0,0.0,0.0,0.0,0.0,0.0,0.0,0.0,0.0,0.0,0.0,0.0
1.033461,-0.684281826019,1.08198416233,-1.13449883461,-0.852957010269,-2.19738602638,-1.68058109283,-2.3796877861,0.0665882352941,0.0,0.0,0.0,0.0,0.0,0.0,0.0,0.0,0.0,0.0,0.0,0.0,0.0,0.0,0.0
1.066782,-0.684281826019,1.08198416233,-1.13449883461,-0.852957010269,-2.19738602638,-1.68058109283,-2.3796877861,0.0665882352941,0.0,0.0,0.0,0.0,0.0,0.0,0.0,0.0,0.0,0.0,0.0,0.0,0.0,0.0,0.0
1.100094,-0.684281826019,1.08198416233,-1.13449883461,-0.852957010269,-2.19738602638,-1.68058109283,-2.3796877861,0.0665882352941,0.0,0.0,0.0,0.0,0.0,0.0,0.0,0.0,0.0,0.0,0.0,0.0,0.0,0.0,0.0
1.133453,-0.684281826019,1.08198416233,-1.13449883461,-0.852957010269,-2.19738602638,-1.68058109283,-2.3796877861,0.0665882352941,0.0,0.0,0.0,0.0,0.0,0.0,0.0,0.0,0.0,0.0,0.0,0.0,0.0,0.0,0.0
1.166756,-0.684281826019,1.08198416233,-1.13449883461,-0.852957010269,-2.19738602638,-1.68058109283,-2.3796877861,0.0665882352941,0.0,0.0,0.0,0.0,0.0,0.0,0.0,0.0,0.0,0.0,0.0,0.0,0.0,0.0,0.0
1.200090,-0.684281826019,1.08198416233,-1.13449883461,-0.852957010269,-2.19738602638,-1.68058109283,-2.3796877861,0.0665882352941,0.0,0.0,0.0,0.0,0.0,0.0,0.0,0.0,0.0,0.0,0.0,0.0,0.0,0.0,0.0
1.233463,-0.684281826019,1.08198416233,-1.13449883461,-0.852957010269,-2.19738602638,-1.68058109283,-2.3796877861,0.0665882352941,0.0,0.0,0.0,0.0,0.0,0.0,0.0,0.0,0.0,0.0,0.0,0.0,0.0,0.0,0.0
1.266759,-0.684281826019,1.08198416233,-1.13449883461,-0.852957010269,-2.19738602638,-1.68058109283,-2.3796877861,0.0665882352941,0.0,0.0,0.0,0.0,0.0,0.0,0.0,0.0,0.0,0.0,0.0,0.0,0.0,0.0,0.0
1.300094,-0.684281826019,1.08198416233,-1.13449883461,-0.852957010269,-2.19738602638,-1.68058109283,-2.3796877861,0.0665882352941,0.0,0.0,0.0,0.0,0.0,0.0,0.0,0.0,0.0,0.0,0.0,0.0,0.0,0.0,0.0
1.333469,-0.684281826019,1.08198416233,-1.13449883461,-0.852957010269,-2.19738602638,-1.68058109283,-2.3796877861,0.0665882352941,0.0,0.0,0.0,0.0,0.0,0.0,0.0,0.0,0.0,0.0,0.0,0.0,0.0,0.0,0.0
1.366765,-0.684281826019,1.08198416233,-1.13449883461,-0.852957010269,-2.19738602638,-1.68058109283,-2.3796877861,0.0665882352941,0.0,0.0,0.0,0.0,0.0,0.0,0.0,0.0,0.0,0.0,0.0,0.0,0.0,0.0,0.0
1.400076,-0.684281826019,1.08198416233,-1.13449883461,-0.852957010269,-2.19738602638,-1.68058109283,-2.3796877861,0.0665882352941,0.0,0.0,0.0,0.0,0.0,0.0,0.0,0.0,0.0,0.0,0.0,0.0,0.0,0.0,0.0
1.433470,-0.684281826019,1.08198416233,-1.13449883461,-0.852957010269,-2.19738602638,-1.68058109283,-2.3796877861,0.0665882352941,0.0,0.0,0.0,0.0,0.0,0.0,0.0,0.0,0.0,0.0,0.0,0.0,0.0,0.0,0.0
1.466758,-0.684281826019,1.08198416233,-1.13449883461,-0.852957010269,-2.19738602638,-1.68058109283,-2.3796877861,0.0665882352941,0.0,0.0,0.0,0.0,0.0,0.0,0.0,0.0,0.0,0.0,0.0,0.0,0.0,0.0,0.0
1.500142,-0.684281826019,1.08198416233,-1.13449883461,-0.852957010269,-2.19738602638,-1.68058109283,-2.3796877861,0.0665882352941,0.0,0.0,0.0,0.0,0.0,0.0,0.0,0.0,0.0,0.0,0.0,0.0,0.0,0.0,0.0
1.533433,-0.684281826019,1.08198416233,-1.13449883461,-0.852957010269,-2.19738602638,-1.68058109283,-2.3796877861,0.0665882352941,0.0,0.0,0.0,0.0,0.0,0.0,0.0,0.0,0.0,0.0,0.0,0.0,0.0,0.0,0.0
1.566764,-0.684281826019,1.08198416233,-1.13449883461,-0.852957010269,-2.19738602638,-1.68058109283,-2.3796877861,0.0665882352941,0.0,0.0,0.0,0.0,0.0,0.0,0.0,0.0,0.0,0.0,0.0,0.0,0.0,0.0,0.0
1.600103,-0.684281826019,1.08198416233,-1.13449883461,-0.852957010269,-2.19738602638,-1.68058109283,-2.3796877861,0.0665882352941,0.0,0.0,0.0,0.0,0.0,0.0,0.0,0.0,0.0,0.0,0.0,0.0,0.0,0.0,0.0
1.633432,-0.684281826019,1.08198416233,-1.13449883461,-0.852957010269,-2.19738602638,-1.68058109283,-2.3796877861,0.0665882352941,0.0,0.0,0.0,0.0,0.0,0.0,0.0,0.0,0.0,0.0,0.0,0.0,0.0,0.0,0.0
1.666771,-0.684281826019,1.08198416233,-1.13449883461,-0.852957010269,-2.19738602638,-1.68058109283,-2.3796877861,0.0665882352941,0.0,0.0,0.0,0.0,0.0,0.0,0.0,0.0,0.0,0.0,0.0,0.0,0.0,0.0,0.0
1.700098,-0.684281826019,1.08198416233,-1.13449883461,-0.852957010269,-2.19738602638,-1.68058109283,-2.3796877861,0.0665882352941,0.0,0.0,0.0,0.0,0.0,0.0,0.0,0.0,0.0,0.0,0.0,0.0,0.0,0.0,0.0
1.733439,-0.684281826019,1.08198416233,-1.13449883461,-0.852957010269,-2.19738602638,-1.68058109283,-2.3796877861,0.0665882352941,0.0,0.0,0.0,0.0,0.0,0.0,0.0,0.0,0.0,0.0,0.0,0.0,0.0,0.0,0.0
1.766774,-0.684281826019,1.08198416233,-1.13449883461,-0.852957010269,-2.19738602638,-1.68058109283,-2.3796877861,0.0665882352941,0.0,0.0,0.0,0.0,0.0,0.0,0.0,0.0,0.0,0.0,0.0,0.0,0.0,0.0,0.0
1.800102,-0.684281826019,1.08198416233,-1.13449883461,-0.852957010269,-2.19738602638,-1.68058109283,-2.3796877861,0.0665882352941,0.0,0.0,0.0,0.0,0.0,0.0,0.0,0.0,0.0,0.0,0.0,0.0,0.0,0.0,0.0
1.833433,-0.684281826019,1.08198416233,-1.13449883461,-0.852957010269,-2.19738602638,-1.68058109283,-2.3796877861,0.0665882352941,0.0,0.0,0.0,0.0,0.0,0.0,0.0,0.0,0.0,0.0,0.0,0.0,0.0,0.0,0.0
1.866773,-0.684281826019,1.08198416233,-1.13449883461,-0.852957010269,-2.19738602638,-1.68058109283,-2.3796877861,0.0665882352941,0.0,0.0,0.0,0.0,0.0,0.0,0.0,0.0,0.0,0.0,0.0,0.0,0.0,0.0,0.0
1.900107,-0.684281826019,1.08198416233,-1.13449883461,-0.852957010269,-2.19738602638,-1.68058109283,-2.3796877861,0.0665882352941,0.0,0.0,0.0,0.0,0.0,0.0,0.0,0.0,0.0,0.0,0.0,0.0,0.0,0.0,0.0
1.933436,-0.684281826019,1.08198416233,-1.13449883461,-0.852957010269,-2.19738602638,-1.68058109283,-2.3796877861,0.0665882352941,0.0,0.0,0.0,0.0,0.0,0.0,0.0,0.0,0.0,0.0,0.0,0.0,0.0,0.0,0.0
1.966760,-0.684281826019,1.08198416233,-1.13449883461,-0.852957010269,-2.19738602638,-1.68058109283,-2.3796877861,0.0665882352941,0.0,0.0,0.0,0.0,0.0,0.0,0.0,0.0,0.0,0.0,0.0,0.0,0.0,0.0,0.0
2.000095,-0.684281826019,1.08198416233,-1.13449883461,-0.852957010269,-2.19738602638,-1.68058109283,-2.3796877861,0.0665882352941,0.0,0.0,0.0,0.0,0.0,0.0,0.0,0.0,0.0,0.0,0.0,0.0,0.0,0.0,0.0
2.033447,-0.684281826019,1.08198416233,-1.13449883461,-0.852957010269,-2.19738602638,-1.68058109283,-2.3796877861,0.0665882352941,0.0,0.0,0.0,0.0,0.0,0.0,0.0,0.0,0.0,0.0,0.0,0.0,0.0,0.0,0.0
2.066765,-0.684281826019,1.08198416233,-1.13449883461,-0.852957010269,-2.19738602638,-1.68058109283,-2.3796877861,0.0665882352941,0.0,0.0,0.0,0.0,0.0,0.0,0.0,0.0,0.0,0.0,0.0,0.0,0.0,0.0,0.0
2.100098,-0.684281826019,1.08198416233,-1.13449883461,-0.852957010269,-2.19738602638,-1.68058109283,-2.3796877861,0.0665882352941,0.0,0.0,0.0,0.0,0.0,0.0,0.0,0.0,0.0,0.0,0.0,0.0,0.0,0.0,0.0
2.133426,-0.684281826019,1.08198416233,-1.13449883461,-0.852957010269,-2.19738602638,-1.68058109283,-2.3796877861,0.0665882352941,0.0,0.0,0.0,0.0,0.0,0.0,0.0,0.0,0.0,0.0,0.0,0.0,0.0,0.0,0.0
2.166782,-0.684281826019,1.08198416233,-1.13449883461,-0.852957010269,-2.19738602638,-1.68058109283,-2.3796877861,0.0664705882353,0.0,0.0,0.0,0.0,0.0,0.0,0.0,0.0,0.0,0.0,0.0,0.0,0.0,0.0,0.0
2.200097,-0.684281826019,1.08198416233,-1.13449883461,-0.852957010269,-2.19738602638,-1.68058109283,-2.3796877861,0.0665882352941,0.0,0.0,0.0,0.0,0.0,0.0,0.0,0.0,0.0,0.0,0.0,0.0,0.0,0.0,0.0
2.233464,-0.684281826019,1.08198416233,-1.13449883461,-0.852957010269,-2.19738602638,-1.68058109283,-2.3796877861,0.0665882352941,0.0,0.0,0.0,0.0,0.0,0.0,0.0,0.0,0.0,0.0,0.0,0.0,0.0,0.0,0.0
2.266765,-0.684281826019,1.08198416233,-1.13449883461,-0.852957010269,-2.19738602638,-1.68058109283,-2.3796877861,0.0665882352941,0.0,0.0,0.0,0.0,0.0,0.0,0.0,0.0,0.0,0.0,0.0,0.0,0.0,0.0,0.0
2.300096,-0.684281826019,1.08198416233,-1.13449883461,-0.852957010269,-2.19738602638,-1.68058109283,-2.3796877861,0.0664705882353,0.0,0.0,0.0,0.0,0.0,0.0,0.0,0.0,0.0,0.0,0.0,0.0,0.0,0.0,0.0
2.333442,-0.684281826019,1.08198416233,-1.13449883461,-0.852957010269,-2.19738602638,-1.68058109283,-2.3796877861,0.0664705882353,0.0,0.0,0.0,0.0,0.0,0.0,0.0,0.0,0.0,0.0,0.0,0.0,0.0,0.0,0.0
2.366763,-0.684281826019,1.08198416233,-1.13449883461,-0.852957010269,-2.19738602638,-1.68058109283,-2.3796877861,0.0664705882353,0.0,0.0,0.0,0.0,0.0,0.0,0.0,0.0,0.0,0.0,0.0,0.0,0.0,0.0,0.0
2.400096,-0.684281826019,1.08198416233,-1.13449883461,-0.852957010269,-2.19738602638,-1.68058109283,-2.3796877861,0.0664705882353,0.0,0.0,0.0,0.0,0.0,0.0,0.0,0.0,0.0,0.0,0.0,0.0,0.0,0.0,0.0
2.433428,-0.684281826019,1.08198416233,-1.13449883461,-0.852957010269,-2.19738602638,-1.68058109283,-2.3796877861,0.0664705882353,0.0,0.0,0.0,0.0,0.0,0.0,0.0,0.0,0.0,0.0,0.0,0.0,0.0,0.0,0.0
2.466768,-0.684281826019,1.08198416233,-1.13449883461,-0.852957010269,-2.19738602638,-1.68058109283,-2.3796877861,0.0664705882353,0.0,0.0,0.0,0.0,0.0,0.0,0.0,0.0,0.0,0.0,0.0,0.0,0.0,0.0,0.0
2.500107,-0.684281826019,1.08198416233,-1.13449883461,-0.852957010269,-2.19738602638,-1.68058109283,-2.3796877861,0.0664705882353,0.0,0.0,0.0,0.0,0.0,0.0,0.0,0.0,0.0,0.0,0.0,0.0,0.0,0.0,0.0
2.533466,-0.684281826019,1.08198416233,-1.13449883461,-0.852957010269,-2.19738602638,-1.68058109283,-2.3796877861,0.0664705882353,0.0,0.0,0.0,0.0,0.0,0.0,0.0,0.0,0.0,0.0,0.0,0.0,0.0,0.0,0.0
2.566777,-0.684281826019,1.08198416233,-1.13449883461,-0.852957010269,-2.19738602638,-1.68058109283,-2.3796877861,0.0664705882353,0.0,0.0,0.0,0.0,0.0,0.0,0.0,0.0,0.0,0.0,0.0,0.0,0.0,0.0,0.0
2.600132,-0.684281826019,1.08198416233,-1.13449883461,-0.852957010269,-2.19738602638,-1.68058109283,-2.3796877861,0.0664705882353,0.0,0.0,0.0,0.0,0.0,0.0,0.0,0.0,0.0,0.0,0.0,0.0,0.0,0.0,0.0
2.633453,-0.684281826019,1.08198416233,-1.13449883461,-0.852957010269,-2.19738602638,-1.68058109283,-2.3796877861,0.0664705882353,0.0,0.0,0.0,0.0,0.0,0.0,0.0,0.0,0.0,0.0,0.0,0.0,0.0,0.0,0.0
2.666763,-0.684281826019,1.08198416233,-1.13449883461,-0.852957010269,-2.19738602638,-1.68058109283,-2.3796877861,0.0664705882353,0.0,0.0,0.0,0.0,0.0,0.0,0.0,0.0,0.0,0.0,0.0,0.0,0.0,0.0,0.0
2.700115,-0.684281826019,1.08198416233,-1.13449883461,-0.852957010269,-2.19738602638,-1.68058109283,-2.3796877861,0.0664705882353,0.0,0.0,0.0,0.0,0.0,0.0,0.0,0.0,0.0,0.0,0.0,0.0,0.0,0.0,0.0
2.733428,-0.684281826019,1.08198416233,-1.13449883461,-0.852957010269,-2.19738602638,-1.68058109283,-2.3796877861,0.0664705882353,0.0,0.0,0.0,0.0,0.0,0.0,0.0,0.0,0.0,0.0,0.0,0.0,0.0,0.0,0.0
2.766760,-0.684281826019,1.08198416233,-1.13449883461,-0.852957010269,-2.19738602638,-1.68058109283,-2.3796877861,0.0664705882353,0.0,0.0,0.0,0.0,0.0,0.0,0.0,0.0,0.0,0.0,0.0,0.0,0.0,0.0,0.0
2.800081,-0.684281826019,1.08198416233,-1.13449883461,-0.852957010269,-2.19738602638,-1.68058109283,-2.3796877861,0.0664705882353,0.0,0.0,0.0,0.0,0.0,0.0,0.0,0.0,0.0,0.0,0.0,0.0,0.0,0.0,0.0
2.833440,-0.684281826019,1.08198416233,-1.13449883461,-0.852957010269,-2.19738602638,-1.68058109283,-2.3796877861,0.0664705882353,0.0,0.0,0.0,0.0,0.0,0.0,0.0,0.0,0.0,0.0,0.0,0.0,0.0,0.0,0.0
2.866760,-0.684281826019,1.08198416233,-1.13449883461,-0.852957010269,-2.19738602638,-1.68058109283,-2.3796877861,0.0664705882353,0.0,0.0,0.0,0.0,0.0,0.0,0.0,0.0,0.0,0.0,0.0,0.0,0.0,0.0,0.0
2.900097,-0.684281826019,1.08198416233,-1.13449883461,-0.852957010269,-2.19738602638,-1.68058109283,-2.3796877861,0.0664705882353,0.0,0.0,0.0,0.0,0.0,0.0,0.0,0.0,0.0,0.0,0.0,0.0,0.0,0.0,0.0
2.933454,-0.684281826019,1.08198416233,-1.13449883461,-0.852957010269,-2.19738602638,-1.68058109283,-2.3796877861,0.0664705882353,0.0,0.0,0.0,0.0,0.0,0.0,0.0,0.0,0.0,0.0,0.0,0.0,0.0,0.0,0.0
2.966763,-0.684281826019,1.08198416233,-1.13449883461,-0.852957010269,-2.19738602638,-1.68058109283,-2.3796877861,0.0664705882353,0.0,0.0,0.0,0.0,0.0,0.0,0.0,0.0,0.0,0.0,0.0,0.0,0.0,0.0,0.0
3.000095,-0.684281826019,1.08198416233,-1.13449883461,-0.852957010269,-2.19738602638,-1.68058109283,-2.3796877861,0.0664705882353,0.0,0.0,0.0,0.0,0.0,0.0,0.0,0.0,0.0,0.0,0.0,0.0,0.0,0.0,0.0
3.033449,-0.684281826019,1.08198416233,-1.13449883461,-0.852957010269,-2.19738602638,-1.68058109283,-2.3796877861,0.0664705882353,0.0,0.0,0.0,0.0,0.0,0.0,0.0,0.0,0.0,0.0,0.0,0.0,0.0,0.0,0.0
3.066773,-0.684281826019,1.08198416233,-1.13449883461,-0.852957010269,-2.19738602638,-1.68058109283,-2.3796877861,0.0664705882353,0.0,0.0,0.0,0.0,0.0,0.0,0.0,0.0,0.0,0.0,0.0,0.0,0.0,0.0,0.0
3.100138,-0.684281826019,1.08198416233,-1.13449883461,-0.852957010269,-2.19738602638,-1.68058109283,-2.3796877861,0.0664705882353,0.0,0.0,0.0,0.0,0.0,0.0,0.0,0.0,0.0,0.0,0.0,0.0,0.0,0.0,0.0
3.133440,-0.684281826019,1.08198416233,-1.13449883461,-0.852957010269,-2.19738602638,-1.68058109283,-2.3796877861,0.0664705882353,0.0,0.0,0.0,0.0,0.0,0.0,0.0,0.0,0.0,0.0,0.0,0.0,0.0,0.0,0.0
3.166769,-0.684281826019,1.08198416233,-1.13449883461,-0.852957010269,-2.19738602638,-1.68058109283,-2.3796877861,0.0664705882353,0.0,0.0,0.0,0.0,0.0,0.0,0.0,0.0,0.0,0.0,0.0,0.0,0.0,0.0,0.0
3.200093,-0.684281826019,1.08198416233,-1.13449883461,-0.852957010269,-2.19738602638,-1.68058109283,-2.3796877861,0.0664705882353,0.0,0.0,0.0,0.0,0.0,0.0,0.0,0.0,0.0,0.0,0.0,0.0,0.0,0.0,0.0
3.233445,-0.684281826019,1.08198416233,-1.13449883461,-0.852957010269,-2.19738602638,-1.68058109283,-2.3796877861,0.0664705882353,0.0,0.0,0.0,0.0,0.0,0.0,0.0,0.0,0.0,0.0,0.0,0.0,0.0,0.0,0.0
3.266767,-0.684281826019,1.08198416233,-1.13449883461,-0.852957010269,-2.19738602638,-1.68058109283,-2.3796877861,0.0664705882353,0.0,0.0,0.0,0.0,0.0,0.0,0.0,0.0,0.0,0.0,0.0,0.0,0.0,0.0,0.0
3.300095,-0.684281826019,1.08198416233,-1.13449883461,-0.852957010269,-2.19738602638,-1.68058109283,-2.3796877861,0.0664705882353,0.0,0.0,0.0,0.0,0.0,0.0,0.0,0.0,0.0,0.0,0.0,0.0,0.0,0.0,0.0
3.333465,-0.684281826019,1.08198416233,-1.13449883461,-0.852957010269,-2.19738602638,-1.68058109283,-2.3796877861,0.0664705882353,0.0,0.0,0.0,0.0,0.0,0.0,0.0,0.0,0.0,0.0,0.0,0.0,0.0,0.0,0.0
3.366763,-0.684281826019,1.08198416233,-1.13449883461,-0.852957010269,-2.19738602638,-1.68058109283,-2.3796877861,0.0664705882353,0.0,0.0,0.0,0.0,0.0,0.0,0.0,0.0,0.0,0.0,0.0,0.0,0.0,0.0,0.0
3.400095,-0.684281826019,1.08198416233,-1.13449883461,-0.852957010269,-2.19738602638,-1.68058109283,-2.3796877861,0.0664705882353,0.0,0.0,0.0,0.0,0.0,0.0,0.0,0.0,0.0,0.0,0.0,0.0,0.0,0.0,0.0
3.433433,-0.684281826019,1.08198416233,-1.13449883461,-0.852957010269,-2.19738602638,-1.68058109283,-2.3796877861,0.0664705882353,0.0,0.0,0.0,0.0,0.0,0.0,0.0,0.0,0.0,0.0,0.0,0.0,0.0,0.0,0.0
3.466758,-0.684281826019,1.08198416233,-1.13449883461,-0.852957010269,-2.19738602638,-1.68058109283,-2.3796877861,0.0664705882353,0.0,0.0,0.0,0.0,0.0,0.0,0.0,0.0,0.0,0.0,0.0,0.0,0.0,0.0,0.0
3.500097,-0.684281826019,1.08198416233,-1.13449883461,-0.852957010269,-2.19738602638,-1.68058109283,-2.3796877861,0.0664705882353,0.0,0.0,0.0,0.0,0.0,0.0,0.0,0.0,0.0,0.0,0.0,0.0,0.0,0.0,0.0
3.533457,-0.684281826019,1.08198416233,-1.13449883461,-0.852957010269,-2.19738602638,-1.68058109283,-2.3796877861,0.0664705882353,0.0,0.0,0.0,0.0,0.0,0.0,0.0,0.0,0.0,0.0,0.0,0.0,0.0,0.0,0.0
3.566760,-0.684281826019,1.08198416233,-1.13449883461,-0.852957010269,-2.19738602638,-1.68058109283,-2.3796877861,0.0664705882353,0.0,0.0,0.0,0.0,0.0,0.0,0.0,0.0,0.0,0.0,0.0,0.0,0.0,0.0,0.0
3.600092,-0.684281826019,1.08198416233,-1.13449883461,-0.852957010269,-2.19738602638,-1.68058109283,-2.3796877861,0.0664705882353,0.0,0.0,0.0,0.0,0.0,0.0,0.0,0.0,0.0,0.0,0.0,0.0,0.0,0.0,0.0
3.633443,-0.684281826019,1.08198416233,-1.13449883461,-0.852957010269,-2.19738602638,-1.68058109283,-2.3796877861,0.0664705882353,0.0,0.0,0.0,0.0,0.0,0.0,0.0,0.0,0.0,0.0,0.0,0.0,0.0,0.0,0.0
3.666751,-0.684281826019,1.08198416233,-1.13449883461,-0.852957010269,-2.19738602638,-1.68058109283,-2.3796877861,0.0664705882353,0.0,0.0,0.0,0.0,0.0,0.0,0.0,0.0,0.0,0.0,0.0,0.0,0.0,0.0,0.0
3.700098,-0.684281826019,1.08198416233,-1.13449883461,-0.852957010269,-2.19738602638,-1.68058109283,-2.3796877861,0.0664705882353,0.0,0.0,0.0,0.0,0.0,0.0,0.0,0.0,0.0,0.0,0.0,0.0,0.0,0.0,0.0
3.733436,-0.684281826019,1.08198416233,-1.13449883461,-0.852957010269,-2.19738602638,-1.68058109283,-2.3796877861,0.0664705882353,0.0,0.0,0.0,0.0,0.0,0.0,0.0,0.0,0.0,0.0,0.0,0.0,0.0,0.0,0.0
3.766764,-0.684281826019,1.08198416233,-1.13449883461,-0.852957010269,-2.19738602638,-1.68058109283,-2.3796877861,0.0664705882353,0.0,0.0,0.0,0.0,0.0,0.0,0.0,0.0,0.0,0.0,0.0,0.0,0.0,0.0,0.0
3.800099,-0.684281826019,1.08198416233,-1.13449883461,-0.852957010269,-2.19738602638,-1.68058109283,-2.3796877861,0.0664705882353,0.0,0.0,0.0,0.0,0.0,0.0,0.0,0.0,0.0,0.0,0.0,0.0,0.0,0.0,0.0
3.833437,-0.684281826019,1.08198416233,-1.13449883461,-0.852957010269,-2.19738602638,-1.68058109283,-2.3796877861,0.0664705882353,0.0,0.0,0.0,0.0,0.0,0.0,0.0,0.0,0.0,0.0,0.0,0.0,0.0,0.0,0.0
3.866762,-0.684281826019,1.08198416233,-1.13449883461,-0.852957010269,-2.19738602638,-1.68058109283,-2.3796877861,0.0664705882353,0.0,0.0,0.0,0.0,0.0,0.0,0.0,0.0,0.0,0.0,0.0,0.0,0.0,0.0,0.0
3.900095,-0.684281826019,1.08198416233,-1.13449883461,-0.852957010269,-2.19738602638,-1.68058109283,-2.3796877861,0.0664705882353,0.0,0.0,0.0,0.0,0.0,0.0,0.0,0.0,0.0,0.0,0.0,0.0,0.0,0.0,0.0
3.933443,-0.684281826019,1.08198416233,-1.13449883461,-0.852957010269,-2.19738602638,-1.68058109283,-2.3796877861,0.0664705882353,0.0,0.0,0.0,0.0,0.0,0.0,0.0,0.0,0.0,0.0,0.0,0.0,0.0,0.0,0.0
3.966763,-0.684281826019,1.08198416233,-1.13449883461,-0.852957010269,-2.19738602638,-1.68058109283,-2.3796877861,0.0664705882353,0.0,0.0,0.0,0.0,0.0,0.0,0.0,0.0,0.0,0.0,0.0,0.0,0.0,0.0,0.0
4.000094,-0.684281826019,1.08198416233,-1.13449883461,-0.852957010269,-2.19738602638,-1.68058109283,-2.3796877861,0.0664705882353,0.0,0.0,0.0,0.0,0.0,0.0,0.0,0.0,0.0,0.0,0.0,0.0,0.0,0.0,0.0
4.033442,-0.684281826019,1.08198416233,-1.13449883461,-0.852957010269,-2.19738602638,-1.68058109283,-2.3796877861,0.0664705882353,0.0,0.0,0.0,0.0,0.0,0.0,0.0,0.0,0.0,0.0,0.0,0.0,0.0,0.0,0.0
4.066757,-0.684281826019,1.08198416233,-1.13449883461,-0.852957010269,-2.19738602638,-1.68058109283,-2.3796877861,0.0664705882353,0.0,0.0,0.0,0.0,0.0,0.0,0.0,0.0,0.0,0.0,0.0,0.0,0.0,0.0,0.0
4.100096,-0.684281826019,1.08198416233,-1.13449883461,-0.852957010269,-2.19738602638,-1.68058109283,-2.3796877861,0.0664705882353,0.0,0.0,0.0,0.0,0.0,0.0,0.0,0.0,0.0,0.0,0.0,0.0,0.0,0.0,0.0
4.133483,-0.684281826019,1.08198416233,-1.13449883461,-0.852957010269,-2.19738602638,-1.68058109283,-2.3796877861,0.0664705882353,0.0,0.0,0.0,0.0,0.0,0.0,0.0,0.0,0.0,0.0,0.0,0.0,0.0,0.0,0.0
4.166768,-0.684281826019,1.08198416233,-1.13449883461,-0.852957010269,-2.19738602638,-1.68058109283,-2.3796877861,0.0664705882353,0.0,0.0,0.0,0.0,0.0,0.0,0.0,0.0,0.0,0.0,0.0,0.0,0.0,0.0,0.0
4.200099,-0.684281826019,1.08198416233,-1.13449883461,-0.852957010269,-2.19738602638,-1.68058109283,-2.3796877861,0.0664705882353,0.0,0.0,0.0,0.0,0.0,0.0,0.0,0.0,0.0,0.0,0.0,0.0,0.0,0.0,0.0
4.233439,-0.684281826019,1.08198416233,-1.13449883461,-0.852957010269,-2.19738602638,-1.68058109283,-2.3796877861,0.0664705882353,0.0,0.0,0.0,0.0,0.0,0.0,0.0,0.0,0.0,0.0,0.0,0.0,0.0,0.0,0.0
4.266766,-0.684281826019,1.08198416233,-1.13449883461,-0.852957010269,-2.19738602638,-1.68058109283,-2.3796877861,0.0664705882353,0.0,0.0,0.0,0.0,0.0,0.0,0.0,0.0,0.0,0.0,0.0,0.0,0.0,0.0,0.0
4.300139,-0.684281826019,1.08198416233,-1.13449883461,-0.852957010269,-2.19738602638,-1.68058109283,-2.3796877861,0.0664705882353,0.0,0.0,0.0,0.0,0.0,0.0,0.0,0.0,0.0,0.0,0.0,0.0,0.0,0.0,0.0
4.333428,-0.684281826019,1.08198416233,-1.13449883461,-0.852957010269,-2.19738602638,-1.68058109283,-2.3796877861,0.0664705882353,0.0,0.0,0.0,0.0,0.0,0.0,0.0,0.0,0.0,0.0,0.0,0.0,0.0,0.0,0.0
4.366766,-0.684281826019,1.08198416233,-1.13449883461,-0.852957010269,-2.19738602638,-1.68058109283,-2.3796877861,0.0664705882353,0.0,0.0,0.0,0.0,0.0,0.0,0.0,0.0,0.0,0.0,0.0,0.0,0.0,0.0,0.0
4.400098,-0.684281826019,1.08198416233,-1.13449883461,-0.852957010269,-2.19738602638,-1.68058109283,-2.3796877861,0.0664705882353,0.0,0.0,0.0,0.0,0.0,0.0,0.0,0.0,0.0,0.0,0.0,0.0,0.0,0.0,0.0
4.433436,-0.684281826019,1.08198416233,-1.13449883461,-0.852957010269,-2.19738602638,-1.68058109283,-2.3796877861,0.0664705882353,0.0,0.0,0.0,0.0,0.0,0.0,0.0,0.0,0.0,0.0,0.0,0.0,0.0,0.0,0.0
4.466771,-0.684281826019,1.08198416233,-1.13449883461,-0.852957010269,-2.19738602638,-1.68058109283,-2.3796877861,0.0664705882353,0.0,0.0,0.0,0.0,0.0,0.0,0.0,0.0,0.0,0.0,0.0,0.0,0.0,0.0,0.0
4.500105,-0.684281826019,1.08198416233,-1.13449883461,-0.852957010269,-2.19738602638,-1.68058109283,-2.3796877861,0.0664705882353,0.0,0.0,0.0,0.0,0.0,0.0,0.0,0.0,0.0,0.0,0.0,0.0,0.0,0.0,0.0
4.533433,-0.684281826019,1.08198416233,-1.13449883461,-0.852957010269,-2.19738602638,-1.68058109283,-2.3796877861,0.0664705882353,0.0,0.0,0.0,0.0,0.0,0.0,0.0,0.0,0.0,0.0,0.0,0.0,0.0,0.0,0.0
4.566780,-0.684281826019,1.08198416233,-1.13449883461,-0.852957010269,-2.19738602638,-1.68058109283,-2.3796877861,0.0664705882353,0.0,0.0,0.0,0.0,0.0,0.0,0.0,0.0,0.0,0.0,0.0,0.0,0.0,0.0,0.0
4.600096,-0.684281826019,1.08198416233,-1.13449883461,-0.852957010269,-2.19738602638,-1.68058109283,-2.3796877861,0.0664705882353,0.0,0.0,0.0,0.0,0.0,0.0,0.0,0.0,0.0,0.0,0.0,0.0,0.0,0.0,0.0
4.633461,-0.684281826019,1.08198416233,-1.13449883461,-0.852957010269,-2.19738602638,-1.68058109283,-2.3796877861,0.0664705882353,0.0,0.0,0.0,0.0,0.0,0.0,0.0,0.0,0.0,0.0,0.0,0.0,0.0,0.0,0.0
4.666762,-0.684281826019,1.08198416233,-1.13449883461,-0.852957010269,-2.19738602638,-1.68058109283,-2.3796877861,0.0664705882353,0.0,0.0,0.0,0.0,0.0,0.0,0.0,0.0,0.0,0.0,0.0,0.0,0.0,0.0,0.0
4.700107,-0.684281826019,1.08198416233,-1.13449883461,-0.852957010269,-2.19738602638,-1.68058109283,-2.3796877861,0.0664705882353,0.0,0.0,0.0,0.0,0.0,0.0,0.0,0.0,0.0,0.0,0.0,0.0,0.0,0.0,0.0
4.733442,-0.684281826019,1.08198416233,-1.13449883461,-0.852957010269,-2.19738602638,-1.68058109283,-2.3796877861,0.0664705882353,0.0,0.0,0.0,0.0,0.0,0.0,0.0,0.0,0.0,0.0,0.0,0.0,0.0,0.0,0.0
4.766759,-0.684281826019,1.08198416233,-1.13449883461,-0.852957010269,-2.19738602638,-1.68058109283,-2.3796877861,0.0664705882353,0.0,0.0,0.0,0.0,0.0,0.0,0.0,0.0,0.0,0.0,0.0,0.0,0.0,0.0,0.0
4.800089,-0.684281826019,1.08198416233,-1.13449883461,-0.852957010269,-2.19738602638,-1.68058109283,-2.3796877861,0.0664705882353,0.0,0.0,0.0,0.0,0.0,0.0,0.0,0.0,0.0,0.0,0.0,0.0,0.0,0.0,0.0
4.833452,-0.684281826019,1.08198416233,-1.13449883461,-0.852957010269,-2.19738602638,-1.68058109283,-2.3796877861,0.0664705882353,0.0,0.0,0.0,0.0,0.0,0.0,0.0,0.0,0.0,0.0,0.0,0.0,0.0,0.0,0.0
4.866774,-0.684281826019,1.08198416233,-1.13449883461,-0.852957010269,-2.19738602638,-1.68058109283,-2.3796877861,0.0664705882353,0.0,0.0,0.0,0.0,0.0,0.0,0.0,0.0,0.0,0.0,0.0,0.0,0.0,0.0,0.0
4.900092,-0.684281826019,1.08198416233,-1.13449883461,-0.852957010269,-2.19738602638,-1.68058109283,-2.3796877861,0.0664705882353,0.0,0.0,0.0,0.0,0.0,0.0,0.0,0.0,0.0,0.0,0.0,0.0,0.0,0.0,0.0
4.933463,-0.684281826019,1.08198416233,-1.13449883461,-0.852957010269,-2.19738602638,-1.68058109283,-2.3796877861,0.0664705882353,0.0,0.0,0.0,0.0,0.0,0.0,0.0,0.0,0.0,0.0,0.0,0.0,0.0,0.0,0.0
4.966760,-0.684281826019,1.08198416233,-1.13449883461,-0.852957010269,-2.19738602638,-1.68058109283,-2.3796877861,0.0664705882353,0.0,0.0,0.0,0.0,0.0,0.0,0.0,0.0,0.0,0.0,0.0,0.0,0.0,0.0,0.0
5.000093,-0.684281826019,1.08198416233,-1.13449883461,-0.852957010269,-2.19738602638,-1.68058109283,-2.3796877861,0.0664705882353,0.0,0.0,0.0,0.0,0.0,0.0,0.0,0.0,0.0,0.0,0.0,0.0,0.0,0.0,0.0
5.033429,-0.684281826019,1.08198416233,-1.13449883461,-0.852957010269,-2.19738602638,-1.68058109283,-2.3796877861,0.0664705882353,0.0,0.0,0.0,0.0,0.0,0.0,0.0,0.0,0.0,0.0,0.0,0.0,0.0,0.0,0.0
5.066762,-0.684281826019,1.08198416233,-1.13449883461,-0.852957010269,-2.19738602638,-1.68058109283,-2.3796877861,0.0664705882353,0.0,0.0,0.0,0.0,0.0,0.0,0.0,0.0,0.0,0.0,0.0,0.0,0.0,0.0,0.0
5.100099,-0.684281826019,1.08198416233,-1.13449883461,-0.852957010269,-2.19738602638,-1.68058109283,-2.3796877861,0.0664705882353,0.0,0.0,0.0,0.0,0.0,0.0,0.0,0.0,0.0,0.0,0.0,0.0,0.0,0.0,0.0
5.133433,-0.684281826019,1.08198416233,-1.13449883461,-0.852957010269,-2.19738602638,-1.68058109283,-2.3796877861,0.0664705882353,0.0,0.0,0.0,0.0,0.0,0.0,0.0,0.0,0.0,0.0,0.0,0.0,0.0,0.0,0.0
5.166769,-0.684281826019,1.08198416233,-1.13449883461,-0.852957010269,-2.19738602638,-1.68058109283,-2.3796877861,0.0664705882353,0.0,0.0,0.0,0.0,0.0,0.0,0.0,0.0,0.0,0.0,0.0,0.0,0.0,0.0,0.0
5.200095,-0.684281826019,1.08198416233,-1.13449883461,-0.852957010269,-2.19738602638,-1.68058109283,-2.3796877861,0.0664705882353,0.0,0.0,0.0,0.0,0.0,0.0,0.0,0.0,0.0,0.0,0.0,0.0,0.0,0.0,0.0
5.233443,-0.684281826019,1.08198416233,-1.13449883461,-0.852957010269,-2.19738602638,-1.68058109283,-2.3796877861,0.0664705882353,0.0,0.0,0.0,0.0,0.0,0.0,0.0,0.0,0.0,0.0,0.0,0.0,0.0,0.0,0.0
5.266768,-0.684281826019,1.08198416233,-1.13449883461,-0.852957010269,-2.19738602638,-1.68058109283,-2.3796877861,0.0664705882353,0.0,0.0,0.0,0.0,0.0,0.0,0.0,0.0,0.0,0.0,0.0,0.0,0.0,0.0,0.0
5.300098,-0.684281826019,1.08198416233,-1.13449883461,-0.852957010269,-2.19738602638,-1.68058109283,-2.3796877861,0.0664705882353,0.0,0.0,0.0,0.0,0.0,0.0,0.0,0.0,0.0,0.0,0.0,0.0,0.0,0.0,0.0
5.333444,-0.684281826019,1.08198416233,-1.13449883461,-0.852957010269,-2.19738602638,-1.68058109283,-2.3796877861,0.0664705882353,0.0,0.0,0.0,0.0,0.0,0.0,0.0,0.0,0.0,0.0,0.0,0.0,0.0,0.0,0.0
5.366771,-0.684281826019,1.08198416233,-1.13449883461,-0.852957010269,-2.19738602638,-1.68058109283,-2.3796877861,0.0664705882353,0.0,0.0,0.0,0.0,0.0,0.0,0.0,0.0,0.0,0.0,0.0,0.0,0.0,0.0,0.0
5.400094,-0.684281826019,1.08198416233,-1.13449883461,-0.852957010269,-2.19738602638,-1.68058109283,-2.3796877861,0.0664705882353,0.0,0.0,0.0,0.0,0.0,0.0,0.0,0.0,0.0,0.0,0.0,0.0,0.0,0.0,0.0
5.433430,-0.684281826019,1.08198416233,-1.13449883461,-0.852957010269,-2.19738602638,-1.68058109283,-2.3796877861,0.0664705882353,0.0,0.0,0.0,0.0,0.0,0.0,0.0,0.0,0.0,0.0,0.0,0.0,0.0,0.0,0.0
5.466758,-0.684281826019,1.08198416233,-1.13449883461,-0.852957010269,-2.19738602638,-1.68058109283,-2.3796877861,0.0664705882353,0.0,0.0,0.0,0.0,0.0,0.0,0.0,0.0,0.0,0.0,0.0,0.0,0.0,0.0,0.0
5.500100,-0.684281826019,1.08198416233,-1.13449883461,-0.852957010269,-2.19738602638,-1.68058109283,-2.3796877861,0.0664705882353,0.0,0.0,0.0,0.0,0.0,0.0,0.0,0.0,0.0,0.0,0.0,0.0,0.0,0.0,0.0
5.533457,-0.684281826019,1.08198416233,-1.13449883461,-0.852957010269,-2.19738602638,-1.68058109283,-2.3796877861,0.0664705882353,0.0,0.0,0.0,0.0,0.0,0.0,0.0,0.0,0.0,0.0,0.0,0.0,0.0,0.0,0.0
5.566761,-0.684281826019,1.08198416233,-1.13449883461,-0.852957010269,-2.19738602638,-1.68058109283,-2.3796877861,0.0664705882353,0.0,0.0,0.0,0.0,0.0,0.0,0.0,0.0,0.0,0.0,0.0,0.0,0.0,0.0,0.0
5.600090,-0.684281826019,1.08198416233,-1.13449883461,-0.852957010269,-2.19738602638,-1.68058109283,-2.3796877861,0.0664705882353,0.0,0.0,0.0,0.0,0.0,0.0,0.0,0.0,0.0,0.0,0.0,0.0,0.0,0.0,0.0
5.633446,-0.684281826019,1.08198416233,-1.13449883461,-0.852957010269,-2.19738602638,-1.68058109283,-2.3796877861,0.0664705882353,0.0,0.0,0.0,0.0,0.0,0.0,0.0,0.0,0.0,0.0,0.0,0.0,0.0,0.0,0.0
5.666765,-0.684281826019,1.08198416233,-1.13449883461,-0.852957010269,-2.19738602638,-1.68058109283,-2.3796877861,0.0664705882353,0.0,0.0,0.0,0.0,0.0,0.0,0.0,0.0,0.0,0.0,0.0,0.0,0.0,0.0,0.0
5.700099,-0.684281826019,1.08198416233,-1.13449883461,-0.852957010269,-2.19738602638,-1.68058109283,-2.3796877861,0.0664705882353,0.0,0.0,0.0,0.0,0.0,0.0,0.0,0.0,0.0,0.0,0.0,0.0,0.0,0.0,0.0
5.733435,-0.684281826019,1.08198416233,-1.13449883461,-0.852957010269,-2.19738602638,-1.68058109283,-2.3796877861,0.0664705882353,0.0,0.0,0.0,0.0,0.0,0.0,0.0,0.0,0.0,0.0,0.0,0.0,0.0,0.0,0.0
5.766766,-0.684281826019,1.08198416233,-1.13449883461,-0.852957010269,-2.19738602638,-1.68058109283,-2.3796877861,0.0664705882353,0.0,0.0,0.0,0.0,0.0,0.0,0.0,0.0,0.0,0.0,0.0,0.0,0.0,0.0,0.0
5.800101,-0.684281826019,1.08198416233,-1.13449883461,-0.852957010269,-2.19738602638,-1.68058109283,-2.3796877861,0.0664705882353,0.0,0.0,0.0,0.0,0.0,0.0,0.0,0.0,0.0,0.0,0.0,0.0,0.0,0.0,0.0
5.833431,-0.684281826019,1.08198416233,-1.13449883461,-0.852957010269,-2.19738602638,-1.68058109283,-2.3796877861,0.0664705882353,0.0,0.0,0.0,0.0,0.0,0.0,0.0,0.0,0.0,0.0,0.0,0.0,0.0,0.0,0.0
5.866782,-0.684281826019,1.08198416233,-1.13449883461,-0.852957010269,-2.19738602638,-1.68058109283,-2.3796877861,0.0664705882353,0.0,0.0,0.0,0.0,0.0,0.0,0.0,0.0,0.0,0.0,0.0,0.0,0.0,0.0,0.0
5.900093,-0.684281826019,1.08198416233,-1.13449883461,-0.852957010269,-2.19738602638,-1.68058109283,-2.3796877861,0.0664705882353,0.0,0.0,0.0,0.0,0.0,0.0,0.0,0.0,0.0,0.0,0.0,0.0,0.0,0.0,0.0
5.933441,-0.684281826019,1.08198416233,-1.13449883461,-0.852957010269,-2.19738602638,-1.68058109283,-2.3796877861,0.0664705882353,0.0,0.0,0.0,0.0,0.0,0.0,0.0,0.0,0.0,0.0,0.0,0.0,0.0,0.0,0.0
5.966766,-0.684281826019,1.08198416233,-1.13449883461,-0.852957010269,-2.19738602638,-1.68058109283,-2.3796877861,0.0664705882353,0.0,0.0,0.0,0.0,0.0,0.0,0.0,0.0,0.0,0.0,0.0,0.0,0.0,0.0,0.0
6.000117,-0.684281826019,1.08198416233,-1.13449883461,-0.852957010269,-2.19738602638,-1.68058109283,-2.3796877861,0.0664705882353,0.0,0.0,0.0,0.0,0.0,0.0,0.0,0.0,0.0,0.0,0.0,0.0,0.0,0.0,0.0
6.033428,-0.684281826019,1.08198416233,-1.13449883461,-0.852957010269,-2.19738602638,-1.68058109283,-2.3796877861,0.0664705882353,0.0,0.0,0.0,0.0,0.0,0.0,0.0,0.0,0.0,0.0,0.0,0.0,0.0,0.0,0.0
6.066757,-0.684281826019,1.08198416233,-1.13449883461,-0.852957010269,-2.19738602638,-1.68058109283,-2.3796877861,0.0664705882353,0.0,0.0,0.0,0.0,0.0,0.0,0.0,0.0,0.0,0.0,0.0,0.0,0.0,0.0,0.0
6.100097,-0.684281826019,1.08198416233,-1.13449883461,-0.852957010269,-2.19738602638,-1.68058109283,-2.3796877861,0.0664705882353,0.0,0.0,0.0,0.0,0.0,0.0,0.0,0.0,0.0,0.0,0.0,0.0,0.0,0.0,0.0
6.133447,-0.684281826019,1.08198416233,-1.13449883461,-0.852957010269,-2.19738602638,-1.68058109283,-2.3796877861,0.0664705882353,0.0,0.0,0.0,0.0,0.0,0.0,0.0,0.0,0.0,0.0,0.0,0.0,0.0,0.0,0.0
6.166762,-0.684281826019,1.08198416233,-1.13449883461,-0.852957010269,-2.19738602638,-1.68058109283,-2.3796877861,0.0664705882353,0.0,0.0,0.0,0.0,0.0,0.0,0.0,0.0,0.0,0.0,0.0,0.0,0.0,0.0,0.0
6.200096,-0.684281826019,1.08198416233,-1.13449883461,-0.852957010269,-2.19738602638,-1.68058109283,-2.3796877861,0.0664705882353,0.0,0.0,0.0,0.0,0.0,0.0,0.0,0.0,0.0,0.0,0.0,0.0,0.0,0.0,0.0
6.233431,-0.684281826019,1.08198416233,-1.13449883461,-0.852957010269,-2.19738602638,-1.68058109283,-2.3796877861,0.0664705882353,0.0,0.0,0.0,0.0,0.0,0.0,0.0,0.0,0.0,0.0,0.0,0.0,0.0,0.0,0.0
6.266770,-0.684281826019,1.08198416233,-1.13449883461,-0.852957010269,-2.19738602638,-1.68058109283,-2.3796877861,0.0664705882353,0.0,0.0,0.0,0.0,0.0,0.0,0.0,0.0,0.0,0.0,0.0,0.0,0.0,0.0,0.0
6.300094,-0.684281826019,1.08198416233,-1.13449883461,-0.852957010269,-2.19738602638,-1.68058109283,-2.3796877861,0.0664705882353,0.0,0.0,0.0,0.0,0.0,0.0,0.0,0.0,0.0,0.0,0.0,0.0,0.0,0.0,0.0
6.333447,-0.684281826019,1.08198416233,-1.13449883461,-0.852957010269,-2.19738602638,-1.68058109283,-2.3796877861,0.0664705882353,0.0,0.0,0.0,0.0,0.0,0.0,0.0,0.0,0.0,0.0,0.0,0.0,0.0,0.0,0.0
6.366762,-0.684281826019,1.08198416233,-1.13449883461,-0.852957010269,-2.19738602638,-1.68058109283,-2.3796877861,0.0664705882353,0.0,0.0,0.0,0.0,0.0,0.0,0.0,0.0,0.0,0.0,0.0,0.0,0.0,0.0,0.0
6.400137,-0.684281826019,1.08198416233,-1.13449883461,-0.852957010269,-2.19738602638,-1.68058109283,-2.3796877861,0.0664705882353,0.0,0.0,0.0,0.0,0.0,0.0,0.0,0.0,0.0,0.0,0.0,0.0,0.0,0.0,0.0
6.433437,-0.684281826019,1.08198416233,-1.13449883461,-0.852957010269,-2.19738602638,-1.68058109283,-2.3796877861,0.0664705882353,0.0,0.0,0.0,0.0,0.0,0.0,0.0,0.0,0.0,0.0,0.0,0.0,0.0,0.0,0.0
6.466763,-0.684281826019,1.08198416233,-1.13449883461,-0.852957010269,-2.19738602638,-1.68058109283,-2.3796877861,0.0664705882353,0.0,0.0,0.0,0.0,0.0,0.0,0.0,0.0,0.0,0.0,0.0,0.0,0.0,0.0,0.0
6.500102,-0.684281826019,1.08198416233,-1.13449883461,-0.852957010269,-2.19738602638,-1.68058109283,-2.3796877861,0.0664705882353,0.0,0.0,0.0,0.0,0.0,0.0,0.0,0.0,0.0,0.0,0.0,0.0,0.0,0.0,0.0
6.533457,-0.684281826019,1.08198416233,-1.13449883461,-0.852957010269,-2.19738602638,-1.68058109283,-2.3796877861,0.0664705882353,0.0,0.0,0.0,0.0,0.0,0.0,0.0,0.0,0.0,0.0,0.0,0.0,0.0,0.0,0.0
6.566764,-0.684281826019,1.08198416233,-1.13449883461,-0.852957010269,-2.19738602638,-1.68058109283,-2.3796877861,0.0664705882353,0.0,0.0,0.0,0.0,0.0,0.0,0.0,0.0,0.0,0.0,0.0,0.0,0.0,0.0,0.0
6.600096,-0.684281826019,1.08198416233,-1.13449883461,-0.852957010269,-2.19738602638,-1.68058109283,-2.3796877861,0.0664705882353,0.0,0.0,0.0,0.0,0.0,0.0,0.0,0.0,0.0,0.0,0.0,0.0,0.0,0.0,0.0
6.633461,-0.684281826019,1.08198416233,-1.13449883461,-0.852957010269,-2.19738602638,-1.68058109283,-2.3796877861,0.0664705882353,0.0,0.0,0.0,0.0,0.0,0.0,0.0,0.0,0.0,0.0,0.0,0.0,0.0,0.0,0.0
6.666756,-0.684281826019,1.08198416233,-1.13449883461,-0.852957010269,-2.19738602638,-1.68058109283,-2.3796877861,0.0664705882353,0.0,0.0,0.0,0.0,0.0,0.0,0.0,0.0,0.0,0.0,0.0,0.0,0.0,0.0,0.0
6.700093,-0.684281826019,1.08198416233,-1.13449883461,-0.852957010269,-2.19738602638,-1.68058109283,-2.3796877861,0.0664705882353,0.0,0.0,0.0,0.0,0.0,0.0,0.0,0.0,0.0,0.0,0.0,0.0,0.0,0.0,0.0
6.733464,-0.684281826019,1.08198416233,-1.13449883461,-0.852957010269,-2.19738602638,-1.68058109283,-2.3796877861,0.0664705882353,0.0,0.0,0.0,0.0,0.0,0.0,0.0,0.0,0.0,0.0,0.0,0.0,0.0,0.0,0.0
6.766767,-0.684281826019,1.08198416233,-1.13449883461,-0.852957010269,-2.19738602638,-1.68058109283,-2.3796877861,0.0664705882353,0.0,0.0,0.0,0.0,0.0,0.0,0.0,0.0,0.0,0.0,0.0,0.0,0.0,0.0,0.0
6.800094,-0.684281826019,1.08198416233,-1.13449883461,-0.852957010269,-2.19738602638,-1.68058109283,-2.3796877861,0.0664705882353,0.0,0.0,0.0,0.0,0.0,0.0,0.0,0.0,0.0,0.0,0.0,0.0,0.0,0.0,0.0
6.833441,-0.684281826019,1.08198416233,-1.13449883461,-0.852957010269,-2.19738602638,-1.68058109283,-2.3796877861,0.0664705882353,0.0,0.0,0.0,0.0,0.0,0.0,0.0,0.0,0.0,0.0,0.0,0.0,0.0,0.0,0.0
6.866758,-0.684281826019,1.08198416233,-1.13449883461,-0.852957010269,-2.19738602638,-1.68058109283,-2.3796877861,0.0664705882353,0.0,0.0,0.0,0.0,0.0,0.0,0.0,0.0,0.0,0.0,0.0,0.0,0.0,0.0,0.0
6.900097,-0.684281826019,1.08198416233,-1.13449883461,-0.852957010269,-2.19738602638,-1.68058109283,-2.3796877861,0.0664705882353,0.0,0.0,0.0,0.0,0.0,0.0,0.0,0.0,0.0,0.0,0.0,0.0,0.0,0.0,0.0
6.933432,-0.684281826019,1.08198416233,-1.13449883461,-0.852957010269,-2.19738602638,-1.68058109283,-2.3796877861,0.0664705882353,0.0,0.0,0.0,0.0,0.0,0.0,0.0,0.0,0.0,0.0,0.0,0.0,0.0,0.0,0.0
6.966759,-0.684281826019,1.08198416233,-1.13449883461,-0.852957010269,-2.19738602638,-1.68058109283,-2.3796877861,0.0664705882353,0.0,0.0,0.0,0.0,0.0,0.0,0.0,0.0,0.0,0.0,0.0,0.0,0.0,0.0,0.0
7.000094,-0.684281826019,1.08198416233,-1.13449883461,-0.852957010269,-2.19738602638,-1.68058109283,-2.3796877861,0.0664705882353,0.0,0.0,0.0,0.0,0.0,0.0,0.0,0.0,0.0,0.0,0.0,0.0,0.0,0.0,0.0
7.033442,-0.684281826019,1.08198416233,-1.13449883461,-0.852957010269,-2.19738602638,-1.68058109283,-2.3796877861,0.0664705882353,0.0,0.0,0.0,0.0,0.0,0.0,0.0,0.0,0.0,0.0,0.0,0.0,0.0,0.0,0.0
7.066757,-0.684281826019,1.08198416233,-1.13449883461,-0.852957010269,-2.19738602638,-1.68058109283,-2.3796877861,0.0664705882353,0.0,0.0,0.0,0.0,0.0,0.0,0.0,0.0,0.0,0.0,0.0,0.0,0.0,0.0,0.0
7.100094,-0.684281826019,1.08198416233,-1.13449883461,-0.852957010269,-2.19738602638,-1.68058109283,-2.3796877861,0.0664705882353,0.0,0.0,0.0,0.0,0.0,0.0,0.0,0.0,0.0,0.0,0.0,0.0,0.0,0.0,0.0
7.133422,-0.684281826019,1.08198416233,-1.13449883461,-0.852957010269,-2.19738602638,-1.68058109283,-2.3796877861,0.0664705882353,0.0,0.0,0.0,0.0,0.0,0.0,0.0,0.0,0.0,0.0,0.0,0.0,0.0,0.0,0.0
7.166776,-0.684281826019,1.08198416233,-1.13449883461,-0.852957010269,-2.19738602638,-1.68058109283,-2.3796877861,0.0664705882353,0.0,0.0,0.0,0.0,0.0,0.0,0.0,0.0,0.0,0.0,0.0,0.0,0.0,0.0,0.0
7.200097,-0.684281826019,1.08198416233,-1.13449883461,-0.852957010269,-2.19738602638,-1.68058109283,-2.3796877861,0.0664705882353,0.0,0.0,0.0,0.0,0.0,0.0,0.0,0.0,0.0,0.0,0.0,0.0,0.0,0.0,0.0
7.233436,-0.684281826019,1.08198416233,-1.13449883461,-0.852957010269,-2.19738602638,-1.68058109283,-2.3796877861,0.0664705882353,0.0,0.0,0.0,0.0,0.0,0.0,0.0,0.0,0.0,0.0,0.0,0.0,0.0,0.0,0.0
7.266766,-0.684281826019,1.08198416233,-1.13449883461,-0.852957010269,-2.19738602638,-1.68058109283,-2.3796877861,0.0664705882353,0.0,0.0,0.0,0.0,0.0,0.0,0.0,0.0,0.0,0.0,0.0,0.0,0.0,0.0,0.0
7.300115,-0.684281826019,1.08198416233,-1.13449883461,-0.852957010269,-2.19738602638,-1.68058109283,-2.3796877861,0.0664705882353,0.0,0.0,0.0,0.0,0.0,0.0,0.0,0.0,0.0,0.0,0.0,0.0,0.0,0.0,0.0
7.333440,-0.684281826019,1.08198416233,-1.13449883461,-0.852957010269,-2.19738602638,-1.68058109283,-2.3796877861,0.0664705882353,0.0,0.0,0.0,0.0,0.0,0.0,0.0,0.0,0.0,0.0,0.0,0.0,0.0,0.0,0.0
7.366751,-0.684281826019,1.08198416233,-1.13449883461,-0.852957010269,-2.19738602638,-1.68058109283,-2.3796877861,0.0664705882353,0.0,0.0,0.0,0.0,0.0,0.0,0.0,0.0,0.0,0.0,0.0,0.0,0.0,0.0,0.0
7.400103,-0.684281826019,1.08198416233,-1.13449883461,-0.852957010269,-2.19738602638,-1.68058109283,-2.3796877861,0.0664705882353,0.0,0.0,0.0,0.0,0.0,0.0,0.0,0.0,0.0,0.0,0.0,0.0,0.0,0.0,0.0
7.433433,-0.684281826019,1.08198416233,-1.13449883461,-0.852957010269,-2.19738602638,-1.68058109283,-2.3796877861,0.0664705882353,0.0,0.0,0.0,0.0,0.0,0.0,0.0,0.0,0.0,0.0,0.0,0.0,0.0,0.0,0.0
7.466764,-0.684281826019,1.08198416233,-1.13449883461,-0.852957010269,-2.19738602638,-1.68058109283,-2.3796877861,0.0664705882353,0.0,0.0,0.0,0.0,0.0,0.0,0.0,0.0,0.0,0.0,0.0,0.0,0.0,0.0,0.0
7.500100,-0.684281826019,1.08198416233,-1.13449883461,-0.852957010269,-2.19738602638,-1.68058109283,-2.3796877861,0.0664705882353,0.0,0.0,0.0,0.0,0.0,0.0,0.0,0.0,0.0,0.0,0.0,0.0,0.0,0.0,0.0
7.533441,-0.684281826019,1.08198416233,-1.13449883461,-0.852957010269,-2.19738602638,-1.68058109283,-2.3796877861,0.0664705882353,0.0,0.0,0.0,0.0,0.0,0.0,0.0,0.0,0.0,0.0,0.0,0.0,0.0,0.0,0.0
7.566760,-0.684281826019,1.08198416233,-1.13449883461,-0.852957010269,-2.19738602638,-1.68058109283,-2.3796877861,0.0664705882353,0.0,0.0,0.0,0.0,0.0,0.0,0.0,0.0,0.0,0.0,0.0,0.0,0.0,0.0,0.0
7.600092,-0.684281826019,1.08198416233,-1.13449883461,-0.852957010269,-2.19738602638,-1.68058109283,-2.3796877861,0.0664705882353,0.0,0.0,0.0,0.0,0.0,0.0,0.0,0.0,0.0,0.0,0.0,0.0,0.0,0.0,0.0
7.633446,-0.684281826019,1.08198416233,-1.13449883461,-0.852957010269,-2.19738602638,-1.68058109283,-2.3796877861,0.0664705882353,0.0,0.0,0.0,0.0,0.0,0.0,0.0,0.0,0.0,0.0,0.0,0.0,0.0,0.0,0.0
7.666774,-0.684281826019,1.08198416233,-1.13449883461,-0.852957010269,-2.19738602638,-1.68058109283,-2.3796877861,0.0664705882353,0.0,0.0,0.0,0.0,0.0,0.0,0.0,0.0,0.0,0.0,0.0,0.0,0.0,0.0,0.0
7.700105,-0.684281826019,1.08198416233,-1.13449883461,-0.852957010269,-2.19738602638,-1.68058109283,-2.3796877861,0.0664705882353,0.0,0.0,0.0,0.0,0.0,0.0,0.0,0.0,0.0,0.0,0.0,0.0,0.0,0.0,0.0
7.733465,-0.684281826019,1.08198416233,-1.13449883461,-0.852957010269,-2.19738602638,-1.68058109283,-2.3796877861,0.0664705882353,0.0,0.0,0.0,0.0,0.0,0.0,0.0,0.0,0.0,0.0,0.0,0.0,0.0,0.0,0.0
7.766772,-0.684281826019,1.08198416233,-1.13449883461,-0.852957010269,-2.19738602638,-1.68058109283,-2.3796877861,0.0664705882353,0.0,0.0,0.0,0.0,0.0,0.0,0.0,0.0,0.0,0.0,0.0,0.0,0.0,0.0,0.0
7.800075,-0.684281826019,1.08198416233,-1.13449883461,-0.852957010269,-2.19738602638,-1.68058109283,-2.3796877861,0.0664705882353,0.0,0.0,0.0,0.0,0.0,0.0,0.0,0.0,0.0,0.0,0.0,0.0,0.0,0.0,0.0
7.833451,-0.684281826019,1.08198416233,-1.13449883461,-0.852957010269,-2.19738602638,-1.68058109283,-2.3796877861,0.0664705882353,0.0,0.0,0.0,0.0,0.0,0.0,0.0,0.0,0.0,0.0,0.0,0.0,0.0,0.0,0.0
7.866761,-0.684281826019,1.08198416233,-1.13449883461,-0.852957010269,-2.19738602638,-1.68058109283,-2.3796877861,0.0664705882353,0.0,0.0,0.0,0.0,0.0,0.0,0.0,0.0,0.0,0.0,0.0,0.0,0.0,0.0,0.0
7.900098,-0.684281826019,1.08198416233,-1.13449883461,-0.852957010269,-2.19738602638,-1.68058109283,-2.3796877861,0.0664705882353,0.0,0.0,0.0,0.0,0.0,0.0,0.0,0.0,0.0,0.0,0.0,0.0,0.0,0.0,0.0
7.933445,-0.684281826019,1.08198416233,-1.13449883461,-0.852957010269,-2.19738602638,-1.68058109283,-2.3796877861,0.0664705882353,0.0,0.0,0.0,0.0,0.0,0.0,0.0,0.0,0.0,0.0,0.0,0.0,0.0,0.0,0.0
7.966763,-0.684281826019,1.08198416233,-1.13449883461,-0.852957010269,-2.19738602638,-1.68058109283,-2.3796877861,0.0664705882353,0.0,0.0,0.0,0.0,0.0,0.0,0.0,0.0,0.0,0.0,0.0,0.0,0.0,0.0,0.0
8.000089,-0.684281826019,1.08198416233,-1.13449883461,-0.852957010269,-2.19738602638,-1.68058109283,-2.3796877861,0.0664705882353,0.0,0.0,0.0,0.0,0.0,0.0,0.0,0.0,0.0,0.0,0.0,0.0,0.0,0.0,0.0
8.033451,-0.684281826019,1.08198416233,-1.13449883461,-0.852957010269,-2.19738602638,-1.68058109283,-2.3796877861,0.0664705882353,0.0,0.0,0.0,0.0,0.0,0.0,0.0,0.0,0.0,0.0,0.0,0.0,0.0,0.0,0.0
8.066738,-0.684281826019,1.08198416233,-1.13449883461,-0.852957010269,-2.19738602638,-1.68058109283,-2.3796877861,0.0664705882353,0.0,0.0,0.0,0.0,0.0,0.0,0.0,0.0,0.0,0.0,0.0,0.0,0.0,0.0,0.0
8.100095,-0.684281826019,1.08198416233,-1.13449883461,-0.852957010269,-2.19738602638,-1.68058109283,-2.3796877861,0.0664705882353,0.0,0.0,0.0,0.0,0.0,0.0,0.0,0.0,0.0,0.0,0.0,0.0,0.0,0.0,0.0
8.133443,-0.684281826019,1.08198416233,-1.13449883461,-0.852957010269,-2.19738602638,-1.68058109283,-2.3796877861,0.0664705882353,0.0,0.0,0.0,0.0,0.0,0.0,0.0,0.0,0.0,0.0,0.0,0.0,0.0,0.0,0.0
8.166763,-0.684281826019,1.08198416233,-1.13449883461,-0.852957010269,-2.19738602638,-1.68058109283,-2.3796877861,0.0664705882353,0.0,0.0,0.0,0.0,0.0,0.0,0.0,0.0,0.0,0.0,0.0,0.0,0.0,0.0,0.0
8.200093,-0.684281826019,1.08198416233,-1.13449883461,-0.852957010269,-2.19738602638,-1.68058109283,-2.3796877861,0.0664705882353,0.0,0.0,0.0,0.0,0.0,0.0,0.0,0.0,0.0,0.0,0.0,0.0,0.0,0.0,0.0
8.233466,-0.684283137321,1.08196485043,-1.1345089674,-0.852863609791,-2.19725298882,-1.68058109283,-2.37966918945,0.0664705882353,0.0,0.0,0.0,0.0,0.0,0.0,0.0,0.0,0.0,0.0,0.0,0.0,0.0,0.0,0.0
8.266763,-0.684285581112,1.08195972443,-1.13451552391,-0.852720558643,-2.19669675827,-1.68058109283,-2.37966918945,0.0664705882353,0.0,0.0,0.0,0.0,0.0,0.0,0.0,0.0,0.0,0.0,0.0,0.0,0.0,0.0,0.0
8.300094,-0.684285581112,1.08190608025,-1.1345294714,-0.852513492107,-2.19570684433,-1.68058109283,-2.3796672821,0.0664705882353,0.0,0.0,0.0,0.0,0.0,0.0,0.0,0.0,0.0,0.0,0.0,0.0,0.0,0.0,0.0
8.333438,-0.684285581112,1.0817309618,-1.13465738297,-0.852129995823,-2.19406867027,-1.68058109283,-2.3796672821,0.0664705882353,0.0,0.0,0.0,0.0,0.0,0.0,0.0,0.0,0.0,0.0,0.0,0.0,0.0,0.0,0.0
8.366760,-0.684285581112,1.08148550987,-1.13480567932,-0.851741433144,-2.19288420677,-1.68058109283,-2.37966561317,0.0664705882353,0.0,0.0,0.0,0.0,0.0,0.0,0.0,0.0,0.0,0.0,0.0,0.0,0.0,0.0,0.0
8.400092,-0.684285581112,1.08115696907,-1.13504469395,-0.851090669632,-2.1918759346,-1.68058109283,-2.37966561317,0.0664705882353,0.0,0.0,0.0,0.0,0.0,0.0,0.0,0.0,0.0,0.0,0.0,0.0,0.0,0.0,0.0
8.433429,-0.684284389019,1.08050763607,-1.13576292992,-0.848986506462,-2.19153022766,-1.68058109283,-2.37966394424,0.0664705882353,0.0,0.0,0.0,0.0,0.0,0.0,0.0,0.0,0.0,0.0,0.0,0.0,0.0,0.0,0.0
8.466758,-0.68419355154,1.07983267307,-1.13666296005,-0.846349477768,-2.19153666496,-1.68058109283,-2.37966227531,0.0664705882353,0.0,0.0,0.0,0.0,0.0,0.0,0.0,0.0,0.0,0.0,0.0,0.0,0.0,0.0,0.0
8.500101,-0.683738589287,1.07884955406,-1.1378223896,-0.842927336693,-2.19154477119,-1.68058109283,-2.37966036797,0.0664705882353,0.0,0.0,0.0,0.0,0.0,0.0,0.0,0.0,0.0,0.0,0.0,0.0,0.0,0.0,0.0
8.533476,-0.682586729527,1.07681465149,-1.13997519016,-0.836884796619,-2.19156098366,-1.68058109283,-2.37965869904,0.0664705882353,0.0,0.0,0.0,0.0,0.0,0.0,0.0,0.0,0.0,0.0,0.0,0.0,0.0,0.0,0.0
8.566754,-0.681350648403,1.07481527328,-1.14217507839,-0.831005752087,-2.19157528877,-1.68058109283,-2.37965726852,0.0664705882353,0.0,0.0,0.0,0.0,0.0,0.0,0.0,0.0,0.0,0.0,0.0,0.0,0.0,0.0,0.0
8.600111,-0.679854989052,1.07222282887,-1.14546298981,-0.823882997036,-2.19166922569,-1.68058109283,-2.37965369225,0.0664705882353,0.0,0.0,0.0,0.0,0.0,0.0,0.0,0.0,0.0,0.0,0.0,0.0,0.0,0.0,0.0
8.633440,-0.677380204201,1.06805562973,-1.15128695965,-0.812879264355,-2.19167947769,-1.68058800697,-2.37965202332,0.0664705882353,0.0,0.0,0.0,0.0,0.0,0.0,0.0,0.0,0.0,0.0,0.0,0.0,0.0,0.0,0.0
8.666759,-0.675145685673,1.06442391872,-1.15627992153,-0.803780078888,-2.19168162346,-1.68058979511,-2.3796505928,0.0664705882353,0.0,0.0,0.0,0.0,0.0,0.0,0.0,0.0,0.0,0.0,0.0,0.0,0.0,0.0,0.0
8.700104,-0.672734797001,1.06055307388,-1.16152608395,-0.794811487198,-2.19168162346,-1.68060684204,-2.37964677811,0.0664705882353,0.0,0.0,0.0,0.0,0.0,0.0,0.0,0.0,0.0,0.0,0.0,0.0,0.0,0.0,0.0
8.733458,-0.668904960155,1.05508577824,-1.16794598103,-0.784082531929,-2.19168353081,-1.68062198162,-2.37964177132,0.0664705882353,0.0,0.0,0.0,0.0,0.0,0.0,0.0,0.0,0.0,0.0,0.0,0.0,0.0,0.0,0.0
8.766780,-0.665831804276,1.05100786686,-1.17249166965,-0.777266561985,-2.19168567657,-1.68062567711,-2.37963676453,0.0664705882353,0.0,0.0,0.0,0.0,0.0,0.0,0.0,0.0,0.0,0.0,0.0,0.0,0.0,0.0,0.0
8.800112,-0.662476360798,1.04714095592,-1.17661941051,-0.771524429321,-2.19168567657,-1.68062889576,-2.37963318825,0.0664705882353,0.0,0.0,0.0,0.0,0.0,0.0,0.0,0.0,0.0,0.0,0.0,0.0,0.0,0.0,0.0
8.833438,-0.657539367676,1.04248917103,-1.18116891384,-0.765445947647,-2.19168972969,-1.68063080311,-2.37962460518,0.0664705882353,0.0,0.0,0.0,0.0,0.0,0.0,0.0,0.0,0.0,0.0,0.0,0.0,0.0,0.0,0.0
8.866758,-0.653618872166,1.03915917873,-1.18449258804,-0.762053370476,-2.19170403481,-1.68063080311,-2.37961483002,0.0664705882353,0.0,0.0,0.0,0.0,0.0,0.0,0.0,0.0,0.0,0.0,0.0,0.0,0.0,0.0,0.0
8.900093,-0.649914264679,1.03608608246,-1.18800795078,-0.759605288506,-2.19171643257,-1.68063080311,-2.37961292267,0.0664705882353,0.0,0.0,0.0,0.0,0.0,0.0,0.0,0.0,0.0,0.0,0.0,0.0,0.0,0.0,0.0
8.933454,-0.64526373148,1.03257715702,-1.19302916527,-0.757295489311,-2.19173693657,-1.68063080311,-2.37960934639,0.0664705882353,0.0,0.0,0.0,0.0,0.0,0.0,0.0,0.0,0.0,0.0,0.0,0.0,0.0,0.0,0.0
8.966769,-0.641749739647,1.03028512001,-1.19714903831,-0.756174445152,-2.19195199013,-1.68063080311,-2.37960934639,0.0664705882353,0.0,0.0,0.0,0.0,0.0,0.0,0.0,0.0,0.0,0.0,0.0,0.0,0.0,0.0,0.0
9.000093,-0.638123095036,1.0283370018,-1.20148777962,-0.755219459534,-2.19266104698,-1.68063080311,-2.37960767746,0.0664705882353,0.0,0.0,0.0,0.0,0.0,0.0,0.0,0.0,0.0,0.0,0.0,0.0,0.0,0.0,0.0
9.033428,-0.633431732655,1.02636837959,-1.20799303055,-0.754084289074,-2.1946105957,-1.68063080311,-2.37960577011,0.0664705882353,0.0,0.0,0.0,0.0,0.0,0.0,0.0,0.0,0.0,0.0,0.0,0.0,0.0,0.0,0.0
9.066761,-0.630169391632,1.0253316164,-1.21369957924,-0.75326114893,-2.19686031342,-1.68063080311,-2.37960577011,0.0664705882353,0.0,0.0,0.0,0.0,0.0,0.0,0.0,0.0,0.0,0.0,0.0,0.0,0.0,0.0,0.0
9.100154,-0.626875221729,1.02460420132,-1.21966028214,-0.752520978451,-2.19903850555,-1.68063080311,-2.37960577011,0.0664705882353,0.0,0.0,0.0,0.0,0.0,0.0,0.0,0.0,0.0,0.0,0.0,0.0,0.0,0.0,0.0
9.133440,-0.62246119976,1.02436125278,-1.22773420811,-0.751135230064,-2.20120859146,-1.68063080311,-2.37960577011,0.0664705882353,0.0,0.0,0.0,0.0,0.0,0.0,0.0,0.0,0.0,0.0,0.0,0.0,0.0,0.0,0.0
9.166760,-0.61887550354,1.02442789078,-1.23354029655,-0.749869704247,-2.20259356499,-1.68063080311,-2.37960410118,0.0664705882353,0.0,0.0,0.0,0.0,0.0,0.0,0.0,0.0,0.0,0.0,0.0,0.0,0.0,0.0,0.0
9.200094,-0.615034162998,1.02451598644,-1.23870837688,-0.748737156391,-2.20407009125,-1.68062889576,-2.37960410118,0.0664705882353,0.0,0.0,0.0,0.0,0.0,0.0,0.0,0.0,0.0,0.0,0.0,0.0,0.0,0.0,0.0
9.233444,-0.610056340694,1.02462089062,-1.24506556988,-0.747226059437,-2.2062420845,-1.68062889576,-2.37960410118,0.0664705882353,0.0,0.0,0.0,0.0,0.0,0.0,0.0,0.0,0.0,0.0,0.0,0.0,0.0,0.0,0.0
9.266790,-0.606395304203,1.02463746071,-1.24949753284,-0.746041119099,-2.2078742981,-1.68062889576,-2.37960410118,0.0664705882353,0.0,0.0,0.0,0.0,0.0,0.0,0.0,0.0,0.0,0.0,0.0,0.0,0.0,0.0,0.0
9.300107,-0.602515518665,1.02463245392,-1.25377345085,-0.744600534439,-2.20959448814,-1.68062889576,-2.37960410118,0.0664705882353,0.0,0.0,0.0,0.0,0.0,0.0,0.0,0.0,0.0,0.0,0.0,0.0,0.0,0.0,0.0
9.333441,-0.596843659878,1.02463245392,-1.25904905796,-0.74181252718,-2.21189546585,-1.68062889576,-2.37960267067,0.0664705882353,0.0,0.0,0.0,0.0,0.0,0.0,0.0,0.0,0.0,0.0,0.0,0.0,0.0,0.0,0.0
9.366762,-0.59268784523,1.02462208271,-1.26277673244,-0.739952504635,-2.21277475357,-1.68062889576,-2.37960267067,0.0664705882353,0.0,0.0,0.0,0.0,0.0,0.0,0.0,0.0,0.0,0.0,0.0,0.0,0.0,0.0,0.0
9.400098,-0.588749408722,1.02462208271,-1.2662307024,-0.738193631172,-2.21281385422,-1.68062889576,-2.37960267067,0.0664705882353,0.0,0.0,0.0,0.0,0.0,0.0,0.0,0.0,0.0,0.0,0.0,0.0,0.0,0.0,0.0
9.433453,-0.583602845669,1.02462208271,-1.26927173138,-0.73619812727,-2.21279740334,-1.68062889576,-2.37960267067,0.0664705882353,0.0,0.0,0.0,0.0,0.0,0.0,0.0,0.0,0.0,0.0,0.0,0.0,0.0,0.0,0.0
9.466771,-0.579675912857,1.02462208271,-1.27052330971,-0.734425067902,-2.21279740334,-1.68062889576,-2.37960267067,0.0664705882353,0.0,0.0,0.0,0.0,0.0,0.0,0.0,0.0,0.0,0.0,0.0,0.0,0.0,0.0,0.0
9.500104,-0.575609505177,1.02461957932,-1.27107667923,-0.732533216476,-2.21279740334,-1.68062889576,-2.37960267067,0.0664705882353,0.0,0.0,0.0,0.0,0.0,0.0,0.0,0.0,0.0,0.0,0.0,0.0,0.0,0.0,0.0
9.533433,-0.570693194866,1.02462732792,-1.2712161541,-0.729908883572,-2.21279525757,-1.6806204319,-2.37960267067,0.0664705882353,0.0,0.0,0.0,0.0,0.0,0.0,0.0,0.0,0.0,0.0,0.0,0.0,0.0,0.0,0.0
9.566763,-0.567402780056,1.02471029758,-1.2712161541,-0.728027164936,-2.21279525757,-1.6806204319,-2.37960100174,0.0664705882353,0.0,0.0,0.0,0.0,0.0,0.0,0.0,0.0,0.0,0.0,0.0,0.0,0.0,0.0,0.0
9.600098,-0.564350187778,1.02482652664,-1.2712161541,-0.726081490517,-2.21279335022,-1.68061864376,-2.37960100174,0.0664705882353,0.0,0.0,0.0,0.0,0.0,0.0,0.0,0.0,0.0,0.0,0.0,0.0,0.0,0.0,0.0
9.633431,-0.560341358185,1.02493023872,-1.27121734619,-0.722998142242,-2.21279740334,-1.68061196804,-2.37960100174,0.0664705882353,0.0,0.0,0.0,0.0,0.0,0.0,0.0,0.0,0.0,0.0,0.0,0.0,0.0,0.0,0.0
9.666759,-0.557608306408,1.02494037151,-1.27124035358,-0.720300972462,-2.21279740334,-1.68060350418,-2.37960100174,0.0664705882353,0.0,0.0,0.0,0.0,0.0,0.0,0.0,0.0,0.0,0.0,0.0,0.0,0.0,0.0,0.0
9.700109,-0.55537122488,1.02495455742,-1.27133738995,-0.717401742935,-2.21282601357,-1.68060183525,-2.37960100174,0.0664705882353,0.0,0.0,0.0,0.0,0.0,0.0,0.0,0.0,0.0,0.0,0.0,0.0,0.0,0.0,0.0
9.733448,-0.552849113941,1.02503252029,-1.27134013176,-0.713283002377,-2.21314740181,-1.6805948019,-2.37960100174,0.0664705882353,0.0,0.0,0.0,0.0,0.0,0.0,0.0,0.0,0.0,0.0,0.0,0.0,0.0,0.0,0.0
9.766765,-0.551442980766,1.02515137196,-1.27141034603,-0.710084557533,-2.21382212639,-1.68057453632,-2.37960100174,0.0664705882353,0.0,0.0,0.0,0.0,0.0,0.0,0.0,0.0,0.0,0.0,0.0,0.0,0.0,0.0,0.0
9.800096,-0.550397276878,1.02529323101,-1.27147567272,-0.706789135933,-2.21520876884,-1.68042266369,-2.37960100174,0.0664705882353,0.0,0.0,0.0,0.0,0.0,0.0,0.0,0.0,0.0,0.0,0.0,0.0,0.0,0.0,0.0
9.833452,-0.54942959547,1.0256639719,-1.27148711681,-0.701964855194,-2.21861004829,-1.6799813509,-2.37959909439,0.0664705882353,0.0,0.0,0.0,0.0,0.0,0.0,0.0,0.0,0.0,0.0,0.0,0.0,0.0,0.0,0.0
9.866761,-0.549028217793,1.02619063854,-1.27148711681,-0.698155462742,-2.22208738327,-1.67970001698,-2.37959909439,0.0664705882353,0.0,0.0,0.0,0.0,0.0,0.0,0.0,0.0,0.0,0.0,0.0,0.0,0.0,0.0,0.0
9.900093,-0.548883795738,1.02712249756,-1.27148711681,-0.694301247597,-2.22658896446,-1.67952978611,-2.37959909439,0.0664705882353,0.0,0.0,0.0,0.0,0.0,0.0,0.0,0.0,0.0,0.0,0.0,0.0,0.0,0.0,0.0
9.933454,-0.548876106739,1.02901828289,-1.27148580551,-0.689121544361,-2.23389291763,-1.67930805683,-2.37959909439,0.0664705882353,0.0,0.0,0.0,0.0,0.0,0.0,0.0,0.0,0.0,0.0,0.0,0.0,0.0,0.0,0.0
9.966759,-0.548906743526,1.0309702158,-1.27148711681,-0.685331404209,-2.23978114128,-1.6790728569,-2.37959909439,0.0664705882353,0.0,0.0,0.0,0.0,0.0,0.0,0.0,0.0,0.0,0.0,0.0,0.0,0.0,0.0,0.0
10.000104,-0.548911869526,1.03327763081,-1.27148580551,-0.681594789028,-2.24574518204,-1.67862462997,-2.37959909439,0.0664705882353,0.0,0.0,0.0,0.0,0.0,0.0,0.0,0.0,0.0,0.0,0.0,0.0,0.0,0.0,0.0
10.033442,-0.548913180828,1.03719055653,-1.27148580551,-0.676498174667,-2.25316739082,-1.67737019062,-2.37959909439,0.0664705882353,0.0,0.0,0.0,0.0,0.0,0.0,0.0,0.0,0.0,0.0,0.0,0.0,0.0,0.0,0.0
10.066758,-0.54897069931,1.04049885273,-1.27148842812,-0.672580122948,-2.25796985626,-1.67650592327,-2.37959909439,0.0664705882353,0.0,0.0,0.0,0.0,0.0,0.0,0.0,0.0,0.0,0.0,0.0,0.0,0.0,0.0,0.0
10.100092,-0.549130439758,1.04388380051,-1.27148842812,-0.668847441673,-2.26202201843,-1.67568778992,-2.37959909439,0.0664705882353,0.0,0.0,0.0,0.0,0.0,0.0,0.0,0.0,0.0,0.0,0.0,0.0,0.0,0.0,0.0
10.133450,-0.549345195293,1.04850494862,-1.27148962021,-0.664172589779,-2.26565027237,-1.67417943478,-2.37959909439,0.0664705882353,0.0,0.0,0.0,0.0,0.0,0.0,0.0,0.0,0.0,0.0,0.0,0.0,0.0,0.0,0.0
10.166773,-0.549516499043,1.05213284492,-1.27149987221,-0.661107242107,-2.26714754105,-1.67241537571,-2.37959742546,0.0664705882353,0.0,0.0,0.0,0.0,0.0,0.0,0.0,0.0,0.0,0.0,0.0,0.0,0.0,0.0,0.0
10.200107,-0.549695491791,1.05562770367,-1.27153944969,-0.658601641655,-2.2674908638,-1.67055928707,-2.37959742546,0.0664705882353,0.0,0.0,0.0,0.0,0.0,0.0,0.0,0.0,0.0,0.0,0.0,0.0,0.0,0.0,0.0
10.233426,-0.549876987934,1.0598077774,-1.27155220509,-0.656169056892,-2.26748895645,-1.66644322872,-2.37959742546,0.0664705882353,0.0,0.0,0.0,0.0,0.0,0.0,0.0,0.0,0.0,0.0,0.0,0.0,0.0,0.0,0.0
10.266757,-0.549925625324,1.06262147427,-1.27155220509,-0.655138790607,-2.2674870491,-1.66191959381,-2.37959742546,0.0664705882353,0.0,0.0,0.0,0.0,0.0,0.0,0.0,0.0,0.0,0.0,0.0,0.0,0.0,0.0,0.0
10.300103,-0.549836039543,1.06521642208,-1.2715498209,-0.654489338398,-2.26748514175,-1.6566170454,-2.37959742546,0.0664705882353,0.0,0.0,0.0,0.0,0.0,0.0,0.0,0.0,0.0,0.0,0.0,0.0,0.0,0.0,0.0
10.333447,-0.549823343754,1.06882512569,-1.2715485096,-0.653289079666,-2.26748514175,-1.6491330862,-2.37959742546,0.0664705882353,0.0,0.0,0.0,0.0,0.0,0.0,0.0,0.0,0.0,0.0,0.0,0.0,0.0,0.0,0.0
10.366758,-0.549820721149,1.07162845135,-1.2715485096,-0.652490079403,-2.2674870491,-1.64191639423,-2.37959742546,0.0664705882353,0.0,0.0,0.0,0.0,0.0,0.0,0.0,0.0,0.0,0.0,0.0,0.0,0.0,0.0,0.0
10.400093,-0.549797713757,1.07438707352,-1.2715485096,-0.651655256748,-2.2674870491,-1.63370645046,-2.37959742546,0.0664705882353,0.0,0.0,0.0,0.0,0.0,0.0,0.0,0.0,0.0,0.0,0.0,0.0,0.0,0.0,0.0
10.433456,-0.549786269665,1.07809937,-1.2715460062,-0.650417983532,-2.26748514175,-1.62140893936,-2.37959742546,0.0664705882353,0.0,0.0,0.0,0.0,0.0,0.0,0.0,0.0,0.0,0.0,0.0,0.0,0.0,0.0,0.0
10.466764,-0.549768328667,1.08075559139,-1.2715460062,-0.649281442165,-2.26748299599,-1.61202943325,-2.37959742546,0.0664705882353,0.0,0.0,0.0,0.0,0.0,0.0,0.0,0.0,0.0,0.0,0.0,0.0,0.0,0.0,0.0
10.500115,-0.549681425095,1.08332502842,-1.27154314518,-0.647895812988,-2.26747870445,-1.60342216492,-2.37959909439,0.0664705882353,0.0,0.0,0.0,0.0,0.0,0.0,0.0,0.0,0.0,0.0,0.0,0.0,0.0,0.0,0.0
10.533435,-0.54942959547,1.08650803566,-1.27154076099,-0.645711183548,-2.26746869087,-1.59433245659,-2.37959909439,0.0664705882353,0.0,0.0,0.0,0.0,0.0,0.0,0.0,0.0,0.0,0.0,0.0,0.0,0.0,0.0,0.0
10.566777,-0.549259603024,1.08881413937,-1.27153432369,-0.643647968769,-2.26743555069,-1.59076166153,-2.37959909439,0.0664705882353,0.0,0.0,0.0,0.0,0.0,0.0,0.0,0.0,0.0,0.0,0.0,0.0,0.0,0.0,0.0
10.600083,-0.54907810688,1.09096169472,-1.27153432369,-0.641574621201,-2.26711463928,-1.58996737003,-2.37959909439,0.0664705882353,0.0,0.0,0.0,0.0,0.0,0.0,0.0,0.0,0.0,0.0,0.0,0.0,0.0,0.0,0.0
10.633437,-0.548885047436,1.09360265732,-1.2715306282,-0.638792932034,-2.26639270782,-1.58997070789,-2.37959909439,0.0664705882353,0.0,0.0,0.0,0.0,0.0,0.0,0.0,0.0,0.0,0.0,0.0,0.0,0.0,0.0,0.0
10.666767,-0.548583388329,1.0953040123,-1.2715293169,-0.636843562126,-2.26516366005,-1.58997249603,-2.37959909439,0.0664705882353,0.0,0.0,0.0,0.0,0.0,0.0,0.0,0.0,0.0,0.0,0.0,0.0,0.0,0.0,0.0
10.700113,-0.548197329044,1.09670376778,-1.27152681351,-0.635190606117,-2.26298117638,-1.58997249603,-2.37959909439,0.0664705882353,0.0,0.0,0.0,0.0,0.0,0.0,0.0,0.0,0.0,0.0,0.0,0.0,0.0,0.0,0.0
10.733428,-0.547473728657,1.09820330143,-1.2715228796,-0.633315324783,-2.25866150856,-1.58996891975,-2.37959909439,0.0664705882353,0.0,0.0,0.0,0.0,0.0,0.0,0.0,0.0,0.0,0.0,0.0,0.0,0.0,0.0,0.0
10.766762,-0.547184884548,1.09917867184,-1.2715215683,-0.631800532341,-2.25451374054,-1.58996737003,-2.37959909439,0.0664705882353,0.0,0.0,0.0,0.0,0.0,0.0,0.0,0.0,0.0,0.0,0.0,0.0,0.0,0.0,0.0
10.800096,-0.546932995319,1.09999299049,-1.2715215683,-0.630505561829,-2.25000357628,-1.58996891975,-2.37959742546,0.0664705882353,0.0,0.0,0.0,0.0,0.0,0.0,0.0,0.0,0.0,0.0,0.0,0.0,0.0,0.0,0.0
10.833446,-0.546408951283,1.10076773167,-1.27151918411,-0.629013776779,-2.24286770821,-1.5899810791,-2.37959742546,0.0664705882353,0.0,0.0,0.0,0.0,0.0,0.0,0.0,0.0,0.0,0.0,0.0,0.0,0.0,0.0,0.0
10.866759,-0.545993447304,1.10132622719,-1.27152037621,-0.628365635872,-2.24001431465,-1.58998787403,-2.37959742546,0.0664705882353,0.0,0.0,0.0,0.0,0.0,0.0,0.0,0.0,0.0,0.0,0.0,0.0,0.0,0.0,0.0
10.900092,-0.545474469662,1.10174179077,-1.2715215683,-0.6282812953,-2.24043130875,-1.58999967575,-2.37959742546,0.0664705882353,0.0,0.0,0.0,0.0,0.0,0.0,0.0,0.0,0.0,0.0,0.0,0.0,0.0,0.0,0.0
10.933447,-0.544703662395,1.10215461254,-1.2715215683,-0.6282812953,-2.24151945114,-1.59000647068,-2.37959742546,0.0663529411765,0.0,0.0,0.0,0.0,0.0,0.0,0.0,0.0,0.0,0.0,0.0,0.0,0.0,0.0,0.0
10.966763,-0.544136047363,1.10246527195,-1.2715215683,-0.628282606602,-2.24195742607,-1.59000647068,-2.37959742546,0.0663529411765,0.0,0.0,0.0,0.0,0.0,0.0,0.0,0.0,0.0,0.0,0.0,0.0,0.0,0.0,0.0
11.000098,-0.543655455112,1.10273504257,-1.2715215683,-0.628282606602,-2.24226212502,-1.59000647068,-2.37959742546,0.0663529411765,0.0,0.0,0.0,0.0,0.0,0.0,0.0,0.0,0.0,0.0,0.0,0.0,0.0,0.0,0.0
11.033436,-0.543185114861,1.10278856754,-1.27152407169,-0.6282812953,-2.24231529236,-1.59000647068,-2.37959742546,0.0663529411765,0.0,0.0,0.0,0.0,0.0,0.0,0.0,0.0,0.0,0.0,0.0,0.0,0.0,0.0,0.0
11.066759,-0.543096840382,1.10267746449,-1.27153301239,-0.628262102604,-2.24232578278,-1.59000492096,-2.37959742546,0.0663529411765,0.0,0.0,0.0,0.0,0.0,0.0,0.0,0.0,0.0,0.0,0.0,0.0,0.0,0.0,0.0
11.100147,-0.543137729168,1.10235023499,-1.2715498209,-0.628231465816,-2.24232959747,-1.59000313282,-2.37959742546,0.0663529411765,0.0,0.0,0.0,0.0,0.0,0.0,0.0,0.0,0.0,0.0,0.0,0.0,0.0,0.0,0.0
11.133426,-0.543150484562,1.10121381283,-1.27162384987,-0.628227651119,-2.24232959747,-1.59000313282,-2.37959742546,0.0663529411765,0.0,0.0,0.0,0.0,0.0,0.0,0.0,0.0,0.0,0.0,0.0,0.0,0.0,0.0,0.0
11.166762,-0.543150484562,1.09985113144,-1.27162384987,-0.628029584885,-2.24232578278,-1.59000313282,-2.37959742546,0.0663529411765,0.0,0.0,0.0,0.0,0.0,0.0,0.0,0.0,0.0,0.0,0.0,0.0,0.0,0.0,0.0
11.200092,-0.543177366257,1.09806275368,-1.27162754536,-0.627767443657,-2.24232149124,-1.59000313282,-2.37959742546,0.0663529411765,0.0,0.0,0.0,0.0,0.0,0.0,0.0,0.0,0.0,0.0,0.0,0.0,0.0,0.0,0.0
11.233450,-0.543187558651,1.09469437599,-1.27162909508,-0.627616643906,-2.24222111702,-1.59000492096,-2.37959742546,0.0663529411765,0.0,0.0,0.0,0.0,0.0,0.0,0.0,0.0,0.0,0.0,0.0,0.0,0.0,0.0,0.0
11.266757,-0.543197751045,1.09158420563,-1.27162754536,-0.627666413784,-2.24164438248,-1.59000647068,-2.37959742546,0.0663529411765,0.0,0.0,0.0,0.0,0.0,0.0,0.0,0.0,0.0,0.0,0.0,0.0,0.0,0.0,0.0
11.300111,-0.543376743793,1.08821594715,-1.27162647247,-0.627939999104,-2.24003696442,-1.59001338482,-2.37959575653,0.0663529411765,0.0,0.0,0.0,0.0,0.0,0.0,0.0,0.0,0.0,0.0,0.0,0.0,0.0,0.0,0.0
11.333438,-0.543776869774,1.08316910267,-1.27162647247,-0.62891793251,-2.23604035378,-1.59002184868,-2.37959575653,0.0663529411765,0.0,0.0,0.0,0.0,0.0,0.0,0.0,0.0,0.0,0.0,0.0,0.0,0.0,0.0,0.0
11.366773,-0.54419875145,1.0790848732,-1.27162504196,-0.629981517792,-2.23117017746,-1.59002184868,-2.37959575653,0.0663529411765,0.0,0.0,0.0,0.0,0.0,0.0,0.0,0.0,0.0,0.0,0.0,0.0,0.0,0.0,0.0
11.400147,-0.544710040092,1.07469892502,-1.27162504196,-0.631431162357,-2.22421431541,-1.59002184868,-2.37959575653,0.066,0.0,0.0,0.0,0.0,0.0,0.0,0.0,0.0,0.0,0.0,0.0,0.0,0.0,0.0,0.0
11.433441,-0.545533299446,1.06819999218,-1.27162647247,-0.633408606052,-2.21348881721,-1.59002184868,-2.37959575653,0.0658823529412,0.0,0.0,0.0,0.0,0.0,0.0,0.0,0.0,0.0,0.0,0.0,0.0,0.0,0.0,0.0
11.466766,-0.546272218227,1.06273007393,-1.27162647247,-0.635029554367,-2.20498013496,-1.59002006054,-2.37959575653,0.0658823529412,0.0,0.0,0.0,0.0,0.0,0.0,0.0,0.0,0.0,0.0,0.0,0.0,0.0,0.0,0.0
11.500101,-0.547135055065,1.05665922165,-1.27166724205,-0.6362657547,-2.19650864601,-1.59002006054,-2.37959575653,0.0657647058824,0.0,0.0,0.0,0.0,0.0,0.0,0.0,0.0,0.0,0.0,0.0,0.0,0.0,0.0,0.0
11.533423,-0.548878669739,1.04741322994,-1.27249324322,-0.636678576469,-2.18828845024,-1.5900233984,-2.37959575653,0.0657647058824,0.0,0.0,0.0,0.0,0.0,0.0,0.0,0.0,0.0,0.0,0.0,0.0,0.0,0.0,0.0
11.566759,-0.550113499165,1.03982007504,-1.27362692356,-0.636493206024,-2.18640899658,-1.59009695053,-2.37959575653,0.0657647058824,0.0,0.0,0.0,0.0,0.0,0.0,0.0,0.0,0.0,0.0,0.0,0.0,0.0,0.0,0.0
11.600102,-0.55118471384,1.03149569035,-1.27498447895,-0.636382102966,-2.18640899658,-1.5901889801,-2.37959575653,0.0657647058824,0.0,0.0,0.0,0.0,0.0,0.0,0.0,0.0,0.0,0.0,0.0,0.0,0.0,0.0,0.0
11.633439,-0.552374839783,1.01993072033,-1.27657365799,-0.636327028275,-2.18642091751,-1.5901889801,-2.37960267067,0.0657647058824,0.0,0.0,0.0,0.0,0.0,0.0,0.0,0.0,0.0,0.0,0.0,0.0,0.0,0.0,0.0
11.666759,-0.553235173225,1.01071155071,-1.27789151669,-0.63621711731,-2.18653964996,-1.59018731117,-2.38006448746,0.0657647058824,0.0,0.0,0.0,0.0,0.0,0.0,0.0,0.0,0.0,0.0,0.0,0.0,0.0,0.0,0.0
11.700092,-0.553970217705,1.00164568424,-1.27950596809,-0.636131465435,-2.18710207939,-1.59019064903,-2.38291764259,0.0657647058824,0.0,0.0,0.0,0.0,0.0,0.0,0.0,0.0,0.0,0.0,0.0,0.0,0.0,0.0,0.0
11.733453,-0.554540336132,0.989789307117,-1.28086102009,-0.636144220829,-2.18865060806,-1.59022128582,-2.38981389999,0.0658823529412,0.0,0.0,0.0,0.0,0.0,0.0,0.0,0.0,0.0,0.0,0.0,0.0,0.0,0.0,0.0
11.766763,-0.554683506489,0.981753826141,-1.28083920479,-0.636267006397,-2.18904924393,-1.59029459953,-2.39467811584,0.0657647058824,0.0,0.0,0.0,0.0,0.0,0.0,0.0,0.0,0.0,0.0,0.0,0.0,0.0,0.0,0.0
11.800092,-0.55461192131,0.97433578968,-1.28071272373,-0.636659383774,-2.18882608414,-1.59076166153,-2.39654111862,0.0657647058824,0.0,0.0,0.0,0.0,0.0,0.0,0.0,0.0,0.0,0.0,0.0,0.0,0.0,0.0,0.0
11.833455,-0.554468691349,0.966200470924,-1.28043532372,-0.636945784092,-2.1886279583,-1.59135818481,-2.39673542976,0.0657647058824,0.0,0.0,0.0,0.0,0.0,0.0,0.0,0.0,0.0,0.0,0.0,0.0,0.0,0.0,0.0
11.866763,-0.554144024849,0.961481034756,-1.28029203415,-0.636904895306,-2.18802046776,-1.59157645702,-2.39673399925,0.0657647058824,0.0,0.0,0.0,0.0,0.0,0.0,0.0,0.0,0.0,0.0,0.0,0.0,0.0,0.0,0.0
11.900091,-0.5533233881,0.957809686661,-1.28024864197,-0.63672208786,-2.18708181381,-1.59168553352,-2.39673733711,0.0657647058824,0.0,0.0,0.0,0.0,0.0,0.0,0.0,0.0,0.0,0.0,0.0,0.0,0.0,0.0,0.0
11.933473,-0.551886498928,0.954873383045,-1.28024864197,-0.635892450809,-2.18658661842,-1.59165465832,-2.39674067497,0.0657647058824,0.0,0.0,0.0,0.0,0.0,0.0,0.0,0.0,0.0,0.0,0.0,0.0,0.0,0.0,0.0
11.966772,-0.550909876823,0.953864812851,-1.28025114536,-0.634908080101,-2.18660712242,-1.59165298939,-2.39674067497,0.0657647058824,0.0,0.0,0.0,0.0,0.0,0.0,0.0,0.0,0.0,0.0,0.0,0.0,0.0,0.0,0.0
12.000117,-0.549926877022,0.953734457493,-1.28025376797,-0.633606851101,-2.18681788445,-1.59165298939,-2.39674067497,0.0657647058824,0.0,0.0,0.0,0.0,0.0,0.0,0.0,0.0,0.0,0.0,0.0,0.0,0.0,0.0,0.0
12.033431,-0.548840343952,0.95431214571,-1.28025376797,-0.631420910358,-2.18907403946,-1.59165298939,-2.39674067497,0.0657647058824,0.0,0.0,0.0,0.0,0.0,0.0,0.0,0.0,0.0,0.0,0.0,0.0,0.0,0.0,0.0
12.066764,-0.54824590683,0.955268442631,-1.28025507927,-0.629696369171,-2.19204759598,-1.59165298939,-2.39674067497,0.0657647058824,0.0,0.0,0.0,0.0,0.0,0.0,0.0,0.0,0.0,0.0,0.0,0.0,0.0,0.0,0.0
12.100108,-0.547933936119,0.956415116787,-1.28025507927,-0.627863287926,-2.19552659988,-1.5916479826,-2.39674210548,0.0657647058824,0.0,0.0,0.0,0.0,0.0,0.0,0.0,0.0,0.0,0.0,0.0,0.0,0.0,0.0,0.0
12.133435,-0.547821462154,0.957899153233,-1.28025507927,-0.625208258629,-2.19930648804,-1.59164619446,-2.39673900604,0.0657647058824,0.0,0.0,0.0,0.0,0.0,0.0,0.0,0.0,0.0,0.0,0.0,0.0,0.0,0.0,0.0
12.166762,-0.547848284245,0.958700716496,-1.28025627136,-0.623573362827,-2.19995284081,-1.5916326046,-2.39673900604,0.0657647058824,0.0,0.0,0.0,0.0,0.0,0.0,0.0,0.0,0.0,0.0,0.0,0.0,0.0,0.0,0.0
12.200091,-0.547944188118,0.959080338478,-1.28025770187,-0.622559547424,-2.19994878769,-1.59160864353,-2.39673900604,0.0657647058824,0.0,0.0,0.0,0.0,0.0,0.0,0.0,0.0,0.0,0.0,0.0,0.0,0.0,0.0,0.0
12.233439,-0.548349440098,0.958822071552,-1.28028440475,-0.62173640728,-2.19994449615,-1.59160864353,-2.39673733711,0.0657647058824,0.0,0.0,0.0,0.0,0.0,0.0,0.0,0.0,0.0,0.0,0.0,0.0,0.0,0.0,0.0
12.266756,-0.548743128777,0.957963049412,-1.28030347824,-0.621278703213,-2.19993233681,-1.59160864353,-2.39673733711,0.0657647058824,0.0,0.0,0.0,0.0,0.0,0.0,0.0,0.0,0.0,0.0,0.0,0.0,0.0,0.0,0.0
12.300090,-0.549418091774,0.956544160843,-1.28039956093,-0.620882451534,-2.19992208481,-1.59160709381,-2.39673733711,0.0657647058824,0.0,0.0,0.0,0.0,0.0,0.0,0.0,0.0,0.0,0.0,0.0,0.0,0.0,0.0,0.0
12.333442,-0.550628662109,0.953850746155,-1.2804826498,-0.620396614075,-2.19990587234,-1.59160709381,-2.39673733711,0.0657647058824,0.0,0.0,0.0,0.0,0.0,0.0,0.0,0.0,0.0,0.0,0.0,0.0,0.0,0.0,0.0
12.366759,-0.551486432552,0.951161146164,-1.28049015999,-0.620316147804,-2.19985079765,-1.59160709381,-2.39673733711,0.0657647058824,0.0,0.0,0.0,0.0,0.0,0.0,0.0,0.0,0.0,0.0,0.0,0.0,0.0,0.0,0.0
12.400112,-0.552394032478,0.947921812534,-1.28048121929,-0.620316147804,-2.19926762581,-1.59160864353,-2.39673733711,0.0657647058824,0.0,0.0,0.0,0.0,0.0,0.0,0.0,0.0,0.0,0.0,0.0,0.0,0.0,0.0,0.0
12.433428,-0.55388712883,0.942809820175,-1.28047990799,-0.620317459106,-2.19744539261,-1.59160864353,-2.39673733711,0.0657647058824,0.0,0.0,0.0,0.0,0.0,0.0,0.0,0.0,0.0,0.0,0.0,0.0,0.0,0.0,0.0
12.466782,-0.55526638031,0.938268065453,-1.28047990799,-0.620319902897,-2.1955370903,-1.59160864353,-2.39673733711,0.0657647058824,0.0,0.0,0.0,0.0,0.0,0.0,0.0,0.0,0.0,0.0,0.0,0.0,0.0,0.0,0.0
12.500100,-0.556749224663,0.933070361614,-1.2804787159,-0.620321273804,-2.19336891174,-1.59161043167,-2.39673733711,0.0657647058824,0.0,0.0,0.0,0.0,0.0,0.0,0.0,0.0,0.0,0.0,0.0,0.0,0.0,0.0,0.0
12.533444,-0.558941543102,0.925717532635,-1.2804762125,-0.620336651802,-2.19069004059,-1.5916326046,-2.39673733711,0.0657647058824,0.0,0.0,0.0,0.0,0.0,0.0,0.0,0.0,0.0,0.0,0.0,0.0,0.0,0.0,0.0
12.566766,-0.56077092886,0.919860303402,-1.28047502041,-0.620474636555,-2.18875694275,-1.59201431274,-2.39673733711,0.0657647058824,0.0,0.0,0.0,0.0,0.0,0.0,0.0,0.0,0.0,0.0,0.0,0.0,0.0,0.0,0.0
12.600097,-0.562609016895,0.913668096066,-1.2804723978,-0.620648562908,-2.18756437302,-1.5938346386,-2.39673733711,0.0657647058824,0.0,0.0,0.0,0.0,0.0,0.0,0.0,0.0,0.0,0.0,0.0,0.0,0.0,0.0,0.0
12.633434,-0.564867913723,0.905911266804,-1.2804633379,-0.620810866356,-2.18745994568,-1.59902966022,-2.39674901962,0.0657647058824,0.0,0.0,0.0,0.0,0.0,0.0,0.0,0.0,0.0,0.0,0.0,0.0,0.0,0.0,0.0
12.666759,-0.56668817997,0.900459229946,-1.2804633379,-0.620810866356,-2.18748688698,-1.60444796085,-2.39775133133,0.0657647058824,0.0,0.0,0.0,0.0,0.0,0.0,0.0,0.0,0.0,0.0,0.0,0.0,0.0,0.0,0.0
12.700097,-0.568410038948,0.895296096802,-1.2804608345,-0.620786547661,-2.18749094009,-1.61084139347,-2.40031957626,0.0657647058824,0.0,0.0,0.0,0.0,0.0,0.0,0.0,0.0,0.0,0.0,0.0,0.0,0.0,0.0,0.0
12.733427,-0.570259809494,0.889663934708,-1.2804557085,-0.621111273766,-2.18749284744,-1.62170386314,-2.40256977081,0.0657647058824,0.0,0.0,0.0,0.0,0.0,0.0,0.0,0.0,0.0,0.0,0.0,0.0,0.0,0.0,0.0
12.766764,-0.571345090866,0.886533200741,-1.28043782711,-0.62176322937,-2.18749094009,-1.63096213341,-2.40311002731,0.0657647058824,0.0,0.0,0.0,0.0,0.0,0.0,0.0,0.0,0.0,0.0,0.0,0.0,0.0,0.0,0.0
12.800097,-0.572150468826,0.884390830994,-1.28043413162,-0.62289839983,-2.18749284744,-1.64060246944,-2.40311694145,0.0657647058824,0.0,0.0,0.0,0.0,0.0,0.0,0.0,0.0,0.0,0.0,0.0,0.0,0.0,0.0,0.0
12.833428,-0.572895646095,0.883216023445,-1.28043150902,-0.624864399433,-2.18749284744,-1.65247702599,-2.4031662941,0.0657647058824,0.0,0.0,0.0,0.0,0.0,0.0,0.0,0.0,0.0,0.0,0.0,0.0,0.0,0.0,0.0
12.866763,-0.573335409164,0.88351893425,-1.28040707111,-0.626555562019,-2.18749284744,-1.65980958939,-2.40316462517,0.0657647058824,0.0,0.0,0.0,0.0,0.0,0.0,0.0,0.0,0.0,0.0,0.0,0.0,0.0,0.0,0.0
12.900065,-0.573561728001,0.884918689728,-1.28037881851,-0.628980576992,-2.18749499321,-1.66423416138,-2.40316462517,0.0657647058824,0.0,0.0,0.0,0.0,0.0,0.0,0.0,0.0,0.0,0.0,0.0,0.0,0.0,0.0,0.0
12.933429,-0.573550224304,0.888224482536,-1.28037643433,-0.632920324802,-2.18749904633,-1.6648170948,-2.40316271782,0.0657647058824,0.0,0.0,0.0,0.0,0.0,0.0,0.0,0.0,0.0,0.0,0.0,0.0,0.0,0.0,0.0
12.966764,-0.573657631874,0.891687452793,-1.28037512302,-0.636006176472,-2.18750095367,-1.66446423531,-2.40316462517,0.0657647058824,0.0,0.0,0.0,0.0,0.0,0.0,0.0,0.0,0.0,0.0,0.0,0.0,0.0,0.0,0.0
13.000091,-0.574095964432,0.896307229996,-1.28037643433,-0.639356672764,-2.18750286102,-1.66411995888,-2.40344572067,0.0657647058824,0.0,0.0,0.0,0.0,0.0,0.0,0.0,0.0,0.0,0.0,0.0,0.0,0.0,0.0,0.0
13.033439,-0.575522601604,0.904218792915,-1.28037643433,-0.64380389452,-2.18755626678,-1.66301548481,-2.40498828888,0.0657647058824,0.0,0.0,0.0,0.0,0.0,0.0,0.0,0.0,0.0,0.0,0.0,0.0,0.0,0.0,0.0
13.066761,-0.577034890652,0.911025822163,-1.28037643433,-0.647227227688,-2.18811702728,-1.66151559353,-2.40622210503,0.0657647058824,0.0,0.0,0.0,0.0,0.0,0.0,0.0,0.0,0.0,0.0,0.0,0.0,0.0,0.0,0.0
13.100092,-0.578802764416,0.918878495693,-1.28037762642,-0.650540590286,-2.18950533867,-1.66025269032,-2.40815830231,0.0657647058824,0.0,0.0,0.0,0.0,0.0,0.0,0.0,0.0,0.0,0.0,0.0,0.0,0.0,0.0,0.0
13.133456,-0.581967949867,0.930272161961,-1.28038668633,-0.65413403511,-2.19274520874,-1.65954518318,-2.41207194328,0.0657647058824,0.0,0.0,0.0,0.0,0.0,0.0,0.0,0.0,0.0,0.0,0.0,0.0,0.0,0.0,0.0
13.166764,-0.584559082985,0.939415991306,-1.28039181232,-0.65591853857,-2.19637775421,-1.65955388546,-2.41389560699,0.0657647058824,0.0,0.0,0.0,0.0,0.0,0.0,0.0,0.0,0.0,0.0,0.0,0.0,0.0,0.0,0.0
13.200094,-0.587416172028,0.948503553867,-1.28045451641,-0.656560182571,-2.20125555992,-1.65955388546,-2.41446495056,0.0657647058824,0.0,0.0,0.0,0.0,0.0,0.0,0.0,0.0,0.0,0.0,0.0,0.0,0.0,0.0,0.0
13.233450,-0.591247260571,0.960973441601,-1.28045070171,-0.656505286694,-2.20827507973,-1.65957248211,-2.41445493698,0.0657647058824,0.0,0.0,0.0,0.0,0.0,0.0,0.0,0.0,0.0,0.0,0.0,0.0,0.0,0.0,0.0
13.266751,-0.594025015831,0.970066130161,-1.2804492712,-0.656501352787,-2.21280360222,-1.65958273411,-2.41445827484,0.0657647058824,0.0,0.0,0.0,0.0,0.0,0.0,0.0,0.0,0.0,0.0,0.0,0.0,0.0,0.0,0.0
13.300112,-0.596674978733,0.9792496562,-1.28044557571,-0.656445145607,-2.21619701385,-1.65958273411,-2.41447854042,0.0657647058824,0.0,0.0,0.0,0.0,0.0,0.0,0.0,0.0,0.0,0.0,0.0,0.0,0.0,0.0,0.0
13.333436,-0.59989631176,0.991141796112,-1.28044557571,-0.65591853857,-2.2182033062,-1.65958118439,-2.41461658478,0.0657647058824,0.0,0.0,0.0,0.0,0.0,0.0,0.0,0.0,0.0,0.0,0.0,0.0,0.0,0.0,0.0
13.366761,-0.601762712002,1.00002098083,-1.28044426441,-0.655042946339,-2.2182033062,-1.65953338146,-2.41527295113,0.0657647058824,0.0,0.0,0.0,0.0,0.0,0.0,0.0,0.0,0.0,0.0,0.0,0.0,0.0,0.0,0.0
13.400095,-0.603012800217,1.00853586197,-1.28044176102,-0.653292834759,-2.21818876266,-1.65901005268,-2.41807174683,0.0657647058824,0.0,0.0,0.0,0.0,0.0,0.0,0.0,0.0,0.0,0.0,0.0,0.0,0.0,0.0,0.0
13.433447,-0.603539466858,1.01962900162,-1.28043651581,-0.649534583092,-2.21802353859,-1.6577231884,-2.42049527168,0.0657647058824,0.0,0.0,0.0,0.0,0.0,0.0,0.0,0.0,0.0,0.0,0.0,0.0,0.0,0.0,0.0
13.466759,-0.603465437889,1.02729249001,-1.28043532372,-0.64531993866,-2.21775698662,-1.65711820126,-2.42133545876,0.0657647058824,0.0,0.0,0.0,0.0,0.0,0.0,0.0,0.0,0.0,0.0,0.0,0.0,0.0,0.0,0.0
13.500100,-0.603112578392,1.03435659409,-1.28043651581,-0.639571368694,-2.21766924858,-1.65677046776,-2.42133045197,0.0657647058824,0.0,0.0,0.0,0.0,0.0,0.0,0.0,0.0,0.0,0.0,0.0,0.0,0.0,0.0,0.0
13.533434,-0.602581977844,1.04236268997,-1.2804697752,-0.630354702473,-2.21767115593,-1.65617239475,-2.42132711411,0.0657647058824,0.0,0.0,0.0,0.0,0.0,0.0,0.0,0.0,0.0,0.0,0.0,0.0,0.0,0.0,0.0
13.566762,-0.602358281612,1.04701447487,-1.28064119816,-0.622614562511,-2.2176733017,-1.65566778183,-2.42132520676,0.0657647058824,0.0,0.0,0.0,0.0,0.0,0.0,0.0,0.0,0.0,0.0,0.0,0.0,0.0,0.0,0.0
13.600103,-0.602308511734,1.0505502224,-1.28120601177,-0.614515185356,-2.21767759323,-1.65473210812,-2.42132377625,0.0657647058824,0.0,0.0,0.0,0.0,0.0,0.0,0.0,0.0,0.0,0.0,0.0,0.0,0.0,0.0,0.0
13.633429,-0.60233271122,1.05313885212,-1.28327941895,-0.604737281799,-2.21767759323,-1.65318107605,-2.42132210732,0.0657647058824,0.0,0.0,0.0,0.0,0.0,0.0,0.0,0.0,0.0,0.0,0.0,0.0,0.0,0.0,0.0
13.666785,-0.602327644825,1.05357980728,-1.28556776047,-0.598588585854,-2.21767759323,-1.65270042419,-2.42132019997,0.0657647058824,0.0,0.0,0.0,0.0,0.0,0.0,0.0,0.0,0.0,0.0,0.0,0.0,0.0,0.0,0.0
13.700066,-0.602258622646,1.05311071873,-1.28841841221,-0.593191564083,-2.21767950058,-1.65269517899,-2.42132019997,0.0657647058824,0.0,0.0,0.0,0.0,0.0,0.0,0.0,0.0,0.0,0.0,0.0,0.0,0.0,0.0,0.0
13.733408,-0.601852118969,1.05135178566,-1.29282104969,-0.587625682354,-2.21767544746,-1.65269875526,-2.42132019997,0.0657647058824,0.0,0.0,0.0,0.0,0.0,0.0,0.0,0.0,0.0,0.0,0.0,0.0,0.0,0.0,0.0
13.766765,-0.601361274719,1.0495237112,-1.29589271545,-0.584674119949,-2.2176733017,-1.65269875526,-2.42132019997,0.0657647058824,0.0,0.0,0.0,0.0,0.0,0.0,0.0,0.0,0.0,0.0,0.0,0.0,0.0,0.0,0.0
13.800094,-0.600670993328,1.04741585255,-1.29842126369,-0.58282315731,-2.2176733017,-1.65270042419,-2.42132019997,0.0657647058824,0.0,0.0,0.0,0.0,0.0,0.0,0.0,0.0,0.0,0.0,0.0,0.0,0.0,0.0,0.0
13.833441,-0.599341511726,1.04418683052,-1.30059289932,-0.581937253475,-2.21765708923,-1.65270209312,-2.42132019997,0.0657647058824,0.0,0.0,0.0,0.0,0.0,0.0,0.0,0.0,0.0,0.0,0.0,0.0,0.0,0.0,0.0
13.866761,-0.59814876318,1.04166734219,-1.30078363419,-0.581935942173,-2.21743798256,-1.65270209312,-2.42132019997,0.0657647058824,0.0,0.0,0.0,0.0,0.0,0.0,0.0,0.0,0.0,0.0,0.0,0.0,0.0,0.0,0.0
13.900114,-0.596966385841,1.0396116972,-1.30060327053,-0.581935942173,-2.2164952755,-1.65270209312,-2.42132019997,0.0657647058824,0.0,0.0,0.0,0.0,0.0,0.0,0.0,0.0,0.0,0.0,0.0,0.0,0.0,0.0,0.0
13.933458,-0.595169067383,1.03738868237,-1.30057132244,-0.581864416599,-2.21356844902,-1.65270209312,-2.42132019997,0.0657647058824,0.0,0.0,0.0,0.0,0.0,0.0,0.0,0.0,0.0,0.0,0.0,0.0,0.0,0.0,0.0
13.966765,-0.593692541122,1.03624856472,-1.30055356026,-0.581452727318,-2.21035718918,-1.65269875526,-2.42132210732,0.0657647058824,0.0,0.0,0.0,0.0,0.0,0.0,0.0,0.0,0.0,0.0,0.0,0.0,0.0,0.0,0.0
14.000098,-0.592101156712,1.03558754921,-1.30055356026,-0.580699801445,-2.20655488968,-1.65269339085,-2.42132210732,0.0657647058824,0.0,0.0,0.0,0.0,0.0,0.0,0.0,0.0,0.0,0.0,0.0,0.0,0.0,0.0,0.0
14.033442,-0.58977329731,1.03497779369,-1.30055356026,-0.579253971577,-2.20169782639,-1.65267312527,-2.42132377625,0.0657647058824,0.0,0.0,0.0,0.0,0.0,0.0,0.0,0.0,0.0,0.0,0.0,0.0,0.0,0.0,0.0
14.066761,-0.587853252888,1.03466963768,-1.30055475235,-0.577518045902,-2.19907355309,-1.6525708437,-2.42132377625,0.0657647058824,0.0,0.0,0.0,0.0,0.0,0.0,0.0,0.0,0.0,0.0,0.0,0.0,0.0,0.0,0.0
14.100096,-0.585689067841,1.03441786766,-1.30055737495,-0.575063705444,-2.19844722748,-1.6523116827,-2.42132878304,0.0657647058824,0.0,0.0,0.0,0.0,0.0,0.0,0.0,0.0,0.0,0.0,0.0,0.0,0.0,0.0,0.0
14.133431,-0.582820475101,1.03437447548,-1.30061471462,-0.570624113083,-2.19849014282,-1.65142381191,-2.42132711411,0.0657647058824,0.0,0.0,0.0,0.0,0.0,0.0,0.0,0.0,0.0,0.0,0.0,0.0,0.0,0.0,0.0
14.166760,-0.580641031265,1.03440260887,-1.30059289932,-0.567237854004,-2.19849014282,-1.64932715893,-2.42132520676,0.0657647058824,0.0,0.0,0.0,0.0,0.0,0.0,0.0,0.0,0.0,0.0,0.0,0.0,0.0,0.0,0.0
14.200104,-0.578522861004,1.03445875645,-1.30059170723,-0.564080417156,-2.19849014282,-1.64570212364,-2.42132377625,0.0657647058824,0.0,0.0,0.0,0.0,0.0,0.0,0.0,0.0,0.0,0.0,0.0,0.0,0.0,0.0,0.0
14.233428,-0.575736165047,1.03446137905,-1.30058145523,-0.56085652113,-2.19849014282,-1.63927125931,-2.42132377625,0.0657647058824,0.0,0.0,0.0,0.0,0.0,0.0,0.0,0.0,0.0,0.0,0.0,0.0,0.0,0.0,0.0
14.266760,-0.573510587215,1.03446006775,-1.30057907104,-0.559277832508,-2.19848871231,-1.63435900211,-2.42132377625,0.0657647058824,0.0,0.0,0.0,0.0,0.0,0.0,0.0,0.0,0.0,0.0,0.0,0.0,0.0,0.0,0.0
14.300114,-0.571371972561,1.03451371193,-1.30057907104,-0.558317780495,-2.19851708412,-1.63150584698,-2.42132377625,0.0657647058824,0.0,0.0,0.0,0.0,0.0,0.0,0.0,0.0,0.0,0.0,0.0,0.0,0.0,0.0,0.0
14.333448,-0.568645298481,1.03454196453,-1.30057907104,-0.55802243948,-2.19926357269,-1.62976038456,-2.42132377625,0.0657647058824,0.0,0.0,0.0,0.0,0.0,0.0,0.0,0.0,0.0,0.0,0.0,0.0,0.0,0.0,0.0
14.366773,-0.56665879488,1.03456497192,-1.30058538914,-0.557999491692,-2.20133137703,-1.62975203991,-2.42132377625,0.0657647058824,0.0,0.0,0.0,0.0,0.0,0.0,0.0,0.0,0.0,0.0,0.0,0.0,0.0,0.0,0.0
14.400101,-0.564954817295,1.0346186161,-1.30062496662,-0.55799305439,-2.20580649376,-1.62975203991,-2.42132377625,0.0657647058824,0.0,0.0,0.0,0.0,0.0,0.0,0.0,0.0,0.0,0.0,0.0,0.0,0.0,0.0,0.0
14.433427,-0.563209891319,1.03475284576,-1.30061471462,-0.557980298996,-2.21366643906,-1.62974870205,-2.42132520676,0.0656470588235,0.0,0.0,0.0,0.0,0.0,0.0,0.0,0.0,0.0,0.0,0.0,0.0,0.0,0.0,0.0
14.466756,-0.562439084053,1.034953475,-1.30060720444,-0.557977735996,-2.21903181076,-1.62974870205,-2.42132878304,0.0657647058824,0.0,0.0,0.0,0.0,0.0,0.0,0.0,0.0,0.0,0.0,0.0,0.0,0.0,0.0,0.0
14.500136,-0.562198758125,1.03522837162,-1.30060720444,-0.557976484299,-2.22359061241,-1.6297467947,-2.42133545876,0.0657647058824,0.0,0.0,0.0,0.0,0.0,0.0,0.0,0.0,0.0,0.0,0.0,0.0,0.0,0.0,0.0
14.533437,-0.562557935715,1.03532290459,-1.30060720444,-0.557987928391,-2.22750091553,-1.62965989113,-2.42204785347,0.0657647058824,0.0,0.0,0.0,0.0,0.0,0.0,0.0,0.0,0.0,0.0,0.0,0.0,0.0,0.0,0.0
14.566782,-0.563126802444,1.03531014919,-1.30060720444,-0.557987928391,-2.22822499275,-1.62954044342,-2.42259502411,0.0657647058824,0.0,0.0,0.0,0.0,0.0,0.0,0.0,0.0,0.0,0.0,0.0,0.0,0.0,0.0,0.0
14.600095,-0.563647091389,1.03520536423,-1.30059170723,-0.558001995087,-2.22804307938,-1.62953031063,-2.42258644104,0.0657647058824,0.0,0.0,0.0,0.0,0.0,0.0,0.0,0.0,0.0,0.0,0.0,0.0,0.0,0.0,0.0
14.633443,-0.564137935638,1.03498542309,-1.30058145523,-0.557972609997,-2.22559690475,-1.6295286417,-2.4227771759,0.0657647058824,0.0,0.0,0.0,0.0,0.0,0.0,0.0,0.0,0.0,0.0,0.0,0.0,0.0,0.0,0.0
14.666761,-0.564351379871,1.03452658653,-1.30058026314,-0.557794868946,-2.22203397751,-1.6295286417,-2.42378640175,0.0657647058824,0.0,0.0,0.0,0.0,0.0,0.0,0.0,0.0,0.0,0.0,0.0,0.0,0.0,0.0,0.0
14.700102,-0.564406454563,1.03356277943,-1.30058026314,-0.557702839375,-2.21611690521,-1.62953031063,-2.42519903183,0.0657647058824,0.0,0.0,0.0,0.0,0.0,0.0,0.0,0.0,0.0,0.0,0.0,0.0,0.0,0.0,0.0
14.733434,-0.564476668835,1.0313205719,-1.30058026314,-0.557674765587,-2.20758605003,-1.6295337677,-2.42852139473,0.0656470588235,0.0,0.0,0.0,0.0,0.0,0.0,0.0,0.0,0.0,0.0,0.0,0.0,0.0,0.0,0.0
14.766766,-0.564476668835,1.02888405323,-1.30058145523,-0.55764913559,-2.20161771774,-1.62953710556,-2.43159103394,0.0656470588235,0.0,0.0,0.0,0.0,0.0,0.0,0.0,0.0,0.0,0.0,0.0,0.0,0.0,0.0,0.0
14.800116,-0.564476668835,1.02589035034,-1.30059683323,-0.557646632195,-2.1976313591,-1.62954246998,-2.4343893528,0.0656470588235,0.0,0.0,0.0,0.0,0.0,0.0,0.0,0.0,0.0,0.0,0.0,0.0,0.0,0.0,0.0
14.833433,-0.564476668835,1.02087283134,-1.30059289932,-0.557645320892,-2.19534897804,-1.62956953049,-2.43717956543,0.0656470588235,0.0,0.0,0.0,0.0,0.0,0.0,0.0,0.0,0.0,0.0,0.0,0.0,0.0,0.0,0.0
14.866771,-0.564476668835,1.01646518707,-1.30058419704,-0.557645320892,-2.19436502457,-1.62959015369,-2.43818879128,0.0657647058824,0.0,0.0,0.0,0.0,0.0,0.0,0.0,0.0,0.0,0.0,0.0,0.0,0.0,0.0,0.0
14.900097,-0.56447416544,1.011749506,-1.30056500435,-0.557645320892,-2.1928126812,-1.62959849834,-2.43846511841,0.0656470588235,0.0,0.0,0.0,0.0,0.0,0.0,0.0,0.0,0.0,0.0,0.0,0.0,0.0,0.0,0.0
14.933459,-0.564382016659,1.00527346134,-1.30053925514,-0.557644069195,-2.18865251541,-1.6296530962,-2.43860793114,0.0656470588235,0.0,0.0,0.0,0.0,0.0,0.0,0.0,0.0,0.0,0.0,0.0,0.0,0.0,0.0,0.0
14.966801,-0.564394891262,1.00023567677,-1.30053555965,-0.557645320892,-2.18449854851,-1.62981009483,-2.43887734413,0.0656470588235,0.0,0.0,0.0,0.0,0.0,0.0,0.0,0.0,0.0,0.0,0.0,0.0,0.0,0.0,0.0
15.000116,-0.564394891262,0.99513655901,-1.30053043365,-0.557644069195,-2.1805164814,-1.63008773327,-2.44023895264,0.0657647058824,0.0,0.0,0.0,0.0,0.0,0.0,0.0,0.0,0.0,0.0,0.0,0.0,0.0,0.0,0.0
15.033429,-0.564396202564,0.988310396671,-1.30052793026,-0.557645320892,-2.17649126053,-1.63021886349,-2.44185853004,0.0656470588235,0.0,0.0,0.0,0.0,0.0,0.0,0.0,0.0,0.0,0.0,0.0,0.0,0.0,0.0,0.0
15.066761,-0.564406454563,0.983142137527,-1.30052793026,-0.557645320892,-2.17395114899,-1.63026332855,-2.44264769554,0.0656470588235,0.0,0.0,0.0,0.0,0.0,0.0,0.0,0.0,0.0,0.0,0.0,0.0,0.0,0.0,0.0
15.100092,-0.564414024353,0.977691352367,-1.30052673817,-0.557645320892,-2.17156386375,-1.63025820255,-2.44414567947,0.0656470588235,0.0,0.0,0.0,0.0,0.0,0.0,0.0,0.0,0.0,0.0,0.0,0.0,0.0,0.0,0.0
15.133445,-0.564417898655,0.970174789429,-1.30052530766,-0.557646632195,-2.16780662537,-1.63025820255,-2.44610238075,0.0656470588235,0.0,0.0,0.0,0.0,0.0,0.0,0.0,0.0,0.0,0.0,0.0,0.0,0.0,0.0,0.0
15.166767,-0.564417898655,0.964465916157,-1.30052292347,-0.557646632195,-2.16432762146,-1.63025820255,-2.44661736488,0.0656470588235,0.0,0.0,0.0,0.0,0.0,0.0,0.0,0.0,0.0,0.0,0.0,0.0,0.0,0.0,0.0
15.200103,-0.564477980137,0.95844244957,-1.30052292347,-0.557646632195,-2.15978312492,-1.63025486469,-2.44661355019,0.0656470588235,0.0,0.0,0.0,0.0,0.0,0.0,0.0,0.0,0.0,0.0,0.0,0.0,0.0,0.0,0.0
15.233428,-0.564949691296,0.949909687042,-1.30052292347,-0.557646632195,-2.15286970139,-1.63025486469,-2.44661211967,0.0656470588235,0.0,0.0,0.0,0.0,0.0,0.0,0.0,0.0,0.0,0.0,0.0,0.0,0.0,0.0,0.0
15.266773,-0.565334498882,0.943488657475,-1.30052292347,-0.557647943497,-2.1469976902,-1.63025486469,-2.44662237167,0.0656470588235,0.0,0.0,0.0,0.0,0.0,0.0,0.0,0.0,0.0,0.0,0.0,0.0,0.0,0.0,0.0
15.300097,-0.565823972225,0.936920702457,-1.30052137375,-0.557647943497,-2.14117074013,-1.63025641441,-2.44674324989,0.0656470588235,0.0,0.0,0.0,0.0,0.0,0.0,0.0,0.0,0.0,0.0,0.0,0.0,0.0,0.0,0.0
15.333432,-0.566560328007,0.928510665894,-1.30051767826,-0.557673513889,-2.13407969475,-1.63026511669,-2.44676375389,0.0656470588235,0.0,0.0,0.0,0.0,0.0,0.0,0.0,0.0,0.0,0.0,0.0,0.0,0.0,0.0,0.0
15.366763,-0.567007780075,0.922558784485,-1.30051243305,-0.557756602764,-2.12857580185,-1.63042533398,-2.44676184654,0.0656470588235,0.0,0.0,0.0,0.0,0.0,0.0,0.0,0.0,0.0,0.0,0.0,0.0,0.0,0.0,0.0
15.400096,-0.567355513573,0.916839599609,-1.30050098896,-0.557793617249,-2.12277317047,-1.63073205948,-2.44678616524,0.0656470588235,0.0,0.0,0.0,0.0,0.0,0.0,0.0,0.0,0.0,0.0,0.0,0.0,0.0,0.0,0.0
15.433439,-0.567567706108,0.909982681274,-1.30047929287,-0.557793617249,-2.11467766762,-1.63108479977,-2.44678926468,0.0656470588235,0.0,0.0,0.0,0.0,0.0,0.0,0.0,0.0,0.0,0.0,0.0,0.0,0.0,0.0,0.0
15.466759,-0.567640602589,0.905472815037,-1.30047416687,-0.557788550854,-2.10854005814,-1.63127923012,-2.44678211212,0.0656470588235,0.0,0.0,0.0,0.0,0.0,0.0,0.0,0.0,0.0,0.0,0.0,0.0,0.0,0.0,0.0
15.500105,-0.567674994469,0.901182770729,-1.30046534538,-0.557755291462,-2.10228729248,-1.63136780262,-2.44678401947,0.0656470588235,0.0,0.0,0.0,0.0,0.0,0.0,0.0,0.0,0.0,0.0,0.0,0.0,0.0,0.0,0.0
15.533435,-0.567599654198,0.895827949047,-1.30046153069,-0.557701587677,-2.09358692169,-1.63137114048,-2.44677400589,0.0656470588235,0.0,0.0,0.0,0.0,0.0,0.0,0.0,0.0,0.0,0.0,0.0,0.0,0.0,0.0,0.0
15.566766,-0.567586779594,0.892115652561,-1.30046153069,-0.557674765587,-2.08729743958,-1.63136589527,-2.44676709175,0.0656470588235,0.0,0.0,0.0,0.0,0.0,0.0,0.0,0.0,0.0,0.0,0.0,0.0,0.0,0.0,0.0
15.600100,-0.567577958107,0.888599038124,-1.30046021938,-0.557594239712,-2.08277702332,-1.63136434555,-2.4467754364,0.0656470588235,0.0,0.0,0.0,0.0,0.0,0.0,0.0,0.0,0.0,0.0,0.0,0.0,0.0,0.0,0.0
15.633402,-0.567557454109,0.8840508461,-1.30046021938,-0.557578861713,-2.07946205139,-1.63136434555,-2.44674825668,0.0656470588235,0.0,0.0,0.0,0.0,0.0,0.0,0.0,0.0,0.0,0.0,0.0,0.0,0.0,0.0,0.0
15.666749,-0.567553579807,0.880761563778,-1.30045378208,-0.557578861713,-2.07769846916,-1.63136434555,-2.44674992561,0.0656470588235,0.0,0.0,0.0,0.0,0.0,0.0,0.0,0.0,0.0,0.0,0.0,0.0,0.0,0.0,0.0
15.700097,-0.567497372627,0.877793371677,-1.30041539669,-0.557572424412,-2.07488846779,-1.63136589527,-2.44676709175,0.0656470588235,0.0,0.0,0.0,0.0,0.0,0.0,0.0,0.0,0.0,0.0,0.0,0.0,0.0,0.0,0.0
15.733472,-0.567286431789,0.874912142754,-1.30029654503,-0.557535469532,-2.07079172134,-1.63138651848,-2.4467754364,0.0656470588235,0.0,0.0,0.0,0.0,0.0,0.0,0.0,0.0,0.0,0.0,0.0,0.0,0.0,0.0,0.0
15.766776,-0.566890180111,0.87368106842,-1.30027353764,-0.557351350784,-2.06919407845,-1.63187742233,-2.44678616524,0.0656470588235,0.0,0.0,0.0,0.0,0.0,0.0,0.0,0.0,0.0,0.0,0.0,0.0,0.0,0.0,0.0
15.800107,-0.566451668739,0.873214423656,-1.30025935173,-0.557001054287,-2.06899404526,-1.6328881979,-2.44678068161,0.0656470588235,0.0,0.0,0.0,0.0,0.0,0.0,0.0,0.0,0.0,0.0,0.0,0.0,0.0,0.0,0.0
15.833452,-0.566202402115,0.873256623745,-1.30024921894,-0.556599676609,-2.06899166107,-1.63380682468,-2.44673156738,0.0656470588235,0.0,0.0,0.0,0.0,0.0,0.0,0.0,0.0,0.0,0.0,0.0,0.0,0.0,0.0,0.0
15.866766,-0.566165268421,0.873316824436,-1.30023264885,-0.556507647038,-2.06898784637,-1.63434529305,-2.44672465324,0.0656470588235,0.0,0.0,0.0,0.0,0.0,0.0,0.0,0.0,0.0,0.0,0.0,0.0,0.0,0.0,0.0
15.900112,-0.566173017025,0.873282194138,-1.30023384094,-0.556429684162,-2.06898784637,-1.63449192047,-2.44671273232,0.0656470588235,0.0,0.0,0.0,0.0,0.0,0.0,0.0,0.0,0.0,0.0,0.0,0.0,0.0,0.0,0.0
15.933429,-0.566369950771,0.872939646244,-1.30023384094,-0.556446313858,-2.06898379326,-1.63448858261,-2.44670057297,0.0656470588235,0.0,0.0,0.0,0.0,0.0,0.0,0.0,0.0,0.0,0.0,0.0,0.0,0.0,0.0,0.0
15.966765,-0.56641459465,0.872533202171,-1.30023384094,-0.556461632252,-2.06897139549,-1.63448691368,-2.44669032097,0.0656470588235,0.0,0.0,0.0,0.0,0.0,0.0,0.0,0.0,0.0,0.0,0.0,0.0,0.0,0.0,0.0
16.000116,-0.566405653954,0.871956586838,-1.30023384094,-0.556479513645,-2.06887960434,-1.63448691368,-2.44668531418,0.0656470588235,0.0,0.0,0.0,0.0,0.0,0.0,0.0,0.0,0.0,0.0,0.0,0.0,0.0,0.0,0.0
16.033430,-0.566372394562,0.871087431908,-1.30023384094,-0.556171476841,-2.06847453117,-1.63448691368,-2.44668006897,0.0656470588235,0.0,0.0,0.0,0.0,0.0,0.0,0.0,0.0,0.0,0.0,0.0,0.0,0.0,0.0,0.0
16.066759,-0.566389083862,0.870225846767,-1.30023527145,-0.555444061756,-2.0684068203,-1.63448691368,-2.44667673111,0.0656470588235,0.0,0.0,0.0,0.0,0.0,0.0,0.0,0.0,0.0,0.0,0.0,0.0,0.0,0.0,0.0
16.100096,-0.566415965557,0.868990898132,-1.30023646355,-0.554571032524,-2.0684068203,-1.63448512554,-2.44667482376,0.0656470588235,0.0,0.0,0.0,0.0,0.0,0.0,0.0,0.0,0.0,0.0,0.0,0.0,0.0,0.0,0.0
16.133419,-0.566398024559,0.867069661617,-1.30023646355,-0.552414417267,-2.0684068203,-1.63448512554,-2.44667315483,0.0656470588235,0.0,0.0,0.0,0.0,0.0,0.0,0.0,0.0,0.0,0.0,0.0,0.0,0.0,0.0,0.0
16.166766,-0.566300809383,0.86555737257,-1.30023527145,-0.549836158752,-2.0684068203,-1.63449192047,-2.44667172432,0.0656470588235,0.0,0.0,0.0,0.0,0.0,0.0,0.0,0.0,0.0,0.0,0.0,0.0,0.0,0.0,0.0
16.200044,-0.566197276115,0.864105224609,-1.30023527145,-0.546435773373,-2.06841087341,-1.63456022739,-2.44667172432,0.0656470588235,0.0,0.0,0.0,0.0,0.0,0.0,0.0,0.0,0.0,0.0,0.0,0.0,0.0,0.0,0.0
16.233401,-0.566179454327,0.862394869328,-1.30024409294,-0.540777921677,-2.06844377518,-1.63528621197,-2.44666814804,0.0656470588235,0.0,0.0,0.0,0.0,0.0,0.0,0.0,0.0,0.0,0.0,0.0,0.0,0.0,0.0,0.0
16.266760,-0.566178202629,0.861153542995,-1.30028510094,-0.536066055298,-2.06863808632,-1.63692939281,-2.44666671753,0.0656470588235,0.0,0.0,0.0,0.0,0.0,0.0,0.0,0.0,0.0,0.0,0.0,0.0,0.0,0.0,0.0
16.300102,-0.566166698933,0.85993540287,-1.30032730103,-0.530899107456,-2.06916999817,-1.6390632391,-2.4466650486,0.0656470588235,0.0,0.0,0.0,0.0,0.0,0.0,0.0,0.0,0.0,0.0,0.0,0.0,0.0,0.0,0.0
16.333430,-0.566164076328,0.858566224575,-1.30033874512,-0.523636996746,-2.07039666176,-1.64262378216,-2.44666337967,0.0656470588235,0.0,0.0,0.0,0.0,0.0,0.0,0.0,0.0,0.0,0.0,0.0,0.0,0.0,0.0,0.0
16.366758,-0.566138505936,0.857796728611,-1.30033349991,-0.517975330353,-2.07185339928,-1.645154953,-2.4466612339,0.0656470588235,0.0,0.0,0.0,0.0,0.0,0.0,0.0,0.0,0.0,0.0,0.0,0.0,0.0,0.0,0.0
16.400094,-0.566132187843,0.857197165489,-1.30032968521,-0.512454271317,-2.07300043106,-1.64708268642,-2.44665956497,0.0656470588235,0.0,0.0,0.0,0.0,0.0,0.0,0.0,0.0,0.0,0.0,0.0,0.0,0.0,0.0,0.0
16.433474,-0.566128313541,0.856523454189,-1.30032730103,-0.505528330803,-2.07314610481,-1.64930343628,-2.44665455818,0.0656470588235,0.0,0.0,0.0,0.0,0.0,0.0,0.0,0.0,0.0,0.0,0.0,0.0,0.0,0.0,0.0
16.466756,-0.566125690937,0.856155335903,-1.30032730103,-0.500886797905,-2.07314157486,-1.65044009686,-2.44665288925,0.0656470588235,0.0,0.0,0.0,0.0,0.0,0.0,0.0,0.0,0.0,0.0,0.0,0.0,0.0,0.0,0.0
16.500100,-0.566123187542,0.855773091316,-1.30032849312,-0.496663242579,-2.07314157486,-1.65150725842,-2.44664978981,0.0656470588235,0.0,0.0,0.0,0.0,0.0,0.0,0.0,0.0,0.0,0.0,0.0,0.0,0.0,0.0,0.0
16.533440,-0.56612443924,0.855245232582,-1.30036175251,-0.491708517075,-2.07316422462,-1.65329015255,-2.44664764404,0.0656470588235,0.0,0.0,0.0,0.0,0.0,0.0,0.0,0.0,0.0,0.0,0.0,0.0,0.0,0.0,0.0
16.566756,-0.566123187542,0.855079054832,-1.30035638809,-0.488733828068,-2.07317638397,-1.65450358391,-2.44664597511,0.0656470588235,0.0,0.0,0.0,0.0,0.0,0.0,0.0,0.0,0.0,0.0,0.0,0.0,0.0,0.0,0.0
16.600090,-0.566123187542,0.85515832901,-1.3003475666,-0.486553013325,-2.07318472862,-1.6563051939,-2.44664597511,0.0656470588235,0.0,0.0,0.0,0.0,0.0,0.0,0.0,0.0,0.0,0.0,0.0,0.0,0.0,0.0,0.0
16.633453,-0.566106557846,0.855444610119,-1.30032193661,-0.485490769148,-2.07317638397,-1.65873384476,-2.4466445446,0.0656470588235,0.0,0.0,0.0,0.0,0.0,0.0,0.0,0.0,0.0,0.0,0.0,0.0,0.0,0.0,0.0
16.666757,-0.566147506237,0.855853617191,-1.30031824112,-0.485572546721,-2.07317471504,-1.66030716896,-2.4466445446,0.0656470588235,0.0,0.0,0.0,0.0,0.0,0.0,0.0,0.0,0.0,0.0,0.0,0.0,0.0,0.0,0.0
16.700104,-0.566343069077,0.856367528439,-1.30031168461,-0.485789865255,-2.07317233086,-1.66139471531,-2.4466445446,0.0656470588235,0.0,0.0,0.0,0.0,0.0,0.0,0.0,0.0,0.0,0.0,0.0,0.0,0.0,0.0,0.0
16.733465,-0.566415965557,0.8571793437,-1.30030548573,-0.485816717148,-2.07317018509,-1.66169273853,-2.4466445446,0.0656470588235,0.0,0.0,0.0,0.0,0.0,0.0,0.0,0.0,0.0,0.0,0.0,0.0,0.0,0.0,0.0
16.766756,-0.566404402256,0.857833743095,-1.30030286312,-0.485819250345,-2.07316827774,-1.66169273853,-2.4466445446,0.0656470588235,0.0,0.0,0.0,0.0,0.0,0.0,0.0,0.0,0.0,0.0,0.0,0.0,0.0,0.0,0.0
16.800089,-0.566408216953,0.858486950397,-1.30030286312,-0.48584741354,-2.07317018509,-1.66169273853,-2.44664287567,0.0656470588235,0.0,0.0,0.0,0.0,0.0,0.0,0.0,0.0,0.0,0.0,0.0,0.0,0.0,0.0,0.0
16.833451,-0.566478610039,0.859161913395,-1.30030286312,-0.485895961523,-2.07322764397,-1.66169464588,-2.44664287567,0.0656470588235,0.0,0.0,0.0,0.0,0.0,0.0,0.0,0.0,0.0,0.0,0.0,0.0,0.0,0.0,0.0
16.866756,-0.566547572613,0.859513521194,-1.30030286312,-0.485907435417,-2.07363891602,-1.66169464588,-2.44664287567,0.0656470588235,0.0,0.0,0.0,0.0,0.0,0.0,0.0,0.0,0.0,0.0,0.0,0.0,0.0,0.0,0.0
16.900118,-0.566606342793,0.859779477119,-1.30030286312,-0.485915154219,-2.07415008545,-1.66169464588,-2.44664287567,0.0656470588235,0.0,0.0,0.0,0.0,0.0,0.0,0.0,0.0,0.0,0.0,0.0,0.0,0.0,0.0,0.0
16.933455,-0.566578269005,0.860075891018,-1.30030155182,-0.485917717218,-2.07436060905,-1.66169464588,-2.44664287567,0.0656470588235,0.0,0.0,0.0,0.0,0.0,0.0,0.0,0.0,0.0,0.0,0.0,0.0,0.0,0.0,0.0
16.966791,-0.566502809525,0.860391795635,-1.30029904842,-0.485834628344,-2.07436060905,-1.66169464588,-2.44664287567,0.0656470588235,0.0,0.0,0.0,0.0,0.0,0.0,0.0,0.0,0.0,0.0,0.0,0.0,0.0,0.0,0.0
17.000094,-0.566472113132,0.860848009586,-1.30029785633,-0.485628783703,-2.07438540459,-1.66169464588,-2.44664287567,0.0656470588235,0.0,0.0,0.0,0.0,0.0,0.0,0.0,0.0,0.0,0.0,0.0,0.0,0.0,0.0,0.0
17.033457,-0.566472113132,0.861455321312,-1.30029785633,-0.485485643148,-2.07509088516,-1.66169464588,-2.44664287567,0.0656470588235,0.0,0.0,0.0,0.0,0.0,0.0,0.0,0.0,0.0,0.0,0.0,0.0,0.0,0.0,0.0
17.066758,-0.566473484039,0.862021565437,-1.30029785633,-0.485492020845,-2.07604169846,-1.66169464588,-2.44664287567,0.0655294117647,0.0,0.0,0.0,0.0,0.0,0.0,0.0,0.0,0.0,0.0,0.0,0.0,0.0,0.0,0.0
17.100090,-0.56647592783,0.862780869007,-1.30029785633,-0.485499680042,-2.07713413239,-1.66169464588,-2.44664287567,0.0656470588235,0.0,0.0,0.0,0.0,0.0,0.0,0.0,0.0,0.0,0.0,0.0,0.0,0.0,0.0,0.0
17.133438,-0.56647592783,0.863929986954,-1.30029654503,-0.485502243042,-2.0791387558,-1.66169631481,-2.44664287567,0.0656470588235,0.0,0.0,0.0,0.0,0.0,0.0,0.0,0.0,0.0,0.0,0.0,0.0,0.0,0.0,0.0
17.166756,-0.56647592783,0.864961624146,-1.30029523373,-0.485503584146,-2.08014059067,-1.66170489788,-2.44664287567,0.0656470588235,0.0,0.0,0.0,0.0,0.0,0.0,0.0,0.0,0.0,0.0,0.0,0.0,0.0,0.0,0.0
17.200091,-0.56647592783,0.866186320782,-1.30029523373,-0.485504806042,-2.08112049103,-1.66176962852,-2.44664287567,0.0656470588235,0.0,0.0,0.0,0.0,0.0,0.0,0.0,0.0,0.0,0.0,0.0,0.0,0.0,0.0,0.0
17.233457,-0.566474735737,0.86806666851,-1.30029404163,-0.485504806042,-2.08298373222,-1.66201841831,-2.44664287567,0.0656470588235,0.0,0.0,0.0,0.0,0.0,0.0,0.0,0.0,0.0,0.0,0.0,0.0,0.0,0.0,0.0
17.266764,-0.566474735737,0.869550824165,-1.30029404163,-0.485504806042,-2.08500862122,-1.66221606731,-2.44664287567,0.0656470588235,0.0,0.0,0.0,0.0,0.0,0.0,0.0,0.0,0.0,0.0,0.0,0.0,0.0,0.0,0.0
17.300090,-0.566474735737,0.87117433548,-1.30029261112,-0.485504806042,-2.08701491356,-1.66232168674,-2.44664287567,0.0656470588235,0.0,0.0,0.0,0.0,0.0,0.0,0.0,0.0,0.0,0.0,0.0,0.0,0.0,0.0,0.0
17.333453,-0.566474735737,0.87346124649,-1.30029261112,-0.485499680042,-2.08959817886,-1.66231834888,-2.44664287567,0.0656470588235,0.0,0.0,0.0,0.0,0.0,0.0,0.0,0.0,0.0,0.0,0.0,0.0,0.0,0.0,0.0
