IRLabUoB/boris-robot/boris_tools/scripts/contact_trajectories/cylinder_traj.csv
time,left_arm_0_joint,left_arm_1_joint,left_arm_2_joint,left_arm_3_joint,left_arm_4_joint,left_arm_5_joint,left_arm_6_joint,left_hand_synergy_joint,right_arm_0_joint,right_arm_1_joint,right_arm_2_joint,right_arm_3_joint,right_arm_4_joint,right_arm_5_joint,right_arm_6_joint,right_hand_synergy_joint,head_neck_pitch_joint,head_neck_roll_joint,head_neck_yaw_joint,head_head_tilt_joint,head_eyes_tilt_joint,head_left_eye_joint,head_right_eye_joint
0.000209,-0.25506773591,0.297633081675,2.61951971054,1.38421404362,-0.50904417038,-0.800896286964,-1.56443846226,0.0182352941176,0.0,0.0,0.0,0.0,0.0,0.0,0.0,0.0,0.0,0.0,0.0,0.0,0.0,0.0,0.0
0.033545,-0.25506773591,0.297633081675,2.61951971054,1.38421404362,-0.50904417038,-0.800896286964,-1.56443846226,0.0182352941176,0.0,0.0,0.0,0.0,0.0,0.0,0.0,0.0,0.0,0.0,0.0,0.0,0.0,0.0,0.0
0.066842,-0.25506773591,0.297633081675,2.61951971054,1.38421404362,-0.50904417038,-0.800896286964,-1.56443846226,0.0182352941176,0.0,0.0,0.0,0.0,0.0,0.0,0.0,0.0,0.0,0.0,0.0,0.0,0.0,0.0,0.0
0.100109,-0.25506773591,0.297633081675,2.61951971054,1.38421404362,-0.50904417038,-0.800896286964,-1.56443846226,0.0182352941176,0.0,0.0,0.0,0.0,0.0,0.0,0.0,0.0,0.0,0.0,0.0,0.0,0.0,0.0,0.0
0.133447,-0.25506773591,0.297633081675,2.61951971054,1.38421404362,-0.50904417038,-0.800896286964,-1.56443846226,0.0182352941176,0.0,0.0,0.0,0.0,0.0,0.0,0.0,0.0,0.0,0.0,0.0,0.0,0.0,0.0,0.0
0.166784,-0.25506773591,0.297633081675,2.61951971054,1.38421404362,-0.50904417038,-0.800896286964,-1.56443846226,0.0182352941176,0.0,0.0,0.0,0.0,0.0,0.0,0.0,0.0,0.0,0.0,0.0,0.0,0.0,0.0,0.0
0.200110,-0.25506773591,0.297633081675,2.61951971054,1.38421404362,-0.50904417038,-0.800896286964,-1.56443846226,0.0182352941176,0.0,0.0,0.0,0.0,0.0,0.0,0.0,0.0,0.0,0.0,0.0,0.0,0.0,0.0,0.0
0.233491,-0.25506773591,0.297633081675,2.61951971054,1.38421404362,-0.50904417038,-0.800896286964,-1.56443846226,0.0182352941176,0.0,0.0,0.0,0.0,0.0,0.0,0.0,0.0,0.0,0.0,0.0,0.0,0.0,0.0,0.0
0.266825,-0.25506773591,0.297633081675,2.61951971054,1.38421404362,-0.50904417038,-0.800896286964,-1.56443846226,0.0182352941176,0.0,0.0,0.0,0.0,0.0,0.0,0.0,0.0,0.0,0.0,0.0,0.0,0.0,0.0,0.0
0.300160,-0.25506773591,0.297633081675,2.61951971054,1.38421404362,-0.50904417038,-0.800896286964,-1.56443846226,0.0182352941176,0.0,0.0,0.0,0.0,0.0,0.0,0.0,0.0,0.0,0.0,0.0,0.0,0.0,0.0,0.0
0.333714,-0.25506773591,0.297633081675,2.61951971054,1.38421404362,-0.50904417038,-0.800896286964,-1.56443846226,0.0182352941176,0.0,0.0,0.0,0.0,0.0,0.0,0.0,0.0,0.0,0.0,0.0,0.0,0.0,0.0,0.0
0.366860,-0.25506773591,0.297633081675,2.61951971054,1.38421404362,-0.50904417038,-0.800896286964,-1.56443846226,0.0182352941176,0.0,0.0,0.0,0.0,0.0,0.0,0.0,0.0,0.0,0.0,0.0,0.0,0.0,0.0,0.0
0.400119,-0.25506773591,0.297633081675,2.61951971054,1.38421404362,-0.50904417038,-0.800896286964,-1.56443846226,0.0182352941176,0.0,0.0,0.0,0.0,0.0,0.0,0.0,0.0,0.0,0.0,0.0,0.0,0.0,0.0,0.0
0.433570,-0.25506773591,0.297633081675,2.61951971054,1.38421404362,-0.50904417038,-0.800896286964,-1.56443846226,0.0182352941176,0.0,0.0,0.0,0.0,0.0,0.0,0.0,0.0,0.0,0.0,0.0,0.0,0.0,0.0,0.0
0.466903,-0.25506773591,0.297633081675,2.61951971054,1.38421404362,-0.50904417038,-0.800896286964,-1.56443846226,0.0182352941176,0.0,0.0,0.0,0.0,0.0,0.0,0.0,0.0,0.0,0.0,0.0,0.0,0.0,0.0,0.0
0.500161,-0.25506773591,0.297633081675,2.61951971054,1.38421404362,-0.50904417038,-0.800896286964,-1.56443846226,0.0182352941176,0.0,0.0,0.0,0.0,0.0,0.0,0.0,0.0,0.0,0.0,0.0,0.0,0.0,0.0,0.0
0.533483,-0.25506773591,0.297633081675,2.61951971054,1.38421404362,-0.50904417038,-0.800896286964,-1.56443846226,0.0182352941176,0.0,0.0,0.0,0.0,0.0,0.0,0.0,0.0,0.0,0.0,0.0,0.0,0.0,0.0,0.0
0.566802,-0.25506773591,0.297633081675,2.61951971054,1.38421404362,-0.50904417038,-0.800896286964,-1.56443846226,0.0182352941176,0.0,0.0,0.0,0.0,0.0,0.0,0.0,0.0,0.0,0.0,0.0,0.0,0.0,0.0,0.0
0.600123,-0.25506773591,0.297633081675,2.61951971054,1.38421404362,-0.50904417038,-0.800896286964,-1.56443846226,0.0182352941176,0.0,0.0,0.0,0.0,0.0,0.0,0.0,0.0,0.0,0.0,0.0,0.0,0.0,0.0,0.0
0.633469,-0.25506773591,0.297633081675,2.61951971054,1.38421404362,-0.50904417038,-0.800896286964,-1.56443846226,0.0182352941176,0.0,0.0,0.0,0.0,0.0,0.0,0.0,0.0,0.0,0.0,0.0,0.0,0.0,0.0,0.0
0.666845,-0.25506773591,0.297633081675,2.61951971054,1.38421404362,-0.50904417038,-0.800896286964,-1.56443846226,0.0182352941176,0.0,0.0,0.0,0.0,0.0,0.0,0.0,0.0,0.0,0.0,0.0,0.0,0.0,0.0,0.0
0.700155,-0.25506773591,0.297633081675,2.61951971054,1.38421404362,-0.50904417038,-0.800896286964,-1.56443846226,0.0182352941176,0.0,0.0,0.0,0.0,0.0,0.0,0.0,0.0,0.0,0.0,0.0,0.0,0.0,0.0,0.0
0.733514,-0.25506773591,0.297633081675,2.61951971054,1.38421404362,-0.50904417038,-0.800896286964,-1.56443846226,0.0182352941176,0.0,0.0,0.0,0.0,0.0,0.0,0.0,0.0,0.0,0.0,0.0,0.0,0.0,0.0,0.0
0.766816,-0.25506773591,0.297633081675,2.61951971054,1.38421404362,-0.50904417038,-0.800896286964,-1.56443846226,0.0182352941176,0.0,0.0,0.0,0.0,0.0,0.0,0.0,0.0,0.0,0.0,0.0,0.0,0.0,0.0,0.0
0.800138,-0.25506773591,0.297633081675,2.61951971054,1.38421404362,-0.50904417038,-0.800896286964,-1.56443846226,0.0182352941176,0.0,0.0,0.0,0.0,0.0,0.0,0.0,0.0,0.0,0.0,0.0,0.0,0.0,0.0,0.0
0.833506,-0.25506773591,0.297633081675,2.61951971054,1.38421404362,-0.50904417038,-0.800896286964,-1.56443846226,0.0182352941176,0.0,0.0,0.0,0.0,0.0,0.0,0.0,0.0,0.0,0.0,0.0,0.0,0.0,0.0,0.0
0.866834,-0.25506773591,0.297633081675,2.61951971054,1.38421404362,-0.50904417038,-0.800896286964,-1.56443846226,0.0182352941176,0.0,0.0,0.0,0.0,0.0,0.0,0.0,0.0,0.0,0.0,0.0,0.0,0.0,0.0,0.0
0.900139,-0.25506773591,0.297633081675,2.61951971054,1.38421404362,-0.50904417038,-0.800896286964,-1.56443846226,0.0182352941176,0.0,0.0,0.0,0.0,0.0,0.0,0.0,0.0,0.0,0.0,0.0,0.0,0.0,0.0,0.0
0.933484,-0.25506773591,0.297633081675,2.61951971054,1.38421404362,-0.50904417038,-0.800896286964,-1.56443846226,0.0182352941176,0.0,0.0,0.0,0.0,0.0,0.0,0.0,0.0,0.0,0.0,0.0,0.0,0.0,0.0,0.0
0.966814,-0.25506773591,0.297633081675,2.61951971054,1.38421404362,-0.50904417038,-0.800896286964,-1.56443846226,0.0182352941176,0.0,0.0,0.0,0.0,0.0,0.0,0.0,0.0,0.0,0.0,0.0,0.0,0.0,0.0,0.0
1.000144,-0.25506773591,0.297633081675,2.61951971054,1.38421404362,-0.50904417038,-0.800896286964,-1.56443846226,0.0182352941176,0.0,0.0,0.0,0.0,0.0,0.0,0.0,0.0,0.0,0.0,0.0,0.0,0.0,0.0,0.0
1.033510,-0.25506773591,0.297633081675,2.61951971054,1.38421404362,-0.50904417038,-0.800896286964,-1.56443846226,0.0182352941176,0.0,0.0,0.0,0.0,0.0,0.0,0.0,0.0,0.0,0.0,0.0,0.0,0.0,0.0,0.0
1.066864,-0.25506773591,0.297633081675,2.61951971054,1.38421404362,-0.50904417038,-0.800896286964,-1.56443846226,0.0182352941176,0.0,0.0,0.0,0.0,0.0,0.0,0.0,0.0,0.0,0.0,0.0,0.0,0.0,0.0,0.0
1.100153,-0.25506773591,0.297633081675,2.61951971054,1.38421404362,-0.50904417038,-0.800896286964,-1.56443846226,0.0182352941176,0.0,0.0,0.0,0.0,0.0,0.0,0.0,0.0,0.0,0.0,0.0,0.0,0.0,0.0,0.0
1.133494,-0.25506773591,0.297633081675,2.61951971054,1.38421404362,-0.50904417038,-0.800896286964,-1.56443846226,0.0182352941176,0.0,0.0,0.0,0.0,0.0,0.0,0.0,0.0,0.0,0.0,0.0,0.0,0.0,0.0,0.0
1.166813,-0.25506773591,0.297633081675,2.61951971054,1.38421404362,-0.50904417038,-0.800896286964,-1.56443846226,0.0182352941176,0.0,0.0,0.0,0.0,0.0,0.0,0.0,0.0,0.0,0.0,0.0,0.0,0.0,0.0,0.0
1.200146,-0.25506773591,0.297633081675,2.61951971054,1.38421404362,-0.50904417038,-0.800896286964,-1.56443846226,0.0182352941176,0.0,0.0,0.0,0.0,0.0,0.0,0.0,0.0,0.0,0.0,0.0,0.0,0.0,0.0,0.0
1.233536,-0.25506773591,0.297633081675,2.61951971054,1.38421404362,-0.50904417038,-0.800896286964,-1.56443846226,0.0182352941176,0.0,0.0,0.0,0.0,0.0,0.0,0.0,0.0,0.0,0.0,0.0,0.0,0.0,0.0,0.0
1.266802,-0.25506773591,0.297633081675,2.61951971054,1.38421404362,-0.50904417038,-0.800896286964,-1.56443846226,0.0182352941176,0.0,0.0,0.0,0.0,0.0,0.0,0.0,0.0,0.0,0.0,0.0,0.0,0.0,0.0,0.0
1.300115,-0.25506773591,0.297633081675,2.61951971054,1.38421404362,-0.50904417038,-0.800896286964,-1.56443846226,0.0182352941176,0.0,0.0,0.0,0.0,0.0,0.0,0.0,0.0,0.0,0.0,0.0,0.0,0.0,0.0,0.0
1.333436,-0.25506773591,0.297633081675,2.61951971054,1.38421404362,-0.50904417038,-0.800896286964,-1.56443846226,0.0182352941176,0.0,0.0,0.0,0.0,0.0,0.0,0.0,0.0,0.0,0.0,0.0,0.0,0.0,0.0,0.0
1.366786,-0.25506773591,0.297633081675,2.61951971054,1.38421404362,-0.50904417038,-0.800896286964,-1.56443846226,0.0182352941176,0.0,0.0,0.0,0.0,0.0,0.0,0.0,0.0,0.0,0.0,0.0,0.0,0.0,0.0,0.0
1.400167,-0.25506773591,0.297633081675,2.61951971054,1.38421404362,-0.50904417038,-0.800896286964,-1.56443846226,0.0182352941176,0.0,0.0,0.0,0.0,0.0,0.0,0.0,0.0,0.0,0.0,0.0,0.0,0.0,0.0,0.0
1.433500,-0.25506773591,0.297633081675,2.61951971054,1.38421404362,-0.50904417038,-0.800896286964,-1.56443846226,0.0182352941176,0.0,0.0,0.0,0.0,0.0,0.0,0.0,0.0,0.0,0.0,0.0,0.0,0.0,0.0,0.0
1.466851,-0.25506773591,0.297633081675,2.61951971054,1.38421404362,-0.50904417038,-0.800896286964,-1.56443846226,0.0182352941176,0.0,0.0,0.0,0.0,0.0,0.0,0.0,0.0,0.0,0.0,0.0,0.0,0.0,0.0,0.0
1.500163,-0.25506773591,0.297633081675,2.61951971054,1.38421404362,-0.50904417038,-0.800896286964,-1.56443846226,0.0182352941176,0.0,0.0,0.0,0.0,0.0,0.0,0.0,0.0,0.0,0.0,0.0,0.0,0.0,0.0,0.0
1.533504,-0.25506773591,0.297633081675,2.61951971054,1.38421404362,-0.50904417038,-0.800896286964,-1.56443846226,0.0182352941176,0.0,0.0,0.0,0.0,0.0,0.0,0.0,0.0,0.0,0.0,0.0,0.0,0.0,0.0,0.0
1.566815,-0.25506773591,0.297633081675,2.61951971054,1.38421404362,-0.50904417038,-0.800896286964,-1.56443846226,0.0182352941176,0.0,0.0,0.0,0.0,0.0,0.0,0.0,0.0,0.0,0.0,0.0,0.0,0.0,0.0,0.0
1.600142,-0.25506773591,0.297633081675,2.61951971054,1.38421404362,-0.50904417038,-0.800896286964,-1.56443846226,0.0182352941176,0.0,0.0,0.0,0.0,0.0,0.0,0.0,0.0,0.0,0.0,0.0,0.0,0.0,0.0,0.0
1.633504,-0.25506773591,0.297633081675,2.61951971054,1.38421404362,-0.50904417038,-0.800896286964,-1.56443846226,0.0182352941176,0.0,0.0,0.0,0.0,0.0,0.0,0.0,0.0,0.0,0.0,0.0,0.0,0.0,0.0,0.0
1.666829,-0.25506773591,0.297633081675,2.61951971054,1.38421404362,-0.50904417038,-0.800896286964,-1.56443846226,0.0182352941176,0.0,0.0,0.0,0.0,0.0,0.0,0.0,0.0,0.0,0.0,0.0,0.0,0.0,0.0,0.0
1.700155,-0.25506773591,0.297633081675,2.61951971054,1.38421404362,-0.50904417038,-0.800896286964,-1.56443846226,0.0182352941176,0.0,0.0,0.0,0.0,0.0,0.0,0.0,0.0,0.0,0.0,0.0,0.0,0.0,0.0,0.0
1.733530,-0.25506773591,0.297633081675,2.61951971054,1.38421404362,-0.50904417038,-0.800896286964,-1.56443846226,0.0182352941176,0.0,0.0,0.0,0.0,0.0,0.0,0.0,0.0,0.0,0.0,0.0,0.0,0.0,0.0,0.0
1.766811,-0.25506773591,0.297633081675,2.61951971054,1.38421404362,-0.50904417038,-0.800896286964,-1.56443846226,0.0182352941176,0.0,0.0,0.0,0.0,0.0,0.0,0.0,0.0,0.0,0.0,0.0,0.0,0.0,0.0,0.0
1.800499,-0.25506773591,0.297633081675,2.61951971054,1.38421404362,-0.50904417038,-0.800896286964,-1.56443846226,0.0182352941176,0.0,0.0,0.0,0.0,0.0,0.0,0.0,0.0,0.0,0.0,0.0,0.0,0.0,0.0,0.0
1.833513,-0.25506773591,0.297633081675,2.61951971054,1.38421404362,-0.50904417038,-0.800896286964,-1.56443846226,0.0182352941176,0.0,0.0,0.0,0.0,0.0,0.0,0.0,0.0,0.0,0.0,0.0,0.0,0.0,0.0,0.0
1.866921,-0.25506773591,0.297633081675,2.61951971054,1.38421404362,-0.50904417038,-0.800896286964,-1.56443846226,0.0182352941176,0.0,0.0,0.0,0.0,0.0,0.0,0.0,0.0,0.0,0.0,0.0,0.0,0.0,0.0,0.0
1.900134,-0.25506773591,0.297633081675,2.61951971054,1.38421404362,-0.50904417038,-0.800896286964,-1.56443846226,0.0182352941176,0.0,0.0,0.0,0.0,0.0,0.0,0.0,0.0,0.0,0.0,0.0,0.0,0.0,0.0,0.0
1.933501,-0.25506773591,0.297633081675,2.61951971054,1.38421404362,-0.50904417038,-0.800896286964,-1.56443846226,0.0182352941176,0.0,0.0,0.0,0.0,0.0,0.0,0.0,0.0,0.0,0.0,0.0,0.0,0.0,0.0,0.0
1.966838,-0.25506773591,0.297633081675,2.61951971054,1.38421404362,-0.50904417038,-0.800896286964,-1.56443846226,0.0182352941176,0.0,0.0,0.0,0.0,0.0,0.0,0.0,0.0,0.0,0.0,0.0,0.0,0.0,0.0,0.0
2.000115,-0.25506773591,0.297633081675,2.61951971054,1.38421404362,-0.50904417038,-0.800896286964,-1.56443846226,0.0182352941176,0.0,0.0,0.0,0.0,0.0,0.0,0.0,0.0,0.0,0.0,0.0,0.0,0.0,0.0,0.0
2.033550,-0.25506773591,0.297633081675,2.61951971054,1.38421404362,-0.50904417038,-0.800896286964,-1.56443846226,0.0182352941176,0.0,0.0,0.0,0.0,0.0,0.0,0.0,0.0,0.0,0.0,0.0,0.0,0.0,0.0,0.0
2.066877,-0.25506773591,0.297633081675,2.61951971054,1.38421404362,-0.50904417038,-0.800896286964,-1.56443846226,0.0182352941176,0.0,0.0,0.0,0.0,0.0,0.0,0.0,0.0,0.0,0.0,0.0,0.0,0.0,0.0,0.0
2.100150,-0.25506773591,0.297633081675,2.61951971054,1.38421404362,-0.50904417038,-0.800896286964,-1.56443846226,0.0182352941176,0.0,0.0,0.0,0.0,0.0,0.0,0.0,0.0,0.0,0.0,0.0,0.0,0.0,0.0,0.0
2.133528,-0.25506773591,0.297633081675,2.61951971054,1.38421404362,-0.50904417038,-0.800896286964,-1.56443846226,0.0182352941176,0.0,0.0,0.0,0.0,0.0,0.0,0.0,0.0,0.0,0.0,0.0,0.0,0.0,0.0,0.0
2.166807,-0.25506773591,0.297633081675,2.61951971054,1.38421404362,-0.50904417038,-0.800896286964,-1.56443846226,0.0182352941176,0.0,0.0,0.0,0.0,0.0,0.0,0.0,0.0,0.0,0.0,0.0,0.0,0.0,0.0,0.0
2.200148,-0.25506773591,0.297633081675,2.61951971054,1.38421404362,-0.50904417038,-0.800896286964,-1.56443846226,0.0182352941176,0.0,0.0,0.0,0.0,0.0,0.0,0.0,0.0,0.0,0.0,0.0,0.0,0.0,0.0,0.0
2.233496,-0.25506773591,0.297633081675,2.61951971054,1.38421404362,-0.50904417038,-0.800896286964,-1.56443846226,0.0182352941176,0.0,0.0,0.0,0.0,0.0,0.0,0.0,0.0,0.0,0.0,0.0,0.0,0.0,0.0,0.0
2.266784,-0.25506773591,0.297633081675,2.61951971054,1.38421404362,-0.50904417038,-0.800896286964,-1.56443846226,0.0182352941176,0.0,0.0,0.0,0.0,0.0,0.0,0.0,0.0,0.0,0.0,0.0,0.0,0.0,0.0,0.0
2.300192,-0.25506773591,0.297633081675,2.61951971054,1.38421404362,-0.50904417038,-0.800896286964,-1.56443846226,0.0182352941176,0.0,0.0,0.0,0.0,0.0,0.0,0.0,0.0,0.0,0.0,0.0,0.0,0.0,0.0,0.0
2.333488,-0.25506773591,0.297633081675,2.61951971054,1.38421404362,-0.50904417038,-0.800896286964,-1.56443846226,0.0182352941176,0.0,0.0,0.0,0.0,0.0,0.0,0.0,0.0,0.0,0.0,0.0,0.0,0.0,0.0,0.0
2.366797,-0.25506773591,0.297633081675,2.61951971054,1.38421404362,-0.50904417038,-0.800896286964,-1.56443846226,0.0182352941176,0.0,0.0,0.0,0.0,0.0,0.0,0.0,0.0,0.0,0.0,0.0,0.0,0.0,0.0,0.0
2.400107,-0.25506773591,0.297633081675,2.61951971054,1.38421404362,-0.50904417038,-0.800896286964,-1.56443846226,0.0182352941176,0.0,0.0,0.0,0.0,0.0,0.0,0.0,0.0,0.0,0.0,0.0,0.0,0.0,0.0,0.0
2.433491,-0.25506773591,0.297633081675,2.61951971054,1.38421404362,-0.50904417038,-0.800896286964,-1.56443846226,0.0182352941176,0.0,0.0,0.0,0.0,0.0,0.0,0.0,0.0,0.0,0.0,0.0,0.0,0.0,0.0,0.0
2.466801,-0.25506773591,0.297633081675,2.61951971054,1.38421404362,-0.50904417038,-0.800896286964,-1.56443846226,0.0182352941176,0.0,0.0,0.0,0.0,0.0,0.0,0.0,0.0,0.0,0.0,0.0,0.0,0.0,0.0,0.0
2.500115,-0.25506773591,0.297633081675,2.61951971054,1.38421404362,-0.50904417038,-0.800896286964,-1.56443846226,0.0182352941176,0.0,0.0,0.0,0.0,0.0,0.0,0.0,0.0,0.0,0.0,0.0,0.0,0.0,0.0,0.0
2.533500,-0.25506773591,0.297633081675,2.61951971054,1.38421404362,-0.50904417038,-0.800896286964,-1.56443846226,0.0182352941176,0.0,0.0,0.0,0.0,0.0,0.0,0.0,0.0,0.0,0.0,0.0,0.0,0.0,0.0,0.0
2.566867,-0.25506773591,0.297633081675,2.61951971054,1.38421404362,-0.50904417038,-0.800896286964,-1.56443846226,0.0182352941176,0.0,0.0,0.0,0.0,0.0,0.0,0.0,0.0,0.0,0.0,0.0,0.0,0.0,0.0,0.0
2.600145,-0.25506773591,0.297633081675,2.61951971054,1.38421404362,-0.50904417038,-0.800896286964,-1.56443846226,0.0182352941176,0.0,0.0,0.0,0.0,0.0,0.0,0.0,0.0,0.0,0.0,0.0,0.0,0.0,0.0,0.0
2.633544,-0.25506773591,0.297633081675,2.61951971054,1.38421404362,-0.50904417038,-0.800896286964,-1.56443846226,0.0182352941176,0.0,0.0,0.0,0.0,0.0,0.0,0.0,0.0,0.0,0.0,0.0,0.0,0.0,0.0,0.0
2.666819,-0.25506773591,0.297633081675,2.61951971054,1.38421404362,-0.50904417038,-0.800896286964,-1.56443846226,0.0182352941176,0.0,0.0,0.0,0.0,0.0,0.0,0.0,0.0,0.0,0.0,0.0,0.0,0.0,0.0,0.0
2.700122,-0.25506773591,0.297633081675,2.61951971054,1.38421404362,-0.50904417038,-0.800896286964,-1.56443846226,0.0182352941176,0.0,0.0,0.0,0.0,0.0,0.0,0.0,0.0,0.0,0.0,0.0,0.0,0.0,0.0,0.0
2.733464,-0.25506773591,0.297633081675,2.61951971054,1.38421404362,-0.50904417038,-0.800896286964,-1.56443846226,0.0182352941176,0.0,0.0,0.0,0.0,0.0,0.0,0.0,0.0,0.0,0.0,0.0,0.0,0.0,0.0,0.0
2.766788,-0.25506773591,0.297633081675,2.61951971054,1.38421404362,-0.50904417038,-0.800896286964,-1.56443846226,0.0182352941176,0.0,0.0,0.0,0.0,0.0,0.0,0.0,0.0,0.0,0.0,0.0,0.0,0.0,0.0,0.0
2.800205,-0.25506773591,0.297633081675,2.61951971054,1.38421404362,-0.50904417038,-0.800896286964,-1.56443846226,0.0182352941176,0.0,0.0,0.0,0.0,0.0,0.0,0.0,0.0,0.0,0.0,0.0,0.0,0.0,0.0,0.0
2.833555,-0.25506773591,0.297633081675,2.61951971054,1.38421404362,-0.50904417038,-0.800896286964,-1.56443846226,0.0182352941176,0.0,0.0,0.0,0.0,0.0,0.0,0.0,0.0,0.0,0.0,0.0,0.0,0.0,0.0,0.0
2.866816,-0.25506773591,0.297633081675,2.61951971054,1.38421404362,-0.50904417038,-0.800896286964,-1.56443846226,0.0182352941176,0.0,0.0,0.0,0.0,0.0,0.0,0.0,0.0,0.0,0.0,0.0,0.0,0.0,0.0,0.0
2.901579,-0.25506773591,0.297633081675,2.61951971054,1.38421404362,-0.50904417038,-0.800896286964,-1.56443846226,0.0182352941176,0.0,0.0,0.0,0.0,0.0,0.0,0.0,0.0,0.0,0.0,0.0,0.0,0.0,0.0,0.0
2.933481,-0.25506773591,0.297633081675,2.61951971054,1.38421404362,-0.50904417038,-0.800896286964,-1.56443846226,0.0182352941176,0.0,0.0,0.0,0.0,0.0,0.0,0.0,0.0,0.0,0.0,0.0,0.0,0.0,0.0,0.0
2.966811,-0.25506773591,0.297633081675,2.61951971054,1.38421404362,-0.50904417038,-0.800896286964,-1.56443846226,0.0182352941176,0.0,0.0,0.0,0.0,0.0,0.0,0.0,0.0,0.0,0.0,0.0,0.0,0.0,0.0,0.0
3.000136,-0.25506773591,0.297633081675,2.61951971054,1.38421404362,-0.50904417038,-0.800896286964,-1.56443846226,0.0182352941176,0.0,0.0,0.0,0.0,0.0,0.0,0.0,0.0,0.0,0.0,0.0,0.0,0.0,0.0,0.0
3.033491,-0.25506773591,0.297633081675,2.61951971054,1.38421404362,-0.50904417038,-0.800896286964,-1.56443846226,0.0182352941176,0.0,0.0,0.0,0.0,0.0,0.0,0.0,0.0,0.0,0.0,0.0,0.0,0.0,0.0,0.0
3.073412,-0.25506773591,0.297633081675,2.61951971054,1.38421404362,-0.50904417038,-0.800896286964,-1.56443846226,0.0182352941176,0.0,0.0,0.0,0.0,0.0,0.0,0.0,0.0,0.0,0.0,0.0,0.0,0.0,0.0,0.0
3.100148,-0.25506773591,0.297633081675,2.61951971054,1.38421404362,-0.50904417038,-0.800896286964,-1.56443846226,0.0182352941176,0.0,0.0,0.0,0.0,0.0,0.0,0.0,0.0,0.0,0.0,0.0,0.0,0.0,0.0,0.0
3.133493,-0.25506773591,0.297633081675,2.61951971054,1.38421404362,-0.50904417038,-0.800896286964,-1.56443846226,0.0182352941176,0.0,0.0,0.0,0.0,0.0,0.0,0.0,0.0,0.0,0.0,0.0,0.0,0.0,0.0,0.0
3.166801,-0.25506773591,0.297633081675,2.61951971054,1.38421404362,-0.50904417038,-0.800896286964,-1.56443846226,0.0182352941176,0.0,0.0,0.0,0.0,0.0,0.0,0.0,0.0,0.0,0.0,0.0,0.0,0.0,0.0,0.0
3.200116,-0.25506773591,0.297633081675,2.61951971054,1.38421404362,-0.50904417038,-0.800896286964,-1.56443846226,0.0182352941176,0.0,0.0,0.0,0.0,0.0,0.0,0.0,0.0,0.0,0.0,0.0,0.0,0.0,0.0,0.0
3.233496,-0.25506773591,0.297633081675,2.61951971054,1.38421404362,-0.50904417038,-0.800896286964,-1.56443846226,0.0182352941176,0.0,0.0,0.0,0.0,0.0,0.0,0.0,0.0,0.0,0.0,0.0,0.0,0.0,0.0,0.0
3.266798,-0.25506773591,0.297633081675,2.61951971054,1.38421404362,-0.50904417038,-0.800896286964,-1.56443846226,0.0182352941176,0.0,0.0,0.0,0.0,0.0,0.0,0.0,0.0,0.0,0.0,0.0,0.0,0.0,0.0,0.0
3.300142,-0.25506773591,0.297633081675,2.61951971054,1.38421404362,-0.50904417038,-0.800896286964,-1.56443846226,0.0182352941176,0.0,0.0,0.0,0.0,0.0,0.0,0.0,0.0,0.0,0.0,0.0,0.0,0.0,0.0,0.0
3.333519,-0.25506773591,0.297633081675,2.61951971054,1.38421404362,-0.50904417038,-0.800896286964,-1.56443846226,0.0182352941176,0.0,0.0,0.0,0.0,0.0,0.0,0.0,0.0,0.0,0.0,0.0,0.0,0.0,0.0,0.0
3.366785,-0.25506773591,0.297633081675,2.61951971054,1.38421404362,-0.50904417038,-0.800896286964,-1.56443846226,0.0182352941176,0.0,0.0,0.0,0.0,0.0,0.0,0.0,0.0,0.0,0.0,0.0,0.0,0.0,0.0,0.0
3.400127,-0.25506773591,0.297633081675,2.61951971054,1.38421404362,-0.50904417038,-0.800896286964,-1.56443846226,0.0182352941176,0.0,0.0,0.0,0.0,0.0,0.0,0.0,0.0,0.0,0.0,0.0,0.0,0.0,0.0,0.0
3.433493,-0.25506773591,0.297633081675,2.61951971054,1.38421404362,-0.50904417038,-0.800896286964,-1.56443846226,0.0182352941176,0.0,0.0,0.0,0.0,0.0,0.0,0.0,0.0,0.0,0.0,0.0,0.0,0.0,0.0,0.0
3.466813,-0.25506773591,0.297633081675,2.61951971054,1.38421404362,-0.50904417038,-0.800896286964,-1.56443846226,0.0182352941176,0.0,0.0,0.0,0.0,0.0,0.0,0.0,0.0,0.0,0.0,0.0,0.0,0.0,0.0,0.0
3.500118,-0.25506773591,0.297633081675,2.61951971054,1.38421404362,-0.50904417038,-0.800896286964,-1.56443846226,0.0182352941176,0.0,0.0,0.0,0.0,0.0,0.0,0.0,0.0,0.0,0.0,0.0,0.0,0.0,0.0,0.0
3.533449,-0.25506773591,0.297633081675,2.61951971054,1.38421404362,-0.50904417038,-0.800896286964,-1.56443846226,0.0182352941176,0.0,0.0,0.0,0.0,0.0,0.0,0.0,0.0,0.0,0.0,0.0,0.0,0.0,0.0,0.0
3.566792,-0.25506773591,0.297633081675,2.61951971054,1.38421404362,-0.50904417038,-0.800896286964,-1.56443846226,0.0182352941176,0.0,0.0,0.0,0.0,0.0,0.0,0.0,0.0,0.0,0.0,0.0,0.0,0.0,0.0,0.0
3.600156,-0.25506773591,0.297633081675,2.61951971054,1.38421404362,-0.50904417038,-0.800896286964,-1.56443846226,0.0182352941176,0.0,0.0,0.0,0.0,0.0,0.0,0.0,0.0,0.0,0.0,0.0,0.0,0.0,0.0,0.0
3.633515,-0.25506773591,0.297633081675,2.61951971054,1.38421404362,-0.50904417038,-0.800896286964,-1.56443846226,0.0182352941176,0.0,0.0,0.0,0.0,0.0,0.0,0.0,0.0,0.0,0.0,0.0,0.0,0.0,0.0,0.0
3.666832,-0.25506773591,0.297633081675,2.61951971054,1.38421404362,-0.50904417038,-0.800896286964,-1.56443846226,0.0182352941176,0.0,0.0,0.0,0.0,0.0,0.0,0.0,0.0,0.0,0.0,0.0,0.0,0.0,0.0,0.0
3.700127,-0.25506773591,0.297633081675,2.61951971054,1.38421404362,-0.50904417038,-0.800896286964,-1.56443846226,0.0182352941176,0.0,0.0,0.0,0.0,0.0,0.0,0.0,0.0,0.0,0.0,0.0,0.0,0.0,0.0,0.0
3.733486,-0.25506773591,0.297633081675,2.61951971054,1.38421404362,-0.50904417038,-0.800896286964,-1.56443846226,0.0182352941176,0.0,0.0,0.0,0.0,0.0,0.0,0.0,0.0,0.0,0.0,0.0,0.0,0.0,0.0,0.0
3.766982,-0.25506773591,0.297633081675,2.61951971054,1.38421404362,-0.50904417038,-0.800896286964,-1.56443846226,0.0182352941176,0.0,0.0,0.0,0.0,0.0,0.0,0.0,0.0,0.0,0.0,0.0,0.0,0.0,0.0,0.0
3.800138,-0.25506773591,0.297633081675,2.61951971054,1.38421404362,-0.50904417038,-0.800896286964,-1.56443846226,0.0182352941176,0.0,0.0,0.0,0.0,0.0,0.0,0.0,0.0,0.0,0.0,0.0,0.0,0.0,0.0,0.0
3.833533,-0.25506773591,0.297633081675,2.61951971054,1.38421404362,-0.50904417038,-0.800896286964,-1.56443846226,0.0182352941176,0.0,0.0,0.0,0.0,0.0,0.0,0.0,0.0,0.0,0.0,0.0,0.0,0.0,0.0,0.0
3.866810,-0.25506773591,0.297633081675,2.61951971054,1.38421404362,-0.50904417038,-0.800896286964,-1.56443846226,0.0182352941176,0.0,0.0,0.0,0.0,0.0,0.0,0.0,0.0,0.0,0.0,0.0,0.0,0.0,0.0,0.0
3.900140,-0.25506773591,0.297633081675,2.61951971054,1.38421404362,-0.50904417038,-0.800896286964,-1.56443846226,0.0182352941176,0.0,0.0,0.0,0.0,0.0,0.0,0.0,0.0,0.0,0.0,0.0,0.0,0.0,0.0,0.0
3.933481,-0.25506773591,0.297633081675,2.61951971054,1.38421404362,-0.50904417038,-0.800896286964,-1.56443846226,0.0182352941176,0.0,0.0,0.0,0.0,0.0,0.0,0.0,0.0,0.0,0.0,0.0,0.0,0.0,0.0,0.0
3.966804,-0.25506773591,0.297633081675,2.61951971054,1.38421404362,-0.50904417038,-0.800896286964,-1.56443846226,0.0182352941176,0.0,0.0,0.0,0.0,0.0,0.0,0.0,0.0,0.0,0.0,0.0,0.0,0.0,0.0,0.0
4.000125,-0.25506773591,0.297633081675,2.61951971054,1.38421404362,-0.50904417038,-0.800896286964,-1.56443846226,0.0182352941176,0.0,0.0,0.0,0.0,0.0,0.0,0.0,0.0,0.0,0.0,0.0,0.0,0.0,0.0,0.0
4.033495,-0.25506773591,0.297633081675,2.61951971054,1.38421404362,-0.50904417038,-0.800896286964,-1.56443846226,0.0182352941176,0.0,0.0,0.0,0.0,0.0,0.0,0.0,0.0,0.0,0.0,0.0,0.0,0.0,0.0,0.0
4.066808,-0.25506773591,0.297633081675,2.61951971054,1.38421404362,-0.50904417038,-0.800896286964,-1.56443846226,0.0182352941176,0.0,0.0,0.0,0.0,0.0,0.0,0.0,0.0,0.0,0.0,0.0,0.0,0.0,0.0,0.0
4.100110,-0.25506773591,0.297633081675,2.61951971054,1.38421404362,-0.50904417038,-0.800896286964,-1.56443846226,0.0182352941176,0.0,0.0,0.0,0.0,0.0,0.0,0.0,0.0,0.0,0.0,0.0,0.0,0.0,0.0,0.0
4.133579,-0.25506773591,0.297633081675,2.61951971054,1.38421404362,-0.50904417038,-0.800896286964,-1.56443846226,0.0182352941176,0.0,0.0,0.0,0.0,0.0,0.0,0.0,0.0,0.0,0.0,0.0,0.0,0.0,0.0,0.0
4.166833,-0.25506773591,0.297633081675,2.61951971054,1.38421404362,-0.50904417038,-0.800896286964,-1.56443846226,0.0182352941176,0.0,0.0,0.0,0.0,0.0,0.0,0.0,0.0,0.0,0.0,0.0,0.0,0.0,0.0,0.0
4.200109,-0.25506773591,0.297633081675,2.61951971054,1.38421404362,-0.50904417038,-0.800896286964,-1.56443846226,0.0182352941176,0.0,0.0,0.0,0.0,0.0,0.0,0.0,0.0,0.0,0.0,0.0,0.0,0.0,0.0,0.0
4.233482,-0.25506773591,0.297633081675,2.61951971054,1.38421404362,-0.50904417038,-0.800896286964,-1.56443846226,0.0182352941176,0.0,0.0,0.0,0.0,0.0,0.0,0.0,0.0,0.0,0.0,0.0,0.0,0.0,0.0,0.0
4.266828,-0.25506773591,0.297633081675,2.61951971054,1.38421404362,-0.50904417038,-0.800896286964,-1.56443846226,0.0182352941176,0.0,0.0,0.0,0.0,0.0,0.0,0.0,0.0,0.0,0.0,0.0,0.0,0.0,0.0,0.0
4.300166,-0.25506773591,0.297633081675,2.61951971054,1.38421404362,-0.50904417038,-0.800896286964,-1.56443846226,0.0182352941176,0.0,0.0,0.0,0.0,0.0,0.0,0.0,0.0,0.0,0.0,0.0,0.0,0.0,0.0,0.0
4.333496,-0.25506773591,0.297633081675,2.61951971054,1.38421404362,-0.50904417038,-0.800896286964,-1.56443846226,0.0182352941176,0.0,0.0,0.0,0.0,0.0,0.0,0.0,0.0,0.0,0.0,0.0,0.0,0.0,0.0,0.0
4.366802,-0.25506773591,0.297633081675,2.61951971054,1.38421404362,-0.50904417038,-0.800896286964,-1.56443846226,0.0182352941176,0.0,0.0,0.0,0.0,0.0,0.0,0.0,0.0,0.0,0.0,0.0,0.0,0.0,0.0,0.0
4.400128,-0.25506773591,0.297633081675,2.61951971054,1.38421404362,-0.50904417038,-0.800896286964,-1.56443846226,0.0182352941176,0.0,0.0,0.0,0.0,0.0,0.0,0.0,0.0,0.0,0.0,0.0,0.0,0.0,0.0,0.0
4.433513,-0.25506773591,0.297633081675,2.61951971054,1.38421404362,-0.50904417038,-0.800896286964,-1.56443846226,0.0182352941176,0.0,0.0,0.0,0.0,0.0,0.0,0.0,0.0,0.0,0.0,0.0,0.0,0.0,0.0,0.0
4.466810,-0.25506773591,0.297633081675,2.61951971054,1.38421404362,-0.50904417038,-0.800896286964,-1.56443846226,0.0182352941176,0.0,0.0,0.0,0.0,0.0,0.0,0.0,0.0,0.0,0.0,0.0,0.0,0.0,0.0,0.0
4.500128,-0.25506773591,0.297633081675,2.61951971054,1.38421404362,-0.50904417038,-0.800896286964,-1.56443846226,0.0182352941176,0.0,0.0,0.0,0.0,0.0,0.0,0.0,0.0,0.0,0.0,0.0,0.0,0.0,0.0,0.0
4.533489,-0.25506773591,0.297633081675,2.61951971054,1.38421404362,-0.50904417038,-0.800896286964,-1.56443846226,0.0182352941176,0.0,0.0,0.0,0.0,0.0,0.0,0.0,0.0,0.0,0.0,0.0,0.0,0.0,0.0,0.0
4.566894,-0.25506773591,0.297633081675,2.61951971054,1.38421404362,-0.50904417038,-0.800896286964,-1.56443846226,0.0182352941176,0.0,0.0,0.0,0.0,0.0,0.0,0.0,0.0,0.0,0.0,0.0,0.0,0.0,0.0,0.0
4.600121,-0.25506773591,0.297633081675,2.61951971054,1.38421404362,-0.50904417038,-0.800896286964,-1.56443846226,0.0182352941176,0.0,0.0,0.0,0.0,0.0,0.0,0.0,0.0,0.0,0.0,0.0,0.0,0.0,0.0,0.0
4.633461,-0.25506773591,0.297633081675,2.61951971054,1.38421404362,-0.50904417038,-0.800896286964,-1.56443846226,0.0182352941176,0.0,0.0,0.0,0.0,0.0,0.0,0.0,0.0,0.0,0.0,0.0,0.0,0.0,0.0,0.0
4.666802,-0.25506773591,0.297633081675,2.61951971054,1.38421404362,-0.50904417038,-0.800896286964,-1.56443846226,0.0182352941176,0.0,0.0,0.0,0.0,0.0,0.0,0.0,0.0,0.0,0.0,0.0,0.0,0.0,0.0,0.0
4.700113,-0.25506773591,0.297633081675,2.61951971054,1.38421404362,-0.50904417038,-0.800896286964,-1.56443846226,0.0182352941176,0.0,0.0,0.0,0.0,0.0,0.0,0.0,0.0,0.0,0.0,0.0,0.0,0.0,0.0,0.0
4.733448,-0.25506773591,0.297633081675,2.61951971054,1.38421404362,-0.50904417038,-0.800896286964,-1.56443846226,0.0182352941176,0.0,0.0,0.0,0.0,0.0,0.0,0.0,0.0,0.0,0.0,0.0,0.0,0.0,0.0,0.0
4.766778,-0.25506773591,0.297633081675,2.61951971054,1.38421404362,-0.50904417038,-0.800896286964,-1.56443846226,0.0182352941176,0.0,0.0,0.0,0.0,0.0,0.0,0.0,0.0,0.0,0.0,0.0,0.0,0.0,0.0,0.0
4.800112,-0.25506773591,0.297633081675,2.61951971054,1.38421404362,-0.50904417038,-0.800896286964,-1.56443846226,0.0182352941176,0.0,0.0,0.0,0.0,0.0,0.0,0.0,0.0,0.0,0.0,0.0,0.0,0.0,0.0,0.0
4.833450,-0.25506773591,0.297633081675,2.61951971054,1.38421404362,-0.50904417038,-0.800896286964,-1.56443846226,0.0182352941176,0.0,0.0,0.0,0.0,0.0,0.0,0.0,0.0,0.0,0.0,0.0,0.0,0.0,0.0,0.0
4.866804,-0.25506773591,0.297633081675,2.61951971054,1.38421404362,-0.50904417038,-0.800896286964,-1.56443846226,0.0182352941176,0.0,0.0,0.0,0.0,0.0,0.0,0.0,0.0,0.0,0.0,0.0,0.0,0.0,0.0,0.0
4.900122,-0.25506773591,0.297633081675,2.61951971054,1.38421404362,-0.50904417038,-0.800896286964,-1.56443846226,0.0182352941176,0.0,0.0,0.0,0.0,0.0,0.0,0.0,0.0,0.0,0.0,0.0,0.0,0.0,0.0,0.0
4.933449,-0.25506773591,0.297633081675,2.61951971054,1.38421404362,-0.50904417038,-0.800896286964,-1.56443846226,0.0182352941176,0.0,0.0,0.0,0.0,0.0,0.0,0.0,0.0,0.0,0.0,0.0,0.0,0.0,0.0,0.0
4.966787,-0.25506773591,0.297633081675,2.61951971054,1.38421404362,-0.50904417038,-0.800896286964,-1.56443846226,0.0182352941176,0.0,0.0,0.0,0.0,0.0,0.0,0.0,0.0,0.0,0.0,0.0,0.0,0.0,0.0,0.0
5.000126,-0.25506773591,0.297633081675,2.61951971054,1.38421404362,-0.50904417038,-0.800896286964,-1.56443846226,0.0182352941176,0.0,0.0,0.0,0.0,0.0,0.0,0.0,0.0,0.0,0.0,0.0,0.0,0.0,0.0,0.0
5.033451,-0.25506773591,0.297633081675,2.61951971054,1.38421404362,-0.50904417038,-0.800896286964,-1.56443846226,0.0182352941176,0.0,0.0,0.0,0.0,0.0,0.0,0.0,0.0,0.0,0.0,0.0,0.0,0.0,0.0,0.0
5.066778,-0.25506773591,0.297633081675,2.61951971054,1.38421404362,-0.50904417038,-0.800896286964,-1.56443846226,0.0182352941176,0.0,0.0,0.0,0.0,0.0,0.0,0.0,0.0,0.0,0.0,0.0,0.0,0.0,0.0,0.0
5.100111,-0.25506773591,0.297633081675,2.61951971054,1.38421404362,-0.50904417038,-0.800896286964,-1.56443846226,0.0182352941176,0.0,0.0,0.0,0.0,0.0,0.0,0.0,0.0,0.0,0.0,0.0,0.0,0.0,0.0,0.0
5.133448,-0.25506773591,0.297633081675,2.61951971054,1.38421404362,-0.50904417038,-0.800896286964,-1.56443846226,0.0182352941176,0.0,0.0,0.0,0.0,0.0,0.0,0.0,0.0,0.0,0.0,0.0,0.0,0.0,0.0,0.0
5.166730,-0.25506773591,0.297633081675,2.61951971054,1.38421404362,-0.50904417038,-0.800896286964,-1.56443846226,0.0182352941176,0.0,0.0,0.0,0.0,0.0,0.0,0.0,0.0,0.0,0.0,0.0,0.0,0.0,0.0,0.0
5.200114,-0.25506773591,0.297633081675,2.61951971054,1.38421404362,-0.50904417038,-0.800896286964,-1.56443846226,0.0182352941176,0.0,0.0,0.0,0.0,0.0,0.0,0.0,0.0,0.0,0.0,0.0,0.0,0.0,0.0,0.0
5.233443,-0.25506773591,0.297633081675,2.61951971054,1.38421404362,-0.50904417038,-0.800896286964,-1.56443846226,0.0182352941176,0.0,0.0,0.0,0.0,0.0,0.0,0.0,0.0,0.0,0.0,0.0,0.0,0.0,0.0,0.0
5.266785,-0.25506773591,0.297633081675,2.61951971054,1.38421404362,-0.50904417038,-0.800896286964,-1.56443846226,0.0182352941176,0.0,0.0,0.0,0.0,0.0,0.0,0.0,0.0,0.0,0.0,0.0,0.0,0.0,0.0,0.0
5.300158,-0.25506773591,0.297633081675,2.61951971054,1.38421404362,-0.50904417038,-0.800896286964,-1.56443846226,0.0182352941176,0.0,0.0,0.0,0.0,0.0,0.0,0.0,0.0,0.0,0.0,0.0,0.0,0.0,0.0,0.0
5.333492,-0.25506773591,0.297633081675,2.61951971054,1.38421404362,-0.50904417038,-0.800896286964,-1.56443846226,0.0182352941176,0.0,0.0,0.0,0.0,0.0,0.0,0.0,0.0,0.0,0.0,0.0,0.0,0.0,0.0,0.0
5.366795,-0.25506773591,0.297633081675,2.61951971054,1.38421404362,-0.50904417038,-0.800896286964,-1.56443846226,0.0182352941176,0.0,0.0,0.0,0.0,0.0,0.0,0.0,0.0,0.0,0.0,0.0,0.0,0.0,0.0,0.0
5.400112,-0.25506773591,0.297633081675,2.61951971054,1.38421404362,-0.50904417038,-0.800896286964,-1.56443846226,0.0182352941176,0.0,0.0,0.0,0.0,0.0,0.0,0.0,0.0,0.0,0.0,0.0,0.0,0.0,0.0,0.0
5.433448,-0.25506773591,0.297633081675,2.61951971054,1.38421404362,-0.50904417038,-0.800896286964,-1.56443846226,0.0182352941176,0.0,0.0,0.0,0.0,0.0,0.0,0.0,0.0,0.0,0.0,0.0,0.0,0.0,0.0,0.0
5.466787,-0.25506773591,0.297633081675,2.61951971054,1.38421404362,-0.50904417038,-0.800896286964,-1.56443846226,0.0182352941176,0.0,0.0,0.0,0.0,0.0,0.0,0.0,0.0,0.0,0.0,0.0,0.0,0.0,0.0,0.0
5.500108,-0.25506773591,0.297633081675,2.61951971054,1.38421404362,-0.50904417038,-0.800896286964,-1.56443846226,0.0182352941176,0.0,0.0,0.0,0.0,0.0,0.0,0.0,0.0,0.0,0.0,0.0,0.0,0.0,0.0,0.0
5.533503,-0.25506773591,0.297633081675,2.61951971054,1.38421404362,-0.50904417038,-0.800896286964,-1.56443846226,0.0182352941176,0.0,0.0,0.0,0.0,0.0,0.0,0.0,0.0,0.0,0.0,0.0,0.0,0.0,0.0,0.0
5.566791,-0.25506773591,0.297633081675,2.61951971054,1.38421404362,-0.50904417038,-0.800896286964,-1.56443846226,0.0182352941176,0.0,0.0,0.0,0.0,0.0,0.0,0.0,0.0,0.0,0.0,0.0,0.0,0.0,0.0,0.0
5.600214,-0.25506773591,0.297633081675,2.61951971054,1.38421404362,-0.50904417038,-0.800896286964,-1.56443846226,0.0182352941176,0.0,0.0,0.0,0.0,0.0,0.0,0.0,0.0,0.0,0.0,0.0,0.0,0.0,0.0,0.0
5.633455,-0.25506773591,0.297633081675,2.61951971054,1.38421404362,-0.50904417038,-0.800896286964,-1.56443846226,0.0182352941176,0.0,0.0,0.0,0.0,0.0,0.0,0.0,0.0,0.0,0.0,0.0,0.0,0.0,0.0,0.0
5.666783,-0.25506773591,0.297633081675,2.61951971054,1.38421404362,-0.50904417038,-0.800896286964,-1.56443846226,0.0182352941176,0.0,0.0,0.0,0.0,0.0,0.0,0.0,0.0,0.0,0.0,0.0,0.0,0.0,0.0,0.0
5.700114,-0.25506773591,0.297633081675,2.61951971054,1.38421404362,-0.50904417038,-0.800896286964,-1.56443846226,0.0182352941176,0.0,0.0,0.0,0.0,0.0,0.0,0.0,0.0,0.0,0.0,0.0,0.0,0.0,0.0,0.0
5.733478,-0.25506773591,0.297633081675,2.61951971054,1.38421404362,-0.50904417038,-0.800896286964,-1.56443846226,0.0182352941176,0.0,0.0,0.0,0.0,0.0,0.0,0.0,0.0,0.0,0.0,0.0,0.0,0.0,0.0,0.0
5.766805,-0.25506773591,0.297633081675,2.61951971054,1.38421404362,-0.50904417038,-0.800896286964,-1.56443846226,0.0182352941176,0.0,0.0,0.0,0.0,0.0,0.0,0.0,0.0,0.0,0.0,0.0,0.0,0.0,0.0,0.0
5.800125,-0.25506773591,0.297633081675,2.61951971054,1.38421404362,-0.50904417038,-0.800896286964,-1.56443846226,0.0182352941176,0.0,0.0,0.0,0.0,0.0,0.0,0.0,0.0,0.0,0.0,0.0,0.0,0.0,0.0,0.0
5.833451,-0.25506773591,0.297633081675,2.61951971054,1.38421404362,-0.50904417038,-0.800896286964,-1.56443846226,0.0182352941176,0.0,0.0,0.0,0.0,0.0,0.0,0.0,0.0,0.0,0.0,0.0,0.0,0.0,0.0,0.0
5.866831,-0.25506773591,0.297633081675,2.61951971054,1.38421404362,-0.50904417038,-0.800896286964,-1.56443846226,0.0182352941176,0.0,0.0,0.0,0.0,0.0,0.0,0.0,0.0,0.0,0.0,0.0,0.0,0.0,0.0,0.0
5.900121,-0.25506773591,0.297633081675,2.61951971054,1.38421404362,-0.50904417038,-0.800896286964,-1.56443846226,0.0182352941176,0.0,0.0,0.0,0.0,0.0,0.0,0.0,0.0,0.0,0.0,0.0,0.0,0.0,0.0,0.0
5.933501,-0.25506773591,0.297633081675,2.61951971054,1.38421404362,-0.50904417038,-0.800896286964,-1.56443846226,0.0182352941176,0.0,0.0,0.0,0.0,0.0,0.0,0.0,0.0,0.0,0.0,0.0,0.0,0.0,0.0,0.0
5.966797,-0.25506773591,0.297633081675,2.61951971054,1.38421404362,-0.50904417038,-0.800896286964,-1.56443846226,0.0182352941176,0.0,0.0,0.0,0.0,0.0,0.0,0.0,0.0,0.0,0.0,0.0,0.0,0.0,0.0,0.0
6.000125,-0.25506773591,0.297633081675,2.61951971054,1.38421404362,-0.50904417038,-0.800896286964,-1.56443846226,0.0182352941176,0.0,0.0,0.0,0.0,0.0,0.0,0.0,0.0,0.0,0.0,0.0,0.0,0.0,0.0,0.0
6.033481,-0.25506773591,0.297633081675,2.61951971054,1.38421404362,-0.50904417038,-0.800896286964,-1.56443846226,0.0182352941176,0.0,0.0,0.0,0.0,0.0,0.0,0.0,0.0,0.0,0.0,0.0,0.0,0.0,0.0,0.0
6.066837,-0.25506773591,0.297633081675,2.61951971054,1.38421404362,-0.50904417038,-0.800896286964,-1.56443846226,0.0182352941176,0.0,0.0,0.0,0.0,0.0,0.0,0.0,0.0,0.0,0.0,0.0,0.0,0.0,0.0,0.0
6.100765,-0.25506773591,0.297633081675,2.61951971054,1.38421404362,-0.50904417038,-0.800896286964,-1.56443846226,0.0182352941176,0.0,0.0,0.0,0.0,0.0,0.0,0.0,0.0,0.0,0.0,0.0,0.0,0.0,0.0,0.0
6.133479,-0.25506773591,0.297633081675,2.61951971054,1.38421404362,-0.50904417038,-0.800896286964,-1.56443846226,0.0182352941176,0.0,0.0,0.0,0.0,0.0,0.0,0.0,0.0,0.0,0.0,0.0,0.0,0.0,0.0,0.0
6.166909,-0.25506773591,0.297633081675,2.61951971054,1.38421404362,-0.50904417038,-0.800896286964,-1.56443846226,0.0182352941176,0.0,0.0,0.0,0.0,0.0,0.0,0.0,0.0,0.0,0.0,0.0,0.0,0.0,0.0,0.0
6.200141,-0.25506773591,0.297633081675,2.61951971054,1.38421404362,-0.50904417038,-0.800896286964,-1.56443846226,0.0182352941176,0.0,0.0,0.0,0.0,0.0,0.0,0.0,0.0,0.0,0.0,0.0,0.0,0.0,0.0,0.0
6.233506,-0.25506773591,0.297633081675,2.61951971054,1.38421404362,-0.50904417038,-0.800896286964,-1.56443846226,0.0182352941176,0.0,0.0,0.0,0.0,0.0,0.0,0.0,0.0,0.0,0.0,0.0,0.0,0.0,0.0,0.0
6.266812,-0.25506773591,0.297633081675,2.61951971054,1.38421404362,-0.50904417038,-0.800896286964,-1.56443846226,0.0182352941176,0.0,0.0,0.0,0.0,0.0,0.0,0.0,0.0,0.0,0.0,0.0,0.0,0.0,0.0,0.0
6.300121,-0.25506773591,0.297633081675,2.61951971054,1.38421404362,-0.50904417038,-0.800896286964,-1.56443846226,0.0182352941176,0.0,0.0,0.0,0.0,0.0,0.0,0.0,0.0,0.0,0.0,0.0,0.0,0.0,0.0,0.0
6.333488,-0.25506773591,0.297633081675,2.61951971054,1.38421404362,-0.50904417038,-0.800896286964,-1.56443846226,0.0182352941176,0.0,0.0,0.0,0.0,0.0,0.0,0.0,0.0,0.0,0.0,0.0,0.0,0.0,0.0,0.0
6.366810,-0.25506773591,0.297633081675,2.61951971054,1.38421404362,-0.50904417038,-0.800896286964,-1.56443846226,0.0182352941176,0.0,0.0,0.0,0.0,0.0,0.0,0.0,0.0,0.0,0.0,0.0,0.0,0.0,0.0,0.0
6.400132,-0.25506773591,0.297633081675,2.61951971054,1.38421404362,-0.50904417038,-0.800896286964,-1.56443846226,0.0182352941176,0.0,0.0,0.0,0.0,0.0,0.0,0.0,0.0,0.0,0.0,0.0,0.0,0.0,0.0,0.0
6.433512,-0.25506773591,0.297633081675,2.61951971054,1.38421404362,-0.50904417038,-0.800896286964,-1.56443846226,0.0182352941176,0.0,0.0,0.0,0.0,0.0,0.0,0.0,0.0,0.0,0.0,0.0,0.0,0.0,0.0,0.0
6.466819,-0.25506773591,0.297633081675,2.61951971054,1.38421404362,-0.50904417038,-0.800896286964,-1.56443846226,0.0182352941176,0.0,0.0,0.0,0.0,0.0,0.0,0.0,0.0,0.0,0.0,0.0,0.0,0.0,0.0,0.0
6.500145,-0.25506773591,0.297633081675,2.61951971054,1.38421404362,-0.50904417038,-0.800896286964,-1.56443846226,0.0182352941176,0.0,0.0,0.0,0.0,0.0,0.0,0.0,0.0,0.0,0.0,0.0,0.0,0.0,0.0,0.0
6.533481,-0.25506773591,0.297633081675,2.61951971054,1.38421404362,-0.50904417038,-0.800896286964,-1.56443846226,0.0182352941176,0.0,0.0,0.0,0.0,0.0,0.0,0.0,0.0,0.0,0.0,0.0,0.0,0.0,0.0,0.0
6.566790,-0.25506773591,0.297633081675,2.61951971054,1.38421404362,-0.50904417038,-0.800896286964,-1.56443846226,0.0182352941176,0.0,0.0,0.0,0.0,0.0,0.0,0.0,0.0,0.0,0.0,0.0,0.0,0.0,0.0,0.0
6.600112,-0.25506773591,0.297633081675,2.61951971054,1.38421404362,-0.50904417038,-0.800896286964,-1.56443846226,0.0182352941176,0.0,0.0,0.0,0.0,0.0,0.0,0.0,0.0,0.0,0.0,0.0,0.0,0.0,0.0,0.0
6.633464,-0.25506773591,0.297633081675,2.61951971054,1.38421404362,-0.50904417038,-0.800896286964,-1.56443846226,0.0182352941176,0.0,0.0,0.0,0.0,0.0,0.0,0.0,0.0,0.0,0.0,0.0,0.0,0.0,0.0,0.0
6.666795,-0.25506773591,0.297633081675,2.61951971054,1.38421404362,-0.50904417038,-0.800896286964,-1.56443846226,0.0182352941176,0.0,0.0,0.0,0.0,0.0,0.0,0.0,0.0,0.0,0.0,0.0,0.0,0.0,0.0,0.0
6.700193,-0.25506773591,0.297633081675,2.61951971054,1.38421404362,-0.50904417038,-0.800896286964,-1.56443846226,0.0182352941176,0.0,0.0,0.0,0.0,0.0,0.0,0.0,0.0,0.0,0.0,0.0,0.0,0.0,0.0,0.0
6.733521,-0.25506773591,0.297633081675,2.61951971054,1.38421404362,-0.50904417038,-0.800896286964,-1.56443846226,0.0182352941176,0.0,0.0,0.0,0.0,0.0,0.0,0.0,0.0,0.0,0.0,0.0,0.0,0.0,0.0,0.0
6.766833,-0.25506773591,0.297633081675,2.61951971054,1.38421404362,-0.50904417038,-0.800896286964,-1.56443846226,0.0182352941176,0.0,0.0,0.0,0.0,0.0,0.0,0.0,0.0,0.0,0.0,0.0,0.0,0.0,0.0,0.0
6.800113,-0.25506773591,0.297633081675,2.61951971054,1.38421404362,-0.50904417038,-0.800896286964,-1.56443846226,0.0182352941176,0.0,0.0,0.0,0.0,0.0,0.0,0.0,0.0,0.0,0.0,0.0,0.0,0.0,0.0,0.0
6.833484,-0.25506773591,0.297633081675,2.61951971054,1.38421404362,-0.50904417038,-0.800896286964,-1.56443846226,0.0182352941176,0.0,0.0,0.0,0.0,0.0,0.0,0.0,0.0,0.0,0.0,0.0,0.0,0.0,0.0,0.0
6.866784,-0.25506773591,0.297633081675,2.61951971054,1.38421404362,-0.50904417038,-0.800896286964,-1.56443846226,0.0182352941176,0.0,0.0,0.0,0.0,0.0,0.0,0.0,0.0,0.0,0.0,0.0,0.0,0.0,0.0,0.0
6.900111,-0.25506773591,0.297633081675,2.61951971054,1.38421404362,-0.50904417038,-0.800896286964,-1.56443846226,0.0182352941176,0.0,0.0,0.0,0.0,0.0,0.0,0.0,0.0,0.0,0.0,0.0,0.0,0.0,0.0,0.0
6.933477,-0.25506773591,0.297633081675,2.61951971054,1.38421404362,-0.50904417038,-0.800896286964,-1.56443846226,0.0182352941176,0.0,0.0,0.0,0.0,0.0,0.0,0.0,0.0,0.0,0.0,0.0,0.0,0.0,0.0,0.0
6.966784,-0.25506773591,0.297633081675,2.61951971054,1.38421404362,-0.50904417038,-0.800896286964,-1.56443846226,0.0182352941176,0.0,0.0,0.0,0.0,0.0,0.0,0.0,0.0,0.0,0.0,0.0,0.0,0.0,0.0,0.0
7.000119,-0.25506773591,0.297633081675,2.61951971054,1.38421404362,-0.50904417038,-0.800896286964,-1.56443846226,0.0182352941176,0.0,0.0,0.0,0.0,0.0,0.0,0.0,0.0,0.0,0.0,0.0,0.0,0.0,0.0,0.0
7.033456,-0.25506773591,0.297633081675,2.61951971054,1.38421404362,-0.50904417038,-0.800896286964,-1.56443846226,0.0182352941176,0.0,0.0,0.0,0.0,0.0,0.0,0.0,0.0,0.0,0.0,0.0,0.0,0.0,0.0,0.0
7.066807,-0.25506773591,0.297633081675,2.61951971054,1.38421404362,-0.50904417038,-0.800896286964,-1.56443846226,0.0182352941176,0.0,0.0,0.0,0.0,0.0,0.0,0.0,0.0,0.0,0.0,0.0,0.0,0.0,0.0,0.0
7.100160,-0.25506773591,0.297633081675,2.61951971054,1.38421404362,-0.50904417038,-0.800896286964,-1.56443846226,0.0182352941176,0.0,0.0,0.0,0.0,0.0,0.0,0.0,0.0,0.0,0.0,0.0,0.0,0.0,0.0,0.0
7.133496,-0.25506773591,0.297633081675,2.61951971054,1.38421404362,-0.50904417038,-0.800896286964,-1.56443846226,0.0182352941176,0.0,0.0,0.0,0.0,0.0,0.0,0.0,0.0,0.0,0.0,0.0,0.0,0.0,0.0,0.0
7.166794,-0.25506773591,0.297633081675,2.61951971054,1.38421404362,-0.50904417038,-0.800896286964,-1.56443846226,0.0182352941176,0.0,0.0,0.0,0.0,0.0,0.0,0.0,0.0,0.0,0.0,0.0,0.0,0.0,0.0,0.0
7.200127,-0.25506773591,0.297633081675,2.61951971054,1.38421404362,-0.50904417038,-0.800896286964,-1.56443846226,0.0182352941176,0.0,0.0,0.0,0.0,0.0,0.0,0.0,0.0,0.0,0.0,0.0,0.0,0.0,0.0,0.0
7.233501,-0.25506773591,0.297633081675,2.61951971054,1.38421404362,-0.50904417038,-0.800896286964,-1.56443846226,0.0182352941176,0.0,0.0,0.0,0.0,0.0,0.0,0.0,0.0,0.0,0.0,0.0,0.0,0.0,0.0,0.0
7.266815,-0.25506773591,0.297633081675,2.61951971054,1.38421404362,-0.50904417038,-0.800896286964,-1.56443846226,0.0182352941176,0.0,0.0,0.0,0.0,0.0,0.0,0.0,0.0,0.0,0.0,0.0,0.0,0.0,0.0,0.0
7.300166,-0.25506773591,0.297633081675,2.61951971054,1.38421404362,-0.50904417038,-0.800896286964,-1.56443846226,0.0182352941176,0.0,0.0,0.0,0.0,0.0,0.0,0.0,0.0,0.0,0.0,0.0,0.0,0.0,0.0,0.0
7.333474,-0.25506773591,0.297633081675,2.61951971054,1.38421404362,-0.50904417038,-0.800896286964,-1.56443846226,0.0182352941176,0.0,0.0,0.0,0.0,0.0,0.0,0.0,0.0,0.0,0.0,0.0,0.0,0.0,0.0,0.0
7.366809,-0.25506773591,0.297633081675,2.61951971054,1.38421404362,-0.50904417038,-0.800896286964,-1.56443846226,0.0182352941176,0.0,0.0,0.0,0.0,0.0,0.0,0.0,0.0,0.0,0.0,0.0,0.0,0.0,0.0,0.0
7.400135,-0.25506773591,0.297633081675,2.61951971054,1.38421404362,-0.50904417038,-0.800896286964,-1.56443846226,0.0182352941176,0.0,0.0,0.0,0.0,0.0,0.0,0.0,0.0,0.0,0.0,0.0,0.0,0.0,0.0,0.0
7.433450,-0.25506773591,0.297633081675,2.61951971054,1.38421404362,-0.50904417038,-0.800896286964,-1.56443846226,0.0182352941176,0.0,0.0,0.0,0.0,0.0,0.0,0.0,0.0,0.0,0.0,0.0,0.0,0.0,0.0,0.0
7.466806,-0.25506773591,0.297633081675,2.61951971054,1.38421404362,-0.50904417038,-0.800896286964,-1.56443846226,0.0182352941176,0.0,0.0,0.0,0.0,0.0,0.0,0.0,0.0,0.0,0.0,0.0,0.0,0.0,0.0,0.0
7.500126,-0.25506773591,0.297633081675,2.61951971054,1.38421404362,-0.50904417038,-0.800896286964,-1.56443846226,0.0182352941176,0.0,0.0,0.0,0.0,0.0,0.0,0.0,0.0,0.0,0.0,0.0,0.0,0.0,0.0,0.0
7.533460,-0.25506773591,0.297633081675,2.61951971054,1.38421404362,-0.50904417038,-0.800896286964,-1.56443846226,0.0182352941176,0.0,0.0,0.0,0.0,0.0,0.0,0.0,0.0,0.0,0.0,0.0,0.0,0.0,0.0,0.0
7.566799,-0.25506773591,0.297633081675,2.61951971054,1.38421404362,-0.50904417038,-0.800896286964,-1.56443846226,0.0182352941176,0.0,0.0,0.0,0.0,0.0,0.0,0.0,0.0,0.0,0.0,0.0,0.0,0.0,0.0,0.0
7.600154,-0.25506773591,0.297633081675,2.61951971054,1.38421404362,-0.50904417038,-0.800896286964,-1.56443846226,0.0182352941176,0.0,0.0,0.0,0.0,0.0,0.0,0.0,0.0,0.0,0.0,0.0,0.0,0.0,0.0,0.0
7.633505,-0.25506773591,0.297633081675,2.61951971054,1.38421404362,-0.50904417038,-0.800896286964,-1.56443846226,0.0182352941176,0.0,0.0,0.0,0.0,0.0,0.0,0.0,0.0,0.0,0.0,0.0,0.0,0.0,0.0,0.0
7.666792,-0.25506773591,0.297633081675,2.61951971054,1.38421404362,-0.50904417038,-0.800896286964,-1.56443846226,0.0182352941176,0.0,0.0,0.0,0.0,0.0,0.0,0.0,0.0,0.0,0.0,0.0,0.0,0.0,0.0,0.0
7.700115,-0.25506773591,0.297633081675,2.61951971054,1.38421404362,-0.50904417038,-0.800896286964,-1.56443846226,0.0182352941176,0.0,0.0,0.0,0.0,0.0,0.0,0.0,0.0,0.0,0.0,0.0,0.0,0.0,0.0,0.0
7.733481,-0.255081772804,0.297987192869,2.61951828003,1.38416039944,-0.509042203426,-0.800896286964,-1.56444013119,0.0182352941176,0.0,0.0,0.0,0.0,0.0,0.0,0.0,0.0,0.0,0.0,0.0,0.0,0.0,0.0,0.0
7.766852,-0.25513035059,0.29874008894,2.61951828003,1.3839520216,-0.50904417038,-0.800896286964,-1.56444013119,0.0182352941176,0.0,0.0,0.0,0.0,0.0,0.0,0.0,0.0,0.0,0.0,0.0,0.0,0.0,0.0,0.0
7.800215,-0.25512650609,0.300589859486,2.61951971054,1.38336014748,-0.50904417038,-0.800896286964,-1.56444191933,0.0182352941176,0.0,0.0,0.0,0.0,0.0,0.0,0.0,0.0,0.0,0.0,0.0,0.0,0.0,0.0,0.0
7.833516,-0.25512650609,0.302653044462,2.61951828003,1.38253808022,-0.50904417038,-0.800896286964,-1.56444191933,0.0182352941176,0.0,0.0,0.0,0.0,0.0,0.0,0.0,0.0,0.0,0.0,0.0,0.0,0.0,0.0,0.0
7.866793,-0.255149513483,0.305304259062,2.61951828003,1.38139784336,-0.50904417038,-0.800896286964,-1.56444191933,0.0182352941176,0.0,0.0,0.0,0.0,0.0,0.0,0.0,0.0,0.0,0.0,0.0,0.0,0.0,0.0,0.0
7.900124,-0.255286335945,0.309763044119,2.61951828003,1.37914299965,-0.50904417038,-0.800896286964,-1.56444191933,0.0182352941176,0.0,0.0,0.0,0.0,0.0,0.0,0.0,0.0,0.0,0.0,0.0,0.0,0.0,0.0,0.0
7.933503,-0.255469113588,0.313728362322,2.61951828003,1.37720382214,-0.50904417038,-0.800896286964,-1.56444191933,0.0182352941176,0.0,0.0,0.0,0.0,0.0,0.0,0.0,0.0,0.0,0.0,0.0,0.0,0.0,0.0,0.0
7.966827,-0.255653172731,0.316550910473,2.6195166111,1.37584483624,-0.509046196938,-0.800896286964,-1.56444191933,0.0182352941176,0.0,0.0,0.0,0.0,0.0,0.0,0.0,0.0,0.0,0.0,0.0,0.0,0.0,0.0,0.0
8.000137,-0.256617039442,0.324706554413,2.61951565742,1.37206351757,-0.509046196938,-0.800896286964,-1.56444191933,0.0182352941176,0.0,0.0,0.0,0.0,0.0,0.0,0.0,0.0,0.0,0.0,0.0,0.0,0.0,0.0,0.0
8.033488,-0.257537424564,0.330374598503,2.61951398849,1.36949419975,-0.5090482831,-0.800896286964,-1.56444191933,0.0182352941176,0.0,0.0,0.0,0.0,0.0,0.0,0.0,0.0,0.0,0.0,0.0,0.0,0.0,0.0,0.0
8.066827,-0.258730113506,0.336364835501,2.61951327324,1.36667692661,-0.5090482831,-0.800896286964,-1.56444191933,0.0182352941176,0.0,0.0,0.0,0.0,0.0,0.0,0.0,0.0,0.0,0.0,0.0,0.0,0.0,0.0,0.0
8.100169,-0.260660350323,0.344864338636,2.61951065063,1.36263859272,-0.509052395821,-0.800896286964,-1.56444191933,0.0182352941176,0.0,0.0,0.0,0.0,0.0,0.0,0.0,0.0,0.0,0.0,0.0,0.0,0.0,0.0,0.0
8.133466,-0.262502402067,0.351875931025,2.61950778961,1.35950267315,-0.509052395821,-0.800896286964,-1.56444191933,0.0182352941176,0.0,0.0,0.0,0.0,0.0,0.0,0.0,0.0,0.0,0.0,0.0,0.0,0.0,0.0,0.0
8.166783,-0.264707505703,0.358932226896,2.61949634552,1.35627496243,-0.509052395821,-0.800898015499,-1.56444191933,0.0182352941176,0.0,0.0,0.0,0.0,0.0,0.0,0.0,0.0,0.0,0.0,0.0,0.0,0.0,0.0,0.0
8.200139,-0.267817646265,0.368795692921,2.61949634552,1.35211551189,-0.509050309658,-0.800898015499,-1.56444191933,0.0182352941176,0.0,0.0,0.0,0.0,0.0,0.0,0.0,0.0,0.0,0.0,0.0,0.0,0.0,0.0,0.0
8.233475,-0.270206838846,0.376354426146,2.61949539185,1.34905898571,-0.509052395821,-0.800898015499,-1.56444191933,0.0182352941176,0.0,0.0,0.0,0.0,0.0,0.0,0.0,0.0,0.0,0.0,0.0,0.0,0.0,0.0,0.0
8.266821,-0.272662490606,0.383956551552,2.61949539185,1.3458147049,-0.509050309658,-0.800896286964,-1.56444191933,0.0182352941176,0.0,0.0,0.0,0.0,0.0,0.0,0.0,0.0,0.0,0.0,0.0,0.0,0.0,0.0,0.0
8.300134,-0.276084512472,0.394533365965,2.6194870472,1.34108245373,-0.509052395821,-0.800896286964,-1.56444191933,0.0182352941176,0.0,0.0,0.0,0.0,0.0,0.0,0.0,0.0,0.0,0.0,0.0,0.0,0.0,0.0,0.0
8.333453,-0.278891712427,0.402256965637,2.61947965622,1.33705949783,-0.509052395821,-0.800896286964,-1.56444191933,0.0182352941176,0.0,0.0,0.0,0.0,0.0,0.0,0.0,0.0,0.0,0.0,0.0,0.0,0.0,0.0,0.0
8.366778,-0.281812667847,0.410150587559,2.61947202682,1.33299577236,-0.509052395821,-0.800896286964,-1.56444191933,0.0182352941176,0.0,0.0,0.0,0.0,0.0,0.0,0.0,0.0,0.0,0.0,0.0,0.0,0.0,0.0,0.0
8.400134,-0.285935252905,0.420430809259,2.61947202682,1.3272228241,-0.509052395821,-0.800896286964,-1.56444191933,0.0182352941176,0.0,0.0,0.0,0.0,0.0,0.0,0.0,0.0,0.0,0.0,0.0,0.0,0.0,0.0,0.0
8.433505,-0.289019823074,0.42830902338,2.61947059631,1.32265651226,-0.509050309658,-0.800896286964,-1.56444191933,0.0182352941176,0.0,0.0,0.0,0.0,0.0,0.0,0.0,0.0,0.0,0.0,0.0,0.0,0.0,0.0,0.0
8.471178,-0.292195171118,0.436001926661,2.61946606636,1.317882061,-0.5090482831,-0.800896286964,-1.56444191933,0.0182352941176,0.0,0.0,0.0,0.0,0.0,0.0,0.0,0.0,0.0,0.0,0.0,0.0,0.0,0.0,0.0
8.500143,-0.296336919069,0.446009904146,2.61946606636,1.31106102467,-0.5090482831,-0.800896286964,-1.56444191933,0.0182352941176,0.0,0.0,0.0,0.0,0.0,0.0,0.0,0.0,0.0,0.0,0.0,0.0,0.0,0.0,0.0
8.533480,-0.299430459738,0.453673452139,2.61946606636,1.3056024313,-0.5090482831,-0.800896286964,-1.56444191933,0.0182352941176,0.0,0.0,0.0,0.0,0.0,0.0,0.0,0.0,0.0,0.0,0.0,0.0,0.0,0.0,0.0
8.566811,-0.302471578121,0.461003303528,2.61946702003,1.30025923252,-0.509050309658,-0.800896286964,-1.56444191933,0.0182352941176,0.0,0.0,0.0,0.0,0.0,0.0,0.0,0.0,0.0,0.0,0.0,0.0,0.0,0.0,0.0
8.600152,-0.305673748255,0.470955014229,2.61946845055,1.29338824749,-0.509050309658,-0.800896286964,-1.56444191933,0.0182352941176,0.0,0.0,0.0,0.0,0.0,0.0,0.0,0.0,0.0,0.0,0.0,0.0,0.0,0.0,0.0
8.633502,-0.307503014803,0.478181302547,2.61946845055,1.28819441795,-0.509050309658,-0.800896286964,-1.56444191933,0.0182352941176,0.0,0.0,0.0,0.0,0.0,0.0,0.0,0.0,0.0,0.0,0.0,0.0,0.0,0.0,0.0
8.666798,-0.308987170458,0.485646694899,2.61946845055,1.28320634365,-0.5090482831,-0.800896286964,-1.56444191933,0.0182352941176,0.0,0.0,0.0,0.0,0.0,0.0,0.0,0.0,0.0,0.0,0.0,0.0,0.0,0.0,0.0
8.700124,-0.310450822115,0.495397686958,2.61946845055,1.27694916725,-0.509050309658,-0.800896286964,-1.56444191933,0.0182352941176,0.0,0.0,0.0,0.0,0.0,0.0,0.0,0.0,0.0,0.0,0.0,0.0,0.0,0.0,0.0
8.733500,-0.311263799667,0.502563893795,2.61946845055,1.27238166332,-0.509050309658,-0.800896286964,-1.56444191933,0.0182352941176,0.0,0.0,0.0,0.0,0.0,0.0,0.0,0.0,0.0,0.0,0.0,0.0,0.0,0.0,0.0
8.766798,-0.311860799789,0.510034441948,2.61946845055,1.26787304878,-0.509050309658,-0.8008928895,-1.56444191933,0.0182352941176,0.0,0.0,0.0,0.0,0.0,0.0,0.0,0.0,0.0,0.0,0.0,0.0,0.0,0.0,0.0
8.800158,-0.312424510717,0.51957064867,2.61946845055,1.26175618172,-0.509050309658,-0.800868988037,-1.56444191933,0.0182352941176,0.0,0.0,0.0,0.0,0.0,0.0,0.0,0.0,0.0,0.0,0.0,0.0,0.0,0.0,0.0
8.833476,-0.312517821789,0.526753485203,2.61946845055,1.25726675987,-0.509050309658,-0.800828099251,-1.56444191933,0.0182352941176,0.0,0.0,0.0,0.0,0.0,0.0,0.0,0.0,0.0,0.0,0.0,0.0,0.0,0.0,0.0
8.866817,-0.312521666288,0.533607840538,2.61946845055,1.25277233124,-0.509050309658,-0.800730884075,-1.56444191933,0.0182352941176,0.0,0.0,0.0,0.0,0.0,0.0,0.0,0.0,0.0,0.0,0.0,0.0,0.0,0.0,0.0
8.900139,-0.312437325716,0.542313218117,2.61946845055,1.24679863453,-0.509052395821,-0.800565600395,-1.56444191933,0.0182352941176,0.0,0.0,0.0,0.0,0.0,0.0,0.0,0.0,0.0,0.0,0.0,0.0,0.0,0.0,0.0
8.933455,-0.312309473753,0.548667728901,2.61946845055,1.24259185791,-0.509050309658,-0.80046159029,-1.56444191933,0.0182352941176,0.0,0.0,0.0,0.0,0.0,0.0,0.0,0.0,0.0,0.0,0.0,0.0,0.0,0.0,0.0
8.966807,-0.312300533056,0.554560720921,2.61946845055,1.23856496811,-0.509050309658,-0.800270736217,-1.56444191933,0.0182352941176,0.0,0.0,0.0,0.0,0.0,0.0,0.0,0.0,0.0,0.0,0.0,0.0,0.0,0.0,0.0
9.000136,-0.312346577644,0.561958312988,2.61946845055,1.23358082771,-0.509050309658,-0.800124168396,-1.56444191933,0.0182352941176,0.0,0.0,0.0,0.0,0.0,0.0,0.0,0.0,0.0,0.0,0.0,0.0,0.0,0.0,0.0
9.033464,-0.312349110842,0.567221224308,2.61946845055,1.2303416729,-0.509050309658,-0.800003111362,-1.56444191933,0.0182352941176,0.0,0.0,0.0,0.0,0.0,0.0,0.0,0.0,0.0,0.0,0.0,0.0,0.0,0.0,0.0
9.066817,-0.312404066324,0.572101771832,2.61946845055,1.22750365734,-0.509046196938,-0.799844622612,-1.56444191933,0.0182352941176,0.0,0.0,0.0,0.0,0.0,0.0,0.0,0.0,0.0,0.0,0.0,0.0,0.0,0.0,0.0
9.100147,-0.312539547682,0.578030586243,2.61946845055,1.22474515438,-0.508704662323,-0.799582183361,-1.56444191933,0.0182352941176,0.0,0.0,0.0,0.0,0.0,0.0,0.0,0.0,0.0,0.0,0.0,0.0,0.0,0.0,0.0
9.133532,-0.312776088715,0.582208156586,2.61946845055,1.22346818447,-0.507825195789,-0.799128890038,-1.56444191933,0.0182352941176,0.0,0.0,0.0,0.0,0.0,0.0,0.0,0.0,0.0,0.0,0.0,0.0,0.0,0.0,0.0
9.166797,-0.313017696142,0.584890007973,2.61946845055,1.22297990322,-0.506775975227,-0.798481225967,-1.56444191933,0.0182352941176,0.0,0.0,0.0,0.0,0.0,0.0,0.0,0.0,0.0,0.0,0.0,0.0,0.0,0.0,0.0
9.200147,-0.313742488623,0.591022133827,2.61946845055,1.22256314754,-0.503446221352,-0.796055734158,-1.56444191933,0.0182352941176,0.0,0.0,0.0,0.0,0.0,0.0,0.0,0.0,0.0,0.0,0.0,0.0,0.0,0.0,0.0
9.233509,-0.314120858908,0.594394385815,2.61946845055,1.22254002094,-0.501652479172,-0.794318854809,-1.56444191933,0.0182352941176,0.0,0.0,0.0,0.0,0.0,0.0,0.0,0.0,0.0,0.0,0.0,0.0,0.0,0.0,0.0
9.266829,-0.314367592335,0.597671926022,2.61946845055,1.22253370285,-0.500466167927,-0.79208946228,-1.56444191933,0.0182352941176,0.0,0.0,0.0,0.0,0.0,0.0,0.0,0.0,0.0,0.0,0.0,0.0,0.0,0.0,0.0
9.300147,-0.314457029104,0.60203230381,2.61946845055,1.22252094746,-0.500325024128,-0.787107527256,-1.56444191933,0.0182352941176,0.0,0.0,0.0,0.0,0.0,0.0,0.0,0.0,0.0,0.0,0.0,0.0,0.0,0.0,0.0
9.333520,-0.314491569996,0.605045318604,2.61946845055,1.22249031067,-0.500331163406,-0.78129029274,-1.56444191933,0.0182352941176,0.0,0.0,0.0,0.0,0.0,0.0,0.0,0.0,0.0,0.0,0.0,0.0,0.0,0.0,0.0
9.366853,-0.314505636692,0.607948422432,2.61946845055,1.22224485874,-0.500349640846,-0.77485781908,-1.56444191933,0.0182352941176,0.0,0.0,0.0,0.0,0.0,0.0,0.0,0.0,0.0,0.0,0.0,0.0,0.0,0.0,0.0
9.400142,-0.314499229193,0.610797762871,2.61946845055,1.22153794765,-0.500349640846,-0.767753779888,-1.56444191933,0.0182352941176,0.0,0.0,0.0,0.0,0.0,0.0,0.0,0.0,0.0,0.0,0.0,0.0,0.0,0.0,0.0
9.433521,-0.314536333084,0.614347577095,2.61946845055,1.22077226639,-0.500351667404,-0.756895005703,-1.56444191933,0.0182352941176,0.0,0.0,0.0,0.0,0.0,0.0,0.0,0.0,0.0,0.0,0.0,0.0,0.0,0.0,0.0
9.466832,-0.314478814602,0.617089569569,2.61946845055,1.22017264366,-0.500353693962,-0.749023914337,-1.56444191933,0.0182352941176,0.0,0.0,0.0,0.0,0.0,0.0,0.0,0.0,0.0,0.0,0.0,0.0,0.0,0.0,0.0
9.500180,-0.314598947763,0.620952665806,2.61946702003,1.21980834007,-0.500349640846,-0.738717198372,-1.56444191933,0.0182352941176,0.0,0.0,0.0,0.0,0.0,0.0,0.0,0.0,0.0,0.0,0.0,0.0,0.0,0.0,0.0
9.533499,-0.314710170031,0.624015450478,2.61946702003,1.21975719929,-0.500351667404,-0.733031272888,-1.56444191933,0.0182352941176,0.0,0.0,0.0,0.0,0.0,0.0,0.0,0.0,0.0,0.0,0.0,0.0,0.0,0.0,0.0
9.566783,-0.314935177565,0.627125620842,2.61946606636,1.21966004372,-0.500351667404,-0.729053199291,-1.56444191933,0.0182352941176,0.0,0.0,0.0,0.0,0.0,0.0,0.0,0.0,0.0,0.0,0.0,0.0,0.0,0.0,0.0
9.600138,-0.31534036994,0.631255924702,2.61946606636,1.21958971024,-0.500353693962,-0.725790858269,-1.56444191933,0.0182352941176,0.0,0.0,0.0,0.0,0.0,0.0,0.0,0.0,0.0,0.0,0.0,0.0,0.0,0.0,0.0
9.633501,-0.31558328867,0.634459376335,2.61946606636,1.219383955,-0.50035572052,-0.725449979305,-1.56444191933,0.0182352941176,0.0,0.0,0.0,0.0,0.0,0.0,0.0,0.0,0.0,0.0,0.0,0.0,0.0,0.0,0.0
9.666851,-0.315845310688,0.637720346451,2.61946606636,1.21920871735,-0.500367999077,-0.72545170784,-1.56444191933,0.0182352941176,0.0,0.0,0.0,0.0,0.0,0.0,0.0,0.0,0.0,0.0,0.0,0.0,0.0,0.0,0.0
9.700153,-0.31617000699,0.642397761345,2.61946606636,1.21886491776,-0.500376224518,-0.72545170784,-1.56444191933,0.0182352941176,0.0,0.0,0.0,0.0,0.0,0.0,0.0,0.0,0.0,0.0,0.0,0.0,0.0,0.0,0.0
9.733488,-0.316434621811,0.646175146103,2.61946606636,1.2183971405,-0.500384390354,-0.72545170784,-1.56444191933,0.0182352941176,0.0,0.0,0.0,0.0,0.0,0.0,0.0,0.0,0.0,0.0,0.0,0.0,0.0,0.0,0.0
9.769163,-0.316833436489,0.651371598244,2.61946415901,1.2173538208,-0.500396668911,-0.72545170784,-1.56444191933,0.0182352941176,0.0,0.0,0.0,0.0,0.0,0.0,0.0,0.0,0.0,0.0,0.0,0.0,0.0,0.0,0.0
9.800172,-0.317131280899,0.65533041954,2.61946415901,1.21618819237,-0.500417113304,-0.72545337677,-1.56444191933,0.0182352941176,0.0,0.0,0.0,0.0,0.0,0.0,0.0,0.0,0.0,0.0,0.0,0.0,0.0,0.0,0.0
9.833500,-0.317370325327,0.659455537796,2.61946415901,1.21452367306,-0.500427365303,-0.72545337677,-1.56444191933,0.0182352941176,0.0,0.0,0.0,0.0,0.0,0.0,0.0,0.0,0.0,0.0,0.0,0.0,0.0,0.0,0.0
9.866847,-0.31755182147,0.66367405653,2.61946082115,1.21250128746,-0.500476419926,-0.72545337677,-1.56444191933,0.0182352941176,0.0,0.0,0.0,0.0,0.0,0.0,0.0,0.0,0.0,0.0,0.0,0.0,0.0,0.0,0.0
9.900152,-0.31766051054,0.669397056103,2.61944651604,1.20915472507,-0.500525534153,-0.72545337677,-1.56444191933,0.0182352941176,0.0,0.0,0.0,0.0,0.0,0.0,0.0,0.0,0.0,0.0,0.0,0.0,0.0,0.0,0.0
9.933481,-0.31776791811,0.673545241356,2.61934447289,1.2060829401,-0.500543892384,-0.72545337677,-1.56444191933,0.0182352941176,0.0,0.0,0.0,0.0,0.0,0.0,0.0,0.0,0.0,0.0,0.0,0.0,0.0,0.0,0.0
9.966807,-0.317912310362,0.677615344524,2.61914014816,1.20257413387,-0.500548005104,-0.72545170784,-1.56444191933,0.0182352941176,0.0,0.0,0.0,0.0,0.0,0.0,0.0,0.0,0.0,0.0,0.0,0.0,0.0,0.0,0.0
10.000118,-0.318222939968,0.682998418808,2.61859512329,1.19721019268,-0.500548005104,-0.72545170784,-1.56444013119,0.0182352941176,0.0,0.0,0.0,0.0,0.0,0.0,0.0,0.0,0.0,0.0,0.0,0.0,0.0,0.0,0.0
10.033504,-0.318609029055,0.687003314495,2.61805462837,1.19258773327,-0.500548005104,-0.725449979305,-1.56444013119,0.0182352941176,0.0,0.0,0.0,0.0,0.0,0.0,0.0,0.0,0.0,0.0,0.0,0.0,0.0,0.0,0.0
10.066799,-0.319099932909,0.690904676914,2.61743569374,1.18783628941,-0.500545918941,-0.725449979305,-1.56444013119,0.0182352941176,0.0,0.0,0.0,0.0,0.0,0.0,0.0,0.0,0.0,0.0,0.0,0.0,0.0,0.0,0.0
10.100153,-0.319950014353,0.696166276932,2.61701655388,1.18199312687,-0.500545918941,-0.725449979305,-1.56444013119,0.0182352941176,0.0,0.0,0.0,0.0,0.0,0.0,0.0,0.0,0.0,0.0,0.0,0.0,0.0,0.0,0.0
10.133503,-0.320823043585,0.700373291969,2.61701393127,1.17808794975,-0.500543892384,-0.725449979305,-1.56444013119,0.0182352941176,0.0,0.0,0.0,0.0,0.0,0.0,0.0,0.0,0.0,0.0,0.0,0.0,0.0,0.0,0.0
10.166811,-0.321771562099,0.704736113548,2.61701154709,1.17455589771,-0.500545918941,-0.725449979305,-1.56444013119,0.0182352941176,0.0,0.0,0.0,0.0,0.0,0.0,0.0,0.0,0.0,0.0,0.0,0.0,0.0,0.0,0.0
10.200182,-0.322961688042,0.71057420969,2.61701154709,1.1702889204,-0.500545918941,-0.725449979305,-1.56444013119,0.0182352941176,0.0,0.0,0.0,0.0,0.0,0.0,0.0,0.0,0.0,0.0,0.0,0.0,0.0,0.0,0.0
10.233514,-0.323859095573,0.714919269085,2.61699724197,1.16735768318,-0.500545918941,-0.725449979305,-1.56444013119,0.0182352941176,0.0,0.0,0.0,0.0,0.0,0.0,0.0,0.0,0.0,0.0,0.0,0.0,0.0,0.0,0.0
10.266843,-0.324903428555,0.719251394272,2.61693310738,1.16443419456,-0.500548005104,-0.725448310375,-1.56444013119,0.0182352941176,0.0,0.0,0.0,0.0,0.0,0.0,0.0,0.0,0.0,0.0,0.0,0.0,0.0,0.0,0.0
10.300135,-0.326309591532,0.725066423416,2.61685562134,1.16052389145,-0.500548005104,-0.725448310375,-1.56444013119,0.0182352941176,0.0,0.0,0.0,0.0,0.0,0.0,0.0,0.0,0.0,0.0,0.0,0.0,0.0,0.0,0.0
10.333499,-0.327313065529,0.729258060455,2.61682844162,1.15760409832,-0.500550031662,-0.725448310375,-1.56444013119,0.0182352941176,0.0,0.0,0.0,0.0,0.0,0.0,0.0,0.0,0.0,0.0,0.0,0.0,0.0,0.0,0.0
10.366794,-0.328260302544,0.733312904835,2.61679267883,1.15462565422,-0.500550031662,-0.725448310375,-1.56444013119,0.0182352941176,0.0,0.0,0.0,0.0,0.0,0.0,0.0,0.0,0.0,0.0,0.0,0.0,0.0,0.0,0.0
10.400156,-0.329383939505,0.738593637943,2.61671733856,1.15081119537,-0.500558197498,-0.725449979305,-1.56444191933,0.0182352941176,0.0,0.0,0.0,0.0,0.0,0.0,0.0,0.0,0.0,0.0,0.0,0.0,0.0,0.0,0.0
10.433468,-0.330017983913,0.742408156395,2.61656880379,1.14794778824,-0.500590920448,-0.725449979305,-1.56444191933,0.0182352941176,0.0,0.0,0.0,0.0,0.0,0.0,0.0,0.0,0.0,0.0,0.0,0.0,0.0,0.0,0.0
10.466833,-0.33037468791,0.746037304401,2.61650633812,1.14506649971,-0.500595033169,-0.725449979305,-1.56444013119,0.0182352941176,0.0,0.0,0.0,0.0,0.0,0.0,0.0,0.0,0.0,0.0,0.0,0.0,0.0,0.0,0.0
10.500113,-0.330552309752,0.750433385372,2.61647558212,1.14159059525,-0.500609397888,-0.725449979305,-1.56444191933,0.0182352941176,0.0,0.0,0.0,0.0,0.0,0.0,0.0,0.0,0.0,0.0,0.0,0.0,0.0,0.0,0.0
10.533487,-0.330543398857,0.752483844757,2.61647701263,1.13992106915,-0.500615477562,-0.725448310375,-1.56444191933,0.0182352941176,0.0,0.0,0.0,0.0,0.0,0.0,0.0,0.0,0.0,0.0,0.0,0.0,0.0,0.0,0.0
10.566800,-0.33045643568,0.756543755531,2.61647987366,1.13654637337,-0.500615477562,-0.725448310375,-1.56444191933,0.0182352941176,0.0,0.0,0.0,0.0,0.0,0.0,0.0,0.0,0.0,0.0,0.0,0.0,0.0,0.0,0.0
10.600121,-0.330409169197,0.760394096375,2.61648225784,1.13295948505,-0.500617563725,-0.725448310375,-1.56444013119,0.0182352941176,0.0,0.0,0.0,0.0,0.0,0.0,0.0,0.0,0.0,0.0,0.0,0.0,0.0,0.0,0.0
10.633478,-0.330327361822,0.763219118118,2.61648631096,1.13015341759,-0.500619590282,-0.725448310375,-1.56444191933,0.0182352941176,0.0,0.0,0.0,0.0,0.0,0.0,0.0,0.0,0.0,0.0,0.0,0.0,0.0,0.0,0.0
10.666811,-0.330317169428,0.765853762627,2.61648464203,1.12732708454,-0.500623703003,-0.725449979305,-1.56444013119,0.0182352941176,0.0,0.0,0.0,0.0,0.0,0.0,0.0,0.0,0.0,0.0,0.0,0.0,0.0,0.0,0.0
10.700115,-0.330317169428,0.769050776958,2.61648225784,1.12385654449,-0.500695228577,-0.725449979305,-1.56444191933,0.0182352941176,0.0,0.0,0.0,0.0,0.0,0.0,0.0,0.0,0.0,0.0,0.0,0.0,0.0,0.0,0.0
10.733512,-0.330315858126,0.771431088448,2.61648321152,1.12144434452,-0.500709593296,-0.725449979305,-1.56444013119,0.0182352941176,0.0,0.0,0.0,0.0,0.0,0.0,0.0,0.0,0.0,0.0,0.0,0.0,0.0,0.0,0.0
10.766876,-0.330317169428,0.773770332336,2.61648321152,1.11911392212,-0.500709593296,-0.725449979305,-1.56444013119,0.0182352941176,0.0,0.0,0.0,0.0,0.0,0.0,0.0,0.0,0.0,0.0,0.0,0.0,0.0,0.0,0.0
10.800147,-0.330336302519,0.776635110378,2.61647319794,1.11638736725,-0.500713646412,-0.725449979305,-1.56444191933,0.0182352941176,0.0,0.0,0.0,0.0,0.0,0.0,0.0,0.0,0.0,0.0,0.0,0.0,0.0,0.0,0.0
10.833490,-0.330328643322,0.778801858425,2.61647558212,1.11449420452,-0.500715792179,-0.725448310375,-1.56444191933,0.0182352941176,0.0,0.0,0.0,0.0,0.0,0.0,0.0,0.0,0.0,0.0,0.0,0.0,0.0,0.0,0.0
10.866828,-0.330320984125,0.780963480473,2.61647701263,1.11274170876,-0.500717759132,-0.725448310375,-1.56444013119,0.0182352941176,0.0,0.0,0.0,0.0,0.0,0.0,0.0,0.0,0.0,0.0,0.0,0.0,0.0,0.0,0.0
10.900170,-0.330318421125,0.783446013927,2.61647844315,1.11062216759,-0.500717759132,-0.725448310375,-1.56444013119,0.0182352941176,0.0,0.0,0.0,0.0,0.0,0.0,0.0,0.0,0.0,0.0,0.0,0.0,0.0,0.0,0.0
10.933506,-0.330317169428,0.785194694996,2.61647987366,1.10920834541,-0.500717759132,-0.725448310375,-1.56444013119,0.0182352941176,0.0,0.0,0.0,0.0,0.0,0.0,0.0,0.0,0.0,0.0,0.0,0.0,0.0,0.0,0.0
10.966781,-0.330317169428,0.786865413189,2.61647987366,1.10801815987,-0.500717759132,-0.725448310375,-1.56444013119,0.0182352941176,0.0,0.0,0.0,0.0,0.0,0.0,0.0,0.0,0.0,0.0,0.0,0.0,0.0,0.0,0.0
11.000131,-0.330317169428,0.788772642612,2.61647987366,1.10682940483,-0.500717759132,-0.725448310375,-1.56444013119,0.0182352941176,0.0,0.0,0.0,0.0,0.0,0.0,0.0,0.0,0.0,0.0,0.0,0.0,0.0,0.0,0.0
11.033529,-0.330383598804,0.790024220943,2.61647319794,1.1062874794,-0.500715792179,-0.725448310375,-1.56444013119,0.0182352941176,0.0,0.0,0.0,0.0,0.0,0.0,0.0,0.0,0.0,0.0,0.0,0.0,0.0,0.0,0.0
11.066927,-0.330588132143,0.791098058224,2.61646914482,1.10605466366,-0.500715792179,-0.725448310375,-1.56444013119,0.0182352941176,0.0,0.0,0.0,0.0,0.0,0.0,0.0,0.0,0.0,0.0,0.0,0.0,0.0,0.0,0.0
11.100143,-0.33075684309,0.79222548008,2.61646914482,1.10603046417,-0.500713646412,-0.725448310375,-1.56443846226,0.0182352941176,0.0,0.0,0.0,0.0,0.0,0.0,0.0,0.0,0.0,0.0,0.0,0.0,0.0,0.0,0.0
11.133490,-0.33085912466,0.792767524719,2.61646914482,1.10602927208,-0.500711619854,-0.725448310375,-1.56443846226,0.0182352941176,0.0,0.0,0.0,0.0,0.0,0.0,0.0,0.0,0.0,0.0,0.0,0.0,0.0,0.0,0.0
11.166807,-0.331034243107,0.793231487274,2.61646914482,1.10602927208,-0.500709593296,-0.725448310375,-1.56443667412,0.0182352941176,0.0,0.0,0.0,0.0,0.0,0.0,0.0,0.0,0.0,0.0,0.0,0.0,0.0,0.0,0.0
11.200149,-0.331278383732,0.793830990791,2.61646914482,1.10602927208,-0.500701367855,-0.725448310375,-1.56443500519,0.0182352941176,0.0,0.0,0.0,0.0,0.0,0.0,0.0,0.0,0.0,0.0,0.0,0.0,0.0,0.0,0.0
11.233477,-0.331366598606,0.794263064861,2.61647057533,1.10599339008,-0.500701367855,-0.725446581841,-1.56443500519,0.0182352941176,0.0,0.0,0.0,0.0,0.0,0.0,0.0,0.0,0.0,0.0,0.0,0.0,0.0,0.0,0.0
11.267373,-0.331417739391,0.794757783413,2.61647057533,1.10592055321,-0.500699341297,-0.725446581841,-1.56443500519,0.0182352941176,0.0,0.0,0.0,0.0,0.0,0.0,0.0,0.0,0.0,0.0,0.0,0.0,0.0,0.0,0.0
11.300137,-0.331647872925,0.795288205147,2.61647057533,1.10553205013,-0.500701367855,-0.725446581841,-1.56443500519,0.0182352941176,0.0,0.0,0.0,0.0,0.0,0.0,0.0,0.0,0.0,0.0,0.0,0.0,0.0,0.0,0.0
11.333496,-0.331821709871,0.795573294163,2.61647057533,1.1049683094,-0.500703454018,-0.72544491291,-1.56443667412,0.0182352941176,0.0,0.0,0.0,0.0,0.0,0.0,0.0,0.0,0.0,0.0,0.0,0.0,0.0,0.0,0.0
11.366975,-0.332067131996,0.795995295048,2.61647057533,1.10411810875,-0.500703454018,-0.72544491291,-1.56443667412,0.0182352941176,0.0,0.0,0.0,0.0,0.0,0.0,0.0,0.0,0.0,0.0,0.0,0.0,0.0,0.0,0.0
11.400125,-0.332710146904,0.79654866457,2.61647057533,1.10266590118,-0.500705480576,-0.725437998772,-1.56443846226,0.0182352941176,0.0,0.0,0.0,0.0,0.0,0.0,0.0,0.0,0.0,0.0,0.0,0.0,0.0,0.0,0.0
11.433503,-0.333193331957,0.797081708908,2.61647057533,1.10136067867,-0.500705480576,-0.725426197052,-1.56443846226,0.0182352941176,0.0,0.0,0.0,0.0,0.0,0.0,0.0,0.0,0.0,0.0,0.0,0.0,0.0,0.0,0.0
11.466838,-0.333698272705,0.797847568989,2.61647057533,1.09992134571,-0.500707507133,-0.725380182266,-1.56443846226,0.0182352941176,0.0,0.0,0.0,0.0,0.0,0.0,0.0,0.0,0.0,0.0,0.0,0.0,0.0,0.0,0.0
11.500144,-0.334329724312,0.799303472042,2.61647057533,1.09789395332,-0.500707507133,-0.725240409374,-1.56443846226,0.0182352941176,0.0,0.0,0.0,0.0,0.0,0.0,0.0,0.0,0.0,0.0,0.0,0.0,0.0,0.0,0.0
11.533494,-0.334741383791,0.800686657429,2.61647057533,1.09636771679,-0.500705480576,-0.725225090981,-1.56443846226,0.0182352941176,0.0,0.0,0.0,0.0,0.0,0.0,0.0,0.0,0.0,0.0,0.0,0.0,0.0,0.0,0.0
11.566789,-0.335156857967,0.80222183466,2.61647057533,1.09482347965,-0.500707507133,-0.725199460983,-1.56443846226,0.0182352941176,0.0,0.0,0.0,0.0,0.0,0.0,0.0,0.0,0.0,0.0,0.0,0.0,0.0,0.0,0.0
11.600134,-0.335655391216,0.804355382919,2.61646914482,1.09231543541,-0.500707507133,-0.725177288055,-1.56443667412,0.0182352941176,0.0,0.0,0.0,0.0,0.0,0.0,0.0,0.0,0.0,0.0,0.0,0.0,0.0,0.0,0.0
11.633513,-0.336115628481,0.805759012699,2.61645674706,1.09015500546,-0.500707507133,-0.725170433521,-1.56443846226,0.0182352941176,0.0,0.0,0.0,0.0,0.0,0.0,0.0,0.0,0.0,0.0,0.0,0.0,0.0,0.0,0.0
11.666833,-0.336630731821,0.8070936203,2.61645364761,1.08754992485,-0.500705480576,-0.725151717663,-1.56443667412,0.0182352941176,0.0,0.0,0.0,0.0,0.0,0.0,0.0,0.0,0.0,0.0,0.0,0.0,0.0,0.0,0.0
11.700126,-0.337510228157,0.808893442154,2.61645364761,1.08354628086,-0.500703454018,-0.724916517735,-1.56443667412,0.0182352941176,0.0,0.0,0.0,0.0,0.0,0.0,0.0,0.0,0.0,0.0,0.0,0.0,0.0,0.0,0.0
11.733489,-0.338361561298,0.810082197189,2.61645364761,1.08017396927,-0.500703454018,-0.724645495415,-1.56443667412,0.0182352941176,0.0,0.0,0.0,0.0,0.0,0.0,0.0,0.0,0.0,0.0,0.0,0.0,0.0,0.0,0.0
11.766805,-0.339164376259,0.811320900917,2.61645770073,1.07655632496,-0.500703454018,-0.724159836769,-1.56443667412,0.0182352941176,0.0,0.0,0.0,0.0,0.0,0.0,0.0,0.0,0.0,0.0,0.0,0.0,0.0,0.0,0.0
11.800174,-0.340208739042,0.81328701973,2.61645770073,1.07187509537,-0.500701367855,-0.722180962563,-1.56443846226,0.0182352941176,0.0,0.0,0.0,0.0,0.0,0.0,0.0,0.0,0.0,0.0,0.0,0.0,0.0,0.0,0.0
11.833558,-0.340726464987,0.814953923225,2.61645936966,1.06850934029,-0.500699341297,-0.721054315567,-1.56443846226,0.0182352941176,0.0,0.0,0.0,0.0,0.0,0.0,0.0,0.0,0.0,0.0,0.0,0.0,0.0,0.0,0.0
11.866823,-0.341022998095,0.816840708256,2.61646032333,1.0654746294,-0.500701367855,-0.720674216747,-1.56443846226,0.0182352941176,0.0,0.0,0.0,0.0,0.0,0.0,0.0,0.0,0.0,0.0,0.0,0.0,0.0,0.0,0.0
11.900138,-0.341306805611,0.819652974606,2.61645936966,1.06176364422,-0.500703454018,-0.720667421818,-1.56443846226,0.0182352941176,0.0,0.0,0.0,0.0,0.0,0.0,0.0,0.0,0.0,0.0,0.0,0.0,0.0,0.0,0.0
11.933464,-0.341424405575,0.821684241295,2.61645936966,1.05943322182,-0.500703454018,-0.720669090748,-1.56443846226,0.0182352941176,0.0,0.0,0.0,0.0,0.0,0.0,0.0,0.0,0.0,0.0,0.0,0.0,0.0,0.0,0.0
11.966771,-0.341519057751,0.823619663715,2.61645936966,1.05754256248,-0.500703454018,-0.720669090748,-1.56443846226,0.0182352941176,0.0,0.0,0.0,0.0,0.0,0.0,0.0,0.0,0.0,0.0,0.0,0.0,0.0,0.0,0.0
12.000148,-0.341843724251,0.825942397118,2.61645674706,1.05553686619,-0.500703454018,-0.720669090748,-1.56443667412,0.0182352941176,0.0,0.0,0.0,0.0,0.0,0.0,0.0,0.0,0.0,0.0,0.0,0.0,0.0,0.0,0.0
12.033500,-0.34214669466,0.827531218529,2.61645674706,1.05431747437,-0.500703454018,-0.720670819283,-1.56443667412,0.0182352941176,0.0,0.0,0.0,0.0,0.0,0.0,0.0,0.0,0.0,0.0,0.0,0.0,0.0,0.0,0.0
12.066800,-0.342596679926,0.828883707523,2.61645674706,1.05323338509,-0.500703454018,-0.720672547817,-1.56443667412,0.0182352941176,0.0,0.0,0.0,0.0,0.0,0.0,0.0,0.0,0.0,0.0,0.0,0.0,0.0,0.0,0.0
12.100137,-0.343233257532,0.830574929714,2.61645674706,1.05210077763,-0.500705480576,-0.720672547817,-1.56443667412,0.0182352941176,0.0,0.0,0.0,0.0,0.0,0.0,0.0,0.0,0.0,0.0,0.0,0.0,0.0,0.0,0.0
12.133489,-0.343693435192,0.83178293705,2.61645674706,1.05141818523,-0.500705480576,-0.720672547817,-1.56443667412,0.0182352941176,0.0,0.0,0.0,0.0,0.0,0.0,0.0,0.0,0.0,0.0,0.0,0.0,0.0,0.0,0.0
12.166923,-0.344175338745,0.833008885384,2.61645674706,1.0508698225,-0.500705480576,-0.720672547817,-1.56443667412,0.0182352941176,0.0,0.0,0.0,0.0,0.0,0.0,0.0,0.0,0.0,0.0,0.0,0.0,0.0,0.0,0.0
12.200129,-0.344866931438,0.834697604179,2.61645674706,1.0502512455,-0.500705480576,-0.720672547817,-1.56443667412,0.0182352941176,0.0,0.0,0.0,0.0,0.0,0.0,0.0,0.0,0.0,0.0,0.0,0.0,0.0,0.0,0.0
12.233537,-0.345426827669,0.835965514183,2.61645674706,1.04973983765,-0.500705480576,-0.720672547817,-1.56443667412,0.0182352941176,0.0,0.0,0.0,0.0,0.0,0.0,0.0,0.0,0.0,0.0,0.0,0.0,0.0,0.0,0.0
12.266819,-0.345977783203,0.837297618389,2.61645674706,1.04910445213,-0.500703454018,-0.720672547817,-1.56443667412,0.0182352941176,0.0,0.0,0.0,0.0,0.0,0.0,0.0,0.0,0.0,0.0,0.0,0.0,0.0,0.0,0.0
12.300141,-0.346679627895,0.839239418507,2.61645770073,1.04814577103,-0.500703454018,-0.720672547817,-1.56443667412,0.0182352941176,0.0,0.0,0.0,0.0,0.0,0.0,0.0,0.0,0.0,0.0,0.0,0.0,0.0,0.0,0.0
12.333567,-0.347138524055,0.84068518877,2.61645770073,1.04729056358,-0.500703454018,-0.720672547817,-1.56443667412,0.0182352941176,0.0,0.0,0.0,0.0,0.0,0.0,0.0,0.0,0.0,0.0,0.0,0.0,0.0,0.0,0.0
12.366832,-0.347459375858,0.84215515852,2.61645770073,1.04633438587,-0.500703454018,-0.720672547817,-1.56443667412,0.0182352941176,0.0,0.0,0.0,0.0,0.0,0.0,0.0,0.0,0.0,0.0,0.0,0.0,0.0,0.0,0.0
12.400164,-0.34771502018,0.844209551811,2.61645770073,1.04466748238,-0.500701367855,-0.720670819283,-1.56443667412,0.0182352941176,0.0,0.0,0.0,0.0,0.0,0.0,0.0,0.0,0.0,0.0,0.0,0.0,0.0,0.0,0.0
12.433490,-0.347828805447,0.84571659565,2.61645770073,1.04311048985,-0.500701367855,-0.720669090748,-1.56443321705,0.0182352941176,0.0,0.0,0.0,0.0,0.0,0.0,0.0,0.0,0.0,0.0,0.0,0.0,0.0,0.0,0.0
12.466849,-0.347887605429,0.847098469734,2.61645674706,1.04122877121,-0.500699341297,-0.720674216747,-1.56439435482,0.0182352941176,0.0,0.0,0.0,0.0,0.0,0.0,0.0,0.0,0.0,0.0,0.0,0.0,0.0,0.0,0.0
12.500142,-0.34806150198,0.848323106766,2.61641430855,1.03900325298,-0.500701367855,-0.72069978714,-1.56415212154,0.0182352941176,0.0,0.0,0.0,0.0,0.0,0.0,0.0,0.0,0.0,0.0,0.0,0.0,0.0,0.0,0.0
12.533502,-0.348193109035,0.848758935928,2.61631989479,1.03800237179,-0.500701367855,-0.720715105534,-1.56411123276,0.0182352941176,0.0,0.0,0.0,0.0,0.0,0.0,0.0,0.0,0.0,0.0,0.0,0.0,0.0,0.0,0.0
12.566818,-0.348203331232,0.848829329014,2.61630797386,1.03770697117,-0.500701367855,-0.720725417137,-1.56411981583,0.0182352941176,0.0,0.0,0.0,0.0,0.0,0.0,0.0,0.0,0.0,0.0,0.0,0.0,0.0,0.0,0.0
12.600126,-0.348203331232,0.848830580711,2.61630797386,1.03770315647,-0.500701367855,-0.720739066601,-1.56412482262,0.0182352941176,0.0,0.0,0.0,0.0,0.0,0.0,0.0,0.0,0.0,0.0,0.0,0.0,0.0,0.0,0.0
12.633494,-0.348264694214,0.848893165588,2.61630797386,1.03770565987,-0.500701367855,-0.720742404461,-1.56412827969,0.0182352941176,0.0,0.0,0.0,0.0,0.0,0.0,0.0,0.0,0.0,0.0,0.0,0.0,0.0,0.0,0.0
12.666840,-0.348301738501,0.848982810974,2.61630797386,1.03770446777,-0.500703454018,-0.720744073391,-1.56413006783,0.0182352941176,0.0,0.0,0.0,0.0,0.0,0.0,0.0,0.0,0.0,0.0,0.0,0.0,0.0,0.0,0.0
12.700168,-0.348386138678,0.849067151546,2.61630797386,1.03770446777,-0.500703454018,-0.720744073391,-1.56413507462,0.0182352941176,0.0,0.0,0.0,0.0,0.0,0.0,0.0,0.0,0.0,0.0,0.0,0.0,0.0,0.0,0.0
12.733468,-0.348379790783,0.849100291729,2.61631202698,1.03770184517,-0.500703454018,-0.720744073391,-1.56413674355,0.0182352941176,0.0,0.0,0.0,0.0,0.0,0.0,0.0,0.0,0.0,0.0,0.0,0.0,0.0,0.0,0.0
12.766789,-0.3483068645,0.849178254604,2.61631345749,1.03766989708,-0.500707507133,-0.720744073391,-1.56413841248,0.0182352941176,0.0,0.0,0.0,0.0,0.0,0.0,0.0,0.0,0.0,0.0,0.0,0.0,0.0,0.0,0.0
12.800116,-0.348090827465,0.849332928658,2.6163175106,1.03764569759,-0.500707507133,-0.720744073391,-1.5641399622,0.0182352941176,0.0,0.0,0.0,0.0,0.0,0.0,0.0,0.0,0.0,0.0,0.0,0.0,0.0,0.0,0.0
12.833481,-0.347877383232,0.849579691887,2.6163175106,1.03764438629,-0.500707507133,-0.720744073391,-1.5641399622,0.0182352941176,0.0,0.0,0.0,0.0,0.0,0.0,0.0,0.0,0.0,0.0,0.0,0.0,0.0,0.0,0.0
12.866855,-0.347883731127,0.849836587906,2.6163175106,1.03763532639,-0.500707507133,-0.720744073391,-1.5641399622,0.0182352941176,0.0,0.0,0.0,0.0,0.0,0.0,0.0,0.0,0.0,0.0,0.0,0.0,0.0,0.0,0.0
12.900147,-0.347973227501,0.850060284138,2.6163175106,1.03762900829,-0.500707507133,-0.720744073391,-1.5641399622,0.0182352941176,0.0,0.0,0.0,0.0,0.0,0.0,0.0,0.0,0.0,0.0,0.0,0.0,0.0,0.0,0.0
12.933490,-0.347968131304,0.850171625614,2.6163175106,1.0376175642,-0.500707507133,-0.720744073391,-1.5641399622,0.0182352941176,0.0,0.0,0.0,0.0,0.0,0.0,0.0,0.0,0.0,0.0,0.0,0.0,0.0,0.0,0.0
12.966807,-0.347940027714,0.850209891796,2.6163175106,1.03755366802,-0.500707507133,-0.720744073391,-1.56414198875,0.0182352941176,0.0,0.0,0.0,0.0,0.0,0.0,0.0,0.0,0.0,0.0,0.0,0.0,0.0,0.0,0.0
13.000140,-0.347931027412,0.850202262402,2.6163175106,1.03716111183,-0.500707507133,-0.720745801926,-1.56414198875,0.0182352941176,0.0,0.0,0.0,0.0,0.0,0.0,0.0,0.0,0.0,0.0,0.0,0.0,0.0,0.0,0.0
13.033521,-0.347932338715,0.850202262402,2.6163175106,1.03691709042,-0.500707507133,-0.72074919939,-1.56414198875,0.0182352941176,0.0,0.0,0.0,0.0,0.0,0.0,0.0,0.0,0.0,0.0,0.0,0.0,0.0,0.0,0.0
13.066812,-0.347932338715,0.850202262402,2.6163175106,1.03689527512,-0.500707507133,-0.720764517784,-1.56414198875,0.0182352941176,0.0,0.0,0.0,0.0,0.0,0.0,0.0,0.0,0.0,0.0,0.0,0.0,0.0,0.0,0.0
13.100132,-0.347904205322,0.850216329098,2.61633253098,1.03689527512,-0.500707507133,-0.720733880997,-1.56414198875,0.0182352941176,0.0,0.0,0.0,0.0,0.0,0.0,0.0,0.0,0.0,0.0,0.0,0.0,0.0,0.0,0.0
13.133497,-0.347904205322,0.850216329098,2.61633253098,1.03689527512,-0.500707507133,-0.720733880997,-1.56414198875,0.0182352941176,0.0,0.0,0.0,0.0,0.0,0.0,0.0,0.0,0.0,0.0,0.0,0.0,0.0,0.0,0.0
13.166793,-0.347904205322,0.850216329098,2.61633253098,1.03689527512,-0.500707507133,-0.720733880997,-1.56414198875,0.0182352941176,0.0,0.0,0.0,0.0,0.0,0.0,0.0,0.0,0.0,0.0,0.0,0.0,0.0,0.0,0.0
13.200163,-0.347904205322,0.850216329098,2.61633253098,1.03689527512,-0.500705480576,-0.720733880997,-1.56414198875,0.0182352941176,0.0,0.0,0.0,0.0,0.0,0.0,0.0,0.0,0.0,0.0,0.0,0.0,0.0,0.0,0.0
13.233504,-0.347904205322,0.850216329098,2.61633253098,1.03689527512,-0.500707507133,-0.720733880997,-1.56414198875,0.0182352941176,0.0,0.0,0.0,0.0,0.0,0.0,0.0,0.0,0.0,0.0,0.0,0.0,0.0,0.0,0.0
13.266817,-0.347904205322,0.850216329098,2.61633253098,1.03689527512,-0.500705480576,-0.720733880997,-1.56414198875,0.0182352941176,0.0,0.0,0.0,0.0,0.0,0.0,0.0,0.0,0.0,0.0,0.0,0.0,0.0,0.0,0.0
13.300114,-0.347904205322,0.850216329098,2.61633253098,1.03689527512,-0.500705480576,-0.720733880997,-1.56414198875,0.0182352941176,0.0,0.0,0.0,0.0,0.0,0.0,0.0,0.0,0.0,0.0,0.0,0.0,0.0,0.0,0.0
13.333485,-0.347904205322,0.850216329098,2.61633253098,1.03689527512,-0.500705480576,-0.720733880997,-1.56414198875,0.0182352941176,0.0,0.0,0.0,0.0,0.0,0.0,0.0,0.0,0.0,0.0,0.0,0.0,0.0,0.0,0.0
13.366839,-0.347904205322,0.850216329098,2.61633253098,1.03689527512,-0.500705480576,-0.720733880997,-1.56414198875,0.0182352941176,0.0,0.0,0.0,0.0,0.0,0.0,0.0,0.0,0.0,0.0,0.0,0.0,0.0,0.0,0.0
13.400185,-0.347904205322,0.850216329098,2.61633253098,1.03689527512,-0.500705480576,-0.720733880997,-1.56414198875,0.0182352941176,0.0,0.0,0.0,0.0,0.0,0.0,0.0,0.0,0.0,0.0,0.0,0.0,0.0,0.0,0.0
13.433488,-0.347904205322,0.850216329098,2.61633253098,1.03689527512,-0.500705480576,-0.720733880997,-1.56414198875,0.0182352941176,0.0,0.0,0.0,0.0,0.0,0.0,0.0,0.0,0.0,0.0,0.0,0.0,0.0,0.0,0.0
13.466833,-0.347904205322,0.850216329098,2.61633253098,1.03689527512,-0.500705480576,-0.720733880997,-1.56414198875,0.0182352941176,0.0,0.0,0.0,0.0,0.0,0.0,0.0,0.0,0.0,0.0,0.0,0.0,0.0,0.0,0.0
13.500148,-0.347904205322,0.850216329098,2.61633253098,1.03689527512,-0.500705480576,-0.720733880997,-1.56414198875,0.0182352941176,0.0,0.0,0.0,0.0,0.0,0.0,0.0,0.0,0.0,0.0,0.0,0.0,0.0,0.0,0.0
13.533498,-0.347904205322,0.850216329098,2.61633253098,1.03689527512,-0.500705480576,-0.720733880997,-1.56414198875,0.0182352941176,0.0,0.0,0.0,0.0,0.0,0.0,0.0,0.0,0.0,0.0,0.0,0.0,0.0,0.0,0.0
13.566816,-0.347904205322,0.850216329098,2.61633253098,1.03689527512,-0.500705480576,-0.720733880997,-1.56414198875,0.0182352941176,0.0,0.0,0.0,0.0,0.0,0.0,0.0,0.0,0.0,0.0,0.0,0.0,0.0,0.0,0.0
13.600139,-0.347904205322,0.850216329098,2.61633253098,1.03689527512,-0.500705480576,-0.720733880997,-1.56414198875,0.0182352941176,0.0,0.0,0.0,0.0,0.0,0.0,0.0,0.0,0.0,0.0,0.0,0.0,0.0,0.0,0.0
13.633469,-0.347904205322,0.850216329098,2.61633253098,1.03689527512,-0.500705480576,-0.720733880997,-1.56414198875,0.0182352941176,0.0,0.0,0.0,0.0,0.0,0.0,0.0,0.0,0.0,0.0,0.0,0.0,0.0,0.0,0.0
13.666797,-0.347904205322,0.850216329098,2.61633253098,1.03689527512,-0.500705480576,-0.720733880997,-1.56414198875,0.0182352941176,0.0,0.0,0.0,0.0,0.0,0.0,0.0,0.0,0.0,0.0,0.0,0.0,0.0,0.0,0.0
13.700133,-0.347904205322,0.850216329098,2.61633253098,1.03689527512,-0.500705480576,-0.720733880997,-1.56414198875,0.0182352941176,0.0,0.0,0.0,0.0,0.0,0.0,0.0,0.0,0.0,0.0,0.0,0.0,0.0,0.0,0.0
13.733508,-0.347904205322,0.850216329098,2.61633253098,1.03689527512,-0.500705480576,-0.720733880997,-1.56414198875,0.0182352941176,0.0,0.0,0.0,0.0,0.0,0.0,0.0,0.0,0.0,0.0,0.0,0.0,0.0,0.0,0.0
13.766821,-0.347904205322,0.850216329098,2.61633253098,1.03689527512,-0.500705480576,-0.720733880997,-1.56414198875,0.0182352941176,0.0,0.0,0.0,0.0,0.0,0.0,0.0,0.0,0.0,0.0,0.0,0.0,0.0,0.0,0.0
13.800134,-0.347904205322,0.850216329098,2.61633253098,1.03689527512,-0.500705480576,-0.720733880997,-1.56414198875,0.0182352941176,0.0,0.0,0.0,0.0,0.0,0.0,0.0,0.0,0.0,0.0,0.0,0.0,0.0,0.0,0.0
13.833472,-0.347904205322,0.850216329098,2.61633253098,1.03689527512,-0.500705480576,-0.720733880997,-1.56414198875,0.0182352941176,0.0,0.0,0.0,0.0,0.0,0.0,0.0,0.0,0.0,0.0,0.0,0.0,0.0,0.0,0.0
13.866805,-0.347904205322,0.850216329098,2.61633253098,1.03689527512,-0.500705480576,-0.720733880997,-1.56414198875,0.0182352941176,0.0,0.0,0.0,0.0,0.0,0.0,0.0,0.0,0.0,0.0,0.0,0.0,0.0,0.0,0.0
13.900171,-0.347904205322,0.850216329098,2.61633253098,1.03689527512,-0.500705480576,-0.720733880997,-1.56414198875,0.0182352941176,0.0,0.0,0.0,0.0,0.0,0.0,0.0,0.0,0.0,0.0,0.0,0.0,0.0,0.0,0.0
13.933496,-0.347904205322,0.850216329098,2.61633253098,1.03689527512,-0.500705480576,-0.720733880997,-1.56414198875,0.0182352941176,0.0,0.0,0.0,0.0,0.0,0.0,0.0,0.0,0.0,0.0,0.0,0.0,0.0,0.0,0.0
13.966863,-0.347904205322,0.850216329098,2.61633253098,1.03689527512,-0.500705480576,-0.720733880997,-1.56414198875,0.0182352941176,0.0,0.0,0.0,0.0,0.0,0.0,0.0,0.0,0.0,0.0,0.0,0.0,0.0,0.0,0.0
14.000138,-0.347904205322,0.850216329098,2.61633253098,1.03689527512,-0.500705480576,-0.720733880997,-1.56414198875,0.0182352941176,0.0,0.0,0.0,0.0,0.0,0.0,0.0,0.0,0.0,0.0,0.0,0.0,0.0,0.0,0.0
14.033503,-0.347904205322,0.850216329098,2.61633253098,1.03689527512,-0.500705480576,-0.720733880997,-1.56414198875,0.0182352941176,0.0,0.0,0.0,0.0,0.0,0.0,0.0,0.0,0.0,0.0,0.0,0.0,0.0,0.0,0.0
14.066827,-0.347904205322,0.850216329098,2.61633253098,1.03689527512,-0.500705480576,-0.720733880997,-1.56414198875,0.0182352941176,0.0,0.0,0.0,0.0,0.0,0.0,0.0,0.0,0.0,0.0,0.0,0.0,0.0,0.0,0.0
14.100144,-0.347904205322,0.850216329098,2.61633253098,1.03689527512,-0.500705480576,-0.720733880997,-1.56414198875,0.0182352941176,0.0,0.0,0.0,0.0,0.0,0.0,0.0,0.0,0.0,0.0,0.0,0.0,0.0,0.0,0.0
14.133609,-0.347904205322,0.850216329098,2.61633253098,1.03689527512,-0.500705480576,-0.720733880997,-1.56414198875,0.0202352941176,0.0,0.0,0.0,0.0,0.0,0.0,0.0,0.0,0.0,0.0,0.0,0.0,0.0,0.0,0.0
14.167019,-0.347904205322,0.850216329098,2.61633253098,1.03689527512,-0.500705480576,-0.720733880997,-1.56414198875,0.0364705882353,0.0,0.0,0.0,0.0,0.0,0.0,0.0,0.0,0.0,0.0,0.0,0.0,0.0,0.0,0.0
14.200159,-0.347904205322,0.850216329098,2.61633253098,1.03689527512,-0.500705480576,-0.720733880997,-1.56414198875,0.0598823529412,0.0,0.0,0.0,0.0,0.0,0.0,0.0,0.0,0.0,0.0,0.0,0.0,0.0,0.0,0.0
14.233524,-0.347904205322,0.850216329098,2.61633253098,1.03689527512,-0.500705480576,-0.720733880997,-1.56414198875,0.0784705882353,0.0,0.0,0.0,0.0,0.0,0.0,0.0,0.0,0.0,0.0,0.0,0.0,0.0,0.0,0.0
14.266809,-0.347904205322,0.850216329098,2.61633253098,1.03689527512,-0.500705480576,-0.720733880997,-1.56414198875,0.0968235294118,0.0,0.0,0.0,0.0,0.0,0.0,0.0,0.0,0.0,0.0,0.0,0.0,0.0,0.0,0.0
14.300164,-0.347904205322,0.850216329098,2.61633253098,1.03689527512,-0.500705480576,-0.720733880997,-1.56414198875,0.114823529412,0.0,0.0,0.0,0.0,0.0,0.0,0.0,0.0,0.0,0.0,0.0,0.0,0.0,0.0,0.0
14.333501,-0.347904205322,0.850216329098,2.61633253098,1.03689527512,-0.500705480576,-0.720733880997,-1.56414198875,0.137882352941,0.0,0.0,0.0,0.0,0.0,0.0,0.0,0.0,0.0,0.0,0.0,0.0,0.0,0.0,0.0
14.366791,-0.347904205322,0.850216329098,2.61633253098,1.03689527512,-0.500705480576,-0.720733880997,-1.56414198875,0.158352941176,0.0,0.0,0.0,0.0,0.0,0.0,0.0,0.0,0.0,0.0,0.0,0.0,0.0,0.0,0.0
14.400121,-0.347904205322,0.850216329098,2.61633253098,1.03689527512,-0.500705480576,-0.720733880997,-1.56414198875,0.181176470588,0.0,0.0,0.0,0.0,0.0,0.0,0.0,0.0,0.0,0.0,0.0,0.0,0.0,0.0,0.0
14.433517,-0.347904205322,0.850216329098,2.61633253098,1.03689527512,-0.500705480576,-0.720733880997,-1.56414198875,0.193647058824,0.0,0.0,0.0,0.0,0.0,0.0,0.0,0.0,0.0,0.0,0.0,0.0,0.0,0.0,0.0
14.466829,-0.347904205322,0.850216329098,2.61633253098,1.03689527512,-0.500705480576,-0.720733880997,-1.56414198875,0.214941176471,0.0,0.0,0.0,0.0,0.0,0.0,0.0,0.0,0.0,0.0,0.0,0.0,0.0,0.0,0.0
14.500143,-0.347904205322,0.850216329098,2.61633253098,1.03689527512,-0.500705480576,-0.720733880997,-1.56414198875,0.238235294118,0.0,0.0,0.0,0.0,0.0,0.0,0.0,0.0,0.0,0.0,0.0,0.0,0.0,0.0,0.0
14.533502,-0.347904205322,0.850216329098,2.61633253098,1.03689527512,-0.500705480576,-0.720733880997,-1.56414198875,0.257764705882,0.0,0.0,0.0,0.0,0.0,0.0,0.0,0.0,0.0,0.0,0.0,0.0,0.0,0.0,0.0
14.566795,-0.347904205322,0.850216329098,2.61633253098,1.03689527512,-0.500705480576,-0.720733880997,-1.56414198875,0.267764705882,0.0,0.0,0.0,0.0,0.0,0.0,0.0,0.0,0.0,0.0,0.0,0.0,0.0,0.0,0.0
14.600156,-0.347904205322,0.850216329098,2.61633253098,1.03689527512,-0.500705480576,-0.720733880997,-1.56414198875,0.297529411765,0.0,0.0,0.0,0.0,0.0,0.0,0.0,0.0,0.0,0.0,0.0,0.0,0.0,0.0,0.0
14.633474,-0.347904205322,0.850216329098,2.61633253098,1.03689527512,-0.500705480576,-0.720733880997,-1.56414198875,0.314117647059,0.0,0.0,0.0,0.0,0.0,0.0,0.0,0.0,0.0,0.0,0.0,0.0,0.0,0.0,0.0
14.666825,-0.347904205322,0.850216329098,2.61633253098,1.03689527512,-0.500705480576,-0.720733880997,-1.56414198875,0.331294117647,0.0,0.0,0.0,0.0,0.0,0.0,0.0,0.0,0.0,0.0,0.0,0.0,0.0,0.0,0.0
14.700156,-0.347904205322,0.850216329098,2.61633253098,1.03689527512,-0.500705480576,-0.720733880997,-1.56414198875,0.352941176471,0.0,0.0,0.0,0.0,0.0,0.0,0.0,0.0,0.0,0.0,0.0,0.0,0.0,0.0,0.0
14.733501,-0.347904205322,0.850216329098,2.61633253098,1.03689527512,-0.500705480576,-0.720733880997,-1.56414198875,0.371882352941,0.0,0.0,0.0,0.0,0.0,0.0,0.0,0.0,0.0,0.0,0.0,0.0,0.0,0.0,0.0
14.766809,-0.347904205322,0.850216329098,2.61633253098,1.03689527512,-0.500705480576,-0.720733880997,-1.56414198875,0.388588235294,0.0,0.0,0.0,0.0,0.0,0.0,0.0,0.0,0.0,0.0,0.0,0.0,0.0,0.0,0.0
14.800144,-0.347904205322,0.850216329098,2.61633253098,1.03689527512,-0.500705480576,-0.720733880997,-1.56414198875,0.410352941176,0.0,0.0,0.0,0.0,0.0,0.0,0.0,0.0,0.0,0.0,0.0,0.0,0.0,0.0,0.0
14.833567,-0.347904205322,0.850216329098,2.61633253098,1.03689527512,-0.500705480576,-0.720733880997,-1.56414198875,0.426823529412,0.0,0.0,0.0,0.0,0.0,0.0,0.0,0.0,0.0,0.0,0.0,0.0,0.0,0.0,0.0
14.866814,-0.347904205322,0.850216329098,2.61633253098,1.03689527512,-0.500705480576,-0.720733880997,-1.56414198875,0.443058823529,0.0,0.0,0.0,0.0,0.0,0.0,0.0,0.0,0.0,0.0,0.0,0.0,0.0,0.0,0.0
14.900115,-0.347904205322,0.850216329098,2.61633253098,1.03689527512,-0.500705480576,-0.720733880997,-1.56414198875,0.466470588235,0.0,0.0,0.0,0.0,0.0,0.0,0.0,0.0,0.0,0.0,0.0,0.0,0.0,0.0,0.0
14.933493,-0.347904205322,0.850216329098,2.61633253098,1.03689527512,-0.500705480576,-0.720733880997,-1.56414198875,0.481529411765,0.0,0.0,0.0,0.0,0.0,0.0,0.0,0.0,0.0,0.0,0.0,0.0,0.0,0.0,0.0
14.966803,-0.347904205322,0.850216329098,2.61633253098,1.03689527512,-0.500705480576,-0.720733880997,-1.56414198875,0.497294117647,0.0,0.0,0.0,0.0,0.0,0.0,0.0,0.0,0.0,0.0,0.0,0.0,0.0,0.0,0.0
15.000137,-0.347904205322,0.850216329098,2.61633253098,1.03689527512,-0.500705480576,-0.720733880997,-1.56414198875,0.513764705882,0.0,0.0,0.0,0.0,0.0,0.0,0.0,0.0,0.0,0.0,0.0,0.0,0.0,0.0,0.0
15.033484,-0.347904205322,0.850216329098,2.61633253098,1.03689527512,-0.500705480576,-0.720733880997,-1.56414198875,0.534823529412,0.0,0.0,0.0,0.0,0.0,0.0,0.0,0.0,0.0,0.0,0.0,0.0,0.0,0.0,0.0
15.066815,-0.347904205322,0.850216329098,2.61633253098,1.03689527512,-0.500705480576,-0.720733880997,-1.56414198875,0.550941176471,0.0,0.0,0.0,0.0,0.0,0.0,0.0,0.0,0.0,0.0,0.0,0.0,0.0,0.0,0.0
15.100125,-0.347904205322,0.850216329098,2.61633253098,1.03689527512,-0.500705480576,-0.720733880997,-1.56414198875,0.573411764706,0.0,0.0,0.0,0.0,0.0,0.0,0.0,0.0,0.0,0.0,0.0,0.0,0.0,0.0,0.0
15.133489,-0.347904205322,0.850216329098,2.61633253098,1.03689527512,-0.500705480576,-0.720733880997,-1.56414198875,0.589058823529,0.0,0.0,0.0,0.0,0.0,0.0,0.0,0.0,0.0,0.0,0.0,0.0,0.0,0.0,0.0
15.166806,-0.347904205322,0.850216329098,2.61633253098,1.03689527512,-0.500705480576,-0.720733880997,-1.56414198875,0.604823529412,0.0,0.0,0.0,0.0,0.0,0.0,0.0,0.0,0.0,0.0,0.0,0.0,0.0,0.0,0.0
15.200156,-0.347904205322,0.850216329098,2.61633253098,1.03689527512,-0.500705480576,-0.720733880997,-1.56414198875,0.624235294118,0.0,0.0,0.0,0.0,0.0,0.0,0.0,0.0,0.0,0.0,0.0,0.0,0.0,0.0,0.0
15.233503,-0.347904205322,0.850216329098,2.61633253098,1.03689527512,-0.500705480576,-0.720733880997,-1.56414198875,0.639294117647,0.0,0.0,0.0,0.0,0.0,0.0,0.0,0.0,0.0,0.0,0.0,0.0,0.0,0.0,0.0
15.266828,-0.347904205322,0.850216329098,2.61633253098,1.03689527512,-0.500705480576,-0.720733880997,-1.56414198875,0.656705882353,0.0,0.0,0.0,0.0,0.0,0.0,0.0,0.0,0.0,0.0,0.0,0.0,0.0,0.0,0.0
15.300127,-0.347904205322,0.850216329098,2.61633253098,1.03689527512,-0.500705480576,-0.720733880997,-1.56414198875,0.676235294118,0.0,0.0,0.0,0.0,0.0,0.0,0.0,0.0,0.0,0.0,0.0,0.0,0.0,0.0,0.0
15.333494,-0.347904205322,0.850216329098,2.61633253098,1.03689527512,-0.500705480576,-0.720733880997,-1.56414198875,0.691176470588,0.0,0.0,0.0,0.0,0.0,0.0,0.0,0.0,0.0,0.0,0.0,0.0,0.0,0.0,0.0
15.366815,-0.347904205322,0.850216329098,2.61633253098,1.03689527512,-0.500705480576,-0.720733880997,-1.56414198875,0.703764705882,0.0,0.0,0.0,0.0,0.0,0.0,0.0,0.0,0.0,0.0,0.0,0.0,0.0,0.0,0.0
15.400140,-0.347904205322,0.850216329098,2.61633253098,1.03689527512,-0.500705480576,-0.720733880997,-1.56414198875,0.723764705882,0.0,0.0,0.0,0.0,0.0,0.0,0.0,0.0,0.0,0.0,0.0,0.0,0.0,0.0,0.0
15.433475,-0.347904205322,0.850216329098,2.61633253098,1.03689527512,-0.500705480576,-0.720733880997,-1.56414198875,0.737058823529,0.0,0.0,0.0,0.0,0.0,0.0,0.0,0.0,0.0,0.0,0.0,0.0,0.0,0.0,0.0
15.466809,-0.347904205322,0.850216329098,2.61633253098,1.03689527512,-0.500705480576,-0.720733880997,-1.56414198875,0.750117647059,0.0,0.0,0.0,0.0,0.0,0.0,0.0,0.0,0.0,0.0,0.0,0.0,0.0,0.0,0.0
15.500160,-0.347904205322,0.850216329098,2.61633253098,1.03689527512,-0.500705480576,-0.720733880997,-1.56414198875,0.769294117647,0.0,0.0,0.0,0.0,0.0,0.0,0.0,0.0,0.0,0.0,0.0,0.0,0.0,0.0,0.0
15.533459,-0.347904205322,0.850216329098,2.61633253098,1.03689527512,-0.500707507133,-0.720733880997,-1.56414198875,0.780352941176,0.0,0.0,0.0,0.0,0.0,0.0,0.0,0.0,0.0,0.0,0.0,0.0,0.0,0.0,0.0
15.566844,-0.347904205322,0.850216329098,2.61633253098,1.03689527512,-0.500707507133,-0.720733880997,-1.56414198875,0.792352941176,0.0,0.0,0.0,0.0,0.0,0.0,0.0,0.0,0.0,0.0,0.0,0.0,0.0,0.0,0.0
15.600129,-0.347904205322,0.850216329098,2.61633253098,1.03689527512,-0.500707507133,-0.720733880997,-1.56414198875,0.808823529412,0.0,0.0,0.0,0.0,0.0,0.0,0.0,0.0,0.0,0.0,0.0,0.0,0.0,0.0,0.0
15.633525,-0.347904205322,0.850216329098,2.61633253098,1.03689527512,-0.500707507133,-0.720733880997,-1.56414198875,0.818117647059,0.0,0.0,0.0,0.0,0.0,0.0,0.0,0.0,0.0,0.0,0.0,0.0,0.0,0.0,0.0
15.666837,-0.347904205322,0.850216329098,2.61633253098,1.03689527512,-0.500707507133,-0.720733880997,-1.56414198875,0.828235294118,0.0,0.0,0.0,0.0,0.0,0.0,0.0,0.0,0.0,0.0,0.0,0.0,0.0,0.0,0.0
15.700173,-0.347904205322,0.850216329098,2.61633253098,1.03689527512,-0.500707507133,-0.720733880997,-1.56414198875,0.840470588235,0.0,0.0,0.0,0.0,0.0,0.0,0.0,0.0,0.0,0.0,0.0,0.0,0.0,0.0,0.0
15.733515,-0.347904205322,0.850216329098,2.61633253098,1.03689527512,-0.500705480576,-0.720733880997,-1.56414198875,0.848705882353,0.0,0.0,0.0,0.0,0.0,0.0,0.0,0.0,0.0,0.0,0.0,0.0,0.0,0.0,0.0
15.766793,-0.347904205322,0.850216329098,2.61633253098,1.03689527512,-0.500705480576,-0.720733880997,-1.56414198875,0.855294117647,0.0,0.0,0.0,0.0,0.0,0.0,0.0,0.0,0.0,0.0,0.0,0.0,0.0,0.0,0.0
15.800167,-0.347904205322,0.850216329098,2.61633253098,1.03689527512,-0.500705480576,-0.720733880997,-1.56414198875,0.861764705882,0.0,0.0,0.0,0.0,0.0,0.0,0.0,0.0,0.0,0.0,0.0,0.0,0.0,0.0,0.0
15.833511,-0.347904205322,0.850216329098,2.61633253098,1.03689527512,-0.500705480576,-0.720733880997,-1.56414198875,0.864588235294,0.0,0.0,0.0,0.0,0.0,0.0,0.0,0.0,0.0,0.0,0.0,0.0,0.0,0.0,0.0
15.866825,-0.347904205322,0.850216329098,2.61633253098,1.03689527512,-0.500705480576,-0.720733880997,-1.56414198875,0.868588235294,0.0,0.0,0.0,0.0,0.0,0.0,0.0,0.0,0.0,0.0,0.0,0.0,0.0,0.0,0.0
15.900186,-0.347904205322,0.850216329098,2.61633253098,1.03689527512,-0.500705480576,-0.720733880997,-1.56414198875,0.871411764706,0.0,0.0,0.0,0.0,0.0,0.0,0.0,0.0,0.0,0.0,0.0,0.0,0.0,0.0,0.0
15.933478,-0.347904205322,0.850216329098,2.61633253098,1.03689527512,-0.500705480576,-0.720733880997,-1.56414198875,0.873058823529,0.0,0.0,0.0,0.0,0.0,0.0,0.0,0.0,0.0,0.0,0.0,0.0,0.0,0.0,0.0
15.966802,-0.347904205322,0.850216329098,2.61633253098,1.03689527512,-0.500705480576,-0.720733880997,-1.56414198875,0.874470588235,0.0,0.0,0.0,0.0,0.0,0.0,0.0,0.0,0.0,0.0,0.0,0.0,0.0,0.0,0.0
16.000122,-0.347904205322,0.850216329098,2.61633253098,1.03689527512,-0.500705480576,-0.720733880997,-1.56414198875,0.875764705882,0.0,0.0,0.0,0.0,0.0,0.0,0.0,0.0,0.0,0.0,0.0,0.0,0.0,0.0,0.0
16.033502,-0.347904205322,0.850216329098,2.61633253098,1.03689527512,-0.500705480576,-0.720733880997,-1.56414198875,0.876705882353,0.0,0.0,0.0,0.0,0.0,0.0,0.0,0.0,0.0,0.0,0.0,0.0,0.0,0.0,0.0
16.066805,-0.347904205322,0.850216329098,2.61633253098,1.03689527512,-0.500705480576,-0.720733880997,-1.56414198875,0.877176470588,0.0,0.0,0.0,0.0,0.0,0.0,0.0,0.0,0.0,0.0,0.0,0.0,0.0,0.0,0.0
16.100211,-0.347904205322,0.850216329098,2.61633253098,1.03689527512,-0.500705480576,-0.720733880997,-1.56414198875,0.878,0.0,0.0,0.0,0.0,0.0,0.0,0.0,0.0,0.0,0.0,0.0,0.0,0.0,0.0,0.0
16.133486,-0.347904205322,0.850216329098,2.61633253098,1.03689527512,-0.500705480576,-0.720733880997,-1.56414198875,0.878352941176,0.0,0.0,0.0,0.0,0.0,0.0,0.0,0.0,0.0,0.0,0.0,0.0,0.0,0.0,0.0
16.166808,-0.347904205322,0.850216329098,2.61633253098,1.03689527512,-0.500705480576,-0.720733880997,-1.56414198875,0.878705882353,0.0,0.0,0.0,0.0,0.0,0.0,0.0,0.0,0.0,0.0,0.0,0.0,0.0,0.0,0.0
16.200169,-0.347904205322,0.850216329098,2.61633253098,1.03689527512,-0.500705480576,-0.720733880997,-1.56414198875,0.879058823529,0.0,0.0,0.0,0.0,0.0,0.0,0.0,0.0,0.0,0.0,0.0,0.0,0.0,0.0,0.0
16.233477,-0.347904205322,0.850216329098,2.61633253098,1.03689527512,-0.500705480576,-0.720733880997,-1.56414198875,0.879294117647,0.0,0.0,0.0,0.0,0.0,0.0,0.0,0.0,0.0,0.0,0.0,0.0,0.0,0.0,0.0
16.266815,-0.347904205322,0.850216329098,2.61633253098,1.03689527512,-0.500705480576,-0.720733880997,-1.56414198875,0.879294117647,0.0,0.0,0.0,0.0,0.0,0.0,0.0,0.0,0.0,0.0,0.0,0.0,0.0,0.0,0.0
16.300155,-0.347904205322,0.850216329098,2.61633253098,1.03689527512,-0.500705480576,-0.720733880997,-1.56414198875,0.879411764706,0.0,0.0,0.0,0.0,0.0,0.0,0.0,0.0,0.0,0.0,0.0,0.0,0.0,0.0,0.0
16.333502,-0.347904205322,0.850216329098,2.61633253098,1.03689527512,-0.500705480576,-0.720733880997,-1.56414198875,0.879647058824,0.0,0.0,0.0,0.0,0.0,0.0,0.0,0.0,0.0,0.0,0.0,0.0,0.0,0.0,0.0
16.366866,-0.347904205322,0.850216329098,2.61633253098,1.03689527512,-0.500705480576,-0.720733880997,-1.56414198875,0.879647058824,0.0,0.0,0.0,0.0,0.0,0.0,0.0,0.0,0.0,0.0,0.0,0.0,0.0,0.0,0.0
16.400121,-0.347904205322,0.850216329098,2.61633253098,1.03689527512,-0.500705480576,-0.720733880997,-1.56414198875,0.879764705882,0.0,0.0,0.0,0.0,0.0,0.0,0.0,0.0,0.0,0.0,0.0,0.0,0.0,0.0,0.0
16.433466,-0.347904205322,0.850216329098,2.61633253098,1.03689527512,-0.500705480576,-0.720733880997,-1.56414198875,0.88,0.0,0.0,0.0,0.0,0.0,0.0,0.0,0.0,0.0,0.0,0.0,0.0,0.0,0.0,0.0
16.466813,-0.347904205322,0.850216329098,2.61633253098,1.03689527512,-0.500705480576,-0.720733880997,-1.56414198875,0.88,0.0,0.0,0.0,0.0,0.0,0.0,0.0,0.0,0.0,0.0,0.0,0.0,0.0,0.0,0.0
16.500158,-0.347904205322,0.850216329098,2.61633253098,1.03689527512,-0.500705480576,-0.720733880997,-1.56414198875,0.88,0.0,0.0,0.0,0.0,0.0,0.0,0.0,0.0,0.0,0.0,0.0,0.0,0.0,0.0,0.0
16.533490,-0.347904205322,0.850216329098,2.61633253098,1.03689527512,-0.500705480576,-0.720733880997,-1.56414198875,0.88,0.0,0.0,0.0,0.0,0.0,0.0,0.0,0.0,0.0,0.0,0.0,0.0,0.0,0.0,0.0
16.566906,-0.347904205322,0.850216329098,2.61633253098,1.03689527512,-0.500705480576,-0.720733880997,-1.56414198875,0.88,0.0,0.0,0.0,0.0,0.0,0.0,0.0,0.0,0.0,0.0,0.0,0.0,0.0,0.0,0.0
16.600140,-0.347904205322,0.850216329098,2.61633253098,1.03689527512,-0.500705480576,-0.720733880997,-1.56414198875,0.880117647059,0.0,0.0,0.0,0.0,0.0,0.0,0.0,0.0,0.0,0.0,0.0,0.0,0.0,0.0,0.0
16.633553,-0.347904205322,0.850216329098,2.61633253098,1.03689527512,-0.500705480576,-0.720733880997,-1.56414198875,0.880235294118,0.0,0.0,0.0,0.0,0.0,0.0,0.0,0.0,0.0,0.0,0.0,0.0,0.0,0.0,0.0
16.666815,-0.347904205322,0.850216329098,2.61633253098,1.03689527512,-0.500705480576,-0.720733880997,-1.56414198875,0.880352941176,0.0,0.0,0.0,0.0,0.0,0.0,0.0,0.0,0.0,0.0,0.0,0.0,0.0,0.0,0.0
16.700212,-0.347904205322,0.850216329098,2.61633253098,1.03689527512,-0.500705480576,-0.720733880997,-1.56414198875,0.880352941176,0.0,0.0,0.0,0.0,0.0,0.0,0.0,0.0,0.0,0.0,0.0,0.0,0.0,0.0,0.0
16.733467,-0.347904205322,0.850216329098,2.61633253098,1.03689527512,-0.500705480576,-0.720733880997,-1.56414198875,0.880352941176,0.0,0.0,0.0,0.0,0.0,0.0,0.0,0.0,0.0,0.0,0.0,0.0,0.0,0.0,0.0
16.766793,-0.347904205322,0.850216329098,2.61633253098,1.03689527512,-0.500705480576,-0.720733880997,-1.56414198875,0.880352941176,0.0,0.0,0.0,0.0,0.0,0.0,0.0,0.0,0.0,0.0,0.0,0.0,0.0,0.0,0.0
16.800134,-0.347904205322,0.850216329098,2.61633253098,1.03689527512,-0.500705480576,-0.720733880997,-1.56414198875,0.880352941176,0.0,0.0,0.0,0.0,0.0,0.0,0.0,0.0,0.0,0.0,0.0,0.0,0.0,0.0,0.0
16.833478,-0.347904205322,0.850216329098,2.61633253098,1.03689527512,-0.500705480576,-0.720733880997,-1.56414198875,0.880352941176,0.0,0.0,0.0,0.0,0.0,0.0,0.0,0.0,0.0,0.0,0.0,0.0,0.0,0.0,0.0
16.866805,-0.347904205322,0.850216329098,2.61633253098,1.03689527512,-0.500705480576,-0.720733880997,-1.56414198875,0.880352941176,0.0,0.0,0.0,0.0,0.0,0.0,0.0,0.0,0.0,0.0,0.0,0.0,0.0,0.0,0.0
16.900135,-0.347904205322,0.850216329098,2.61633253098,1.03689527512,-0.500705480576,-0.720733880997,-1.56414198875,0.880352941176,0.0,0.0,0.0,0.0,0.0,0.0,0.0,0.0,0.0,0.0,0.0,0.0,0.0,0.0,0.0
16.933485,-0.347904205322,0.850216329098,2.61633253098,1.03689527512,-0.500705480576,-0.720733880997,-1.56414198875,0.880352941176,0.0,0.0,0.0,0.0,0.0,0.0,0.0,0.0,0.0,0.0,0.0,0.0,0.0,0.0,0.0
16.966805,-0.347904205322,0.850216329098,2.61633253098,1.03689527512,-0.500705480576,-0.720733880997,-1.56414198875,0.880352941176,0.0,0.0,0.0,0.0,0.0,0.0,0.0,0.0,0.0,0.0,0.0,0.0,0.0,0.0,0.0
17.000193,-0.347904205322,0.850216329098,2.61633253098,1.03689527512,-0.500705480576,-0.720733880997,-1.56414198875,0.880352941176,0.0,0.0,0.0,0.0,0.0,0.0,0.0,0.0,0.0,0.0,0.0,0.0,0.0,0.0,0.0
17.033480,-0.347904205322,0.850216329098,2.61633253098,1.03689527512,-0.500705480576,-0.720733880997,-1.56414198875,0.880352941176,0.0,0.0,0.0,0.0,0.0,0.0,0.0,0.0,0.0,0.0,0.0,0.0,0.0,0.0,0.0
17.066868,-0.347904205322,0.850216329098,2.61633253098,1.03689527512,-0.500705480576,-0.720733880997,-1.56414198875,0.880352941176,0.0,0.0,0.0,0.0,0.0,0.0,0.0,0.0,0.0,0.0,0.0,0.0,0.0,0.0,0.0
17.100126,-0.347904205322,0.850216329098,2.61633253098,1.03689527512,-0.500705480576,-0.720733880997,-1.56414198875,0.880352941176,0.0,0.0,0.0,0.0,0.0,0.0,0.0,0.0,0.0,0.0,0.0,0.0,0.0,0.0,0.0
17.133480,-0.347904205322,0.850216329098,2.61633253098,1.03689527512,-0.500705480576,-0.720733880997,-1.56414198875,0.880352941176,0.0,0.0,0.0,0.0,0.0,0.0,0.0,0.0,0.0,0.0,0.0,0.0,0.0,0.0,0.0
17.166794,-0.347904205322,0.850216329098,2.61633253098,1.03689527512,-0.500705480576,-0.720733880997,-1.56414198875,0.880352941176,0.0,0.0,0.0,0.0,0.0,0.0,0.0,0.0,0.0,0.0,0.0,0.0,0.0,0.0,0.0
17.200164,-0.347904205322,0.850216329098,2.61633253098,1.03689527512,-0.500705480576,-0.720733880997,-1.56414198875,0.880352941176,0.0,0.0,0.0,0.0,0.0,0.0,0.0,0.0,0.0,0.0,0.0,0.0,0.0,0.0,0.0
17.233499,-0.347904205322,0.850216329098,2.61633253098,1.03689527512,-0.500705480576,-0.720733880997,-1.56414198875,0.880352941176,0.0,0.0,0.0,0.0,0.0,0.0,0.0,0.0,0.0,0.0,0.0,0.0,0.0,0.0,0.0
17.266830,-0.347904205322,0.850216329098,2.61633253098,1.03689527512,-0.500705480576,-0.720733880997,-1.56414198875,0.880352941176,0.0,0.0,0.0,0.0,0.0,0.0,0.0,0.0,0.0,0.0,0.0,0.0,0.0,0.0,0.0
17.300149,-0.347904205322,0.850216329098,2.61633253098,1.03689527512,-0.500705480576,-0.720733880997,-1.56414198875,0.880352941176,0.0,0.0,0.0,0.0,0.0,0.0,0.0,0.0,0.0,0.0,0.0,0.0,0.0,0.0,0.0
17.333518,-0.347904205322,0.850216329098,2.61633253098,1.03689527512,-0.500705480576,-0.720733880997,-1.56414198875,0.880352941176,0.0,0.0,0.0,0.0,0.0,0.0,0.0,0.0,0.0,0.0,0.0,0.0,0.0,0.0,0.0
17.366841,-0.347904205322,0.850216329098,2.61633253098,1.03689527512,-0.500705480576,-0.720733880997,-1.56414198875,0.880352941176,0.0,0.0,0.0,0.0,0.0,0.0,0.0,0.0,0.0,0.0,0.0,0.0,0.0,0.0,0.0
17.400146,-0.347904205322,0.850216329098,2.61633253098,1.03689527512,-0.500705480576,-0.720733880997,-1.56414198875,0.880470588235,0.0,0.0,0.0,0.0,0.0,0.0,0.0,0.0,0.0,0.0,0.0,0.0,0.0,0.0,0.0
