IRLabUoB/boris-robot/boris_tools/scripts/contact_trajectories/ibkinor_trajectory.csv
time,left_arm_0_joint,left_arm_1_joint,left_arm_2_joint,left_arm_3_joint,left_arm_4_joint,left_arm_5_joint,left_arm_6_joint,left_hand_synergy_joint,right_arm_0_joint,right_arm_1_joint,right_arm_2_joint,right_arm_3_joint,right_arm_4_joint,right_arm_5_joint,right_arm_6_joint,right_hand_synergy_joint,head_neck_pitch_joint,head_neck_roll_joint,head_neck_yaw_joint,head_head_tilt_joint,head_eyes_tilt_joint,head_left_eye_joint,head_right_eye_joint
0.000089,-0.613686800003,0.997216403484,-1.26079273224,-0.642038583755,-2.29804563522,-1.60558331013,-2.35601019859,0.0655294117647,0.0,0.0,0.0,0.0,0.0,0.0,0.0,0.0,0.0,0.0,0.0,0.0,0.0,0.0,0.0
0.033462,-0.613686800003,0.997216403484,-1.26079273224,-0.642038583755,-2.29804563522,-1.60558331013,-2.35601019859,0.0655294117647,0.0,0.0,0.0,0.0,0.0,0.0,0.0,0.0,0.0,0.0,0.0,0.0,0.0,0.0,0.0
0.066784,-0.613686800003,0.997216403484,-1.26079273224,-0.642038583755,-2.29804563522,-1.60558331013,-2.35601019859,0.0655294117647,0.0,0.0,0.0,0.0,0.0,0.0,0.0,0.0,0.0,0.0,0.0,0.0,0.0,0.0,0.0
0.100093,-0.613686800003,0.997216403484,-1.26079273224,-0.642038583755,-2.29804563522,-1.60558331013,-2.35601019859,0.0655294117647,0.0,0.0,0.0,0.0,0.0,0.0,0.0,0.0,0.0,0.0,0.0,0.0,0.0,0.0,0.0
0.133427,-0.613686800003,0.997216403484,-1.26079273224,-0.642037332058,-2.29804563522,-1.60558331013,-2.35601019859,0.0655294117647,0.0,0.0,0.0,0.0,0.0,0.0,0.0,0.0,0.0,0.0,0.0,0.0,0.0,0.0,0.0
0.166769,-0.613686800003,0.997216403484,-1.26079273224,-0.642038583755,-2.29804563522,-1.60558331013,-2.35601019859,0.0655294117647,0.0,0.0,0.0,0.0,0.0,0.0,0.0,0.0,0.0,0.0,0.0,0.0,0.0,0.0,0.0
0.200096,-0.613686800003,0.997216403484,-1.26079273224,-0.642038583755,-2.29804563522,-1.60558331013,-2.35601019859,0.0655294117647,0.0,0.0,0.0,0.0,0.0,0.0,0.0,0.0,0.0,0.0,0.0,0.0,0.0,0.0,0.0
0.233439,-0.613685488701,0.997216403484,-1.26079273224,-0.642038583755,-2.29804563522,-1.60558331013,-2.35601019859,0.0655294117647,0.0,0.0,0.0,0.0,0.0,0.0,0.0,0.0,0.0,0.0,0.0,0.0,0.0,0.0,0.0
0.266760,-0.613686800003,0.997216403484,-1.26079273224,-0.642038583755,-2.29804563522,-1.60558331013,-2.35601019859,0.0655294117647,0.0,0.0,0.0,0.0,0.0,0.0,0.0,0.0,0.0,0.0,0.0,0.0,0.0,0.0,0.0
0.300091,-0.613686800003,0.997216403484,-1.26079273224,-0.642038583755,-2.29804563522,-1.60558331013,-2.35601019859,0.0655294117647,0.0,0.0,0.0,0.0,0.0,0.0,0.0,0.0,0.0,0.0,0.0,0.0,0.0,0.0,0.0
0.333423,-0.613686800003,0.997216403484,-1.26079273224,-0.642038583755,-2.29804563522,-1.60558331013,-2.35601019859,0.0655294117647,0.0,0.0,0.0,0.0,0.0,0.0,0.0,0.0,0.0,0.0,0.0,0.0,0.0,0.0,0.0
0.366757,-0.613686800003,0.997216403484,-1.26079273224,-0.642038583755,-2.29804563522,-1.60558331013,-2.35601019859,0.0655294117647,0.0,0.0,0.0,0.0,0.0,0.0,0.0,0.0,0.0,0.0,0.0,0.0,0.0,0.0,0.0
0.400092,-0.613686800003,0.997216403484,-1.26079273224,-0.642038583755,-2.29804563522,-1.60558331013,-2.35601019859,0.0655294117647,0.0,0.0,0.0,0.0,0.0,0.0,0.0,0.0,0.0,0.0,0.0,0.0,0.0,0.0,0.0
0.433427,-0.613686800003,0.997216403484,-1.26079273224,-0.642038583755,-2.29804563522,-1.60558331013,-2.35601019859,0.0655294117647,0.0,0.0,0.0,0.0,0.0,0.0,0.0,0.0,0.0,0.0,0.0,0.0,0.0,0.0,0.0
0.466764,-0.613686800003,0.997216403484,-1.26079273224,-0.642038583755,-2.29804563522,-1.60558331013,-2.35601019859,0.0655294117647,0.0,0.0,0.0,0.0,0.0,0.0,0.0,0.0,0.0,0.0,0.0,0.0,0.0,0.0,0.0
0.500091,-0.613686800003,0.997216403484,-1.26079273224,-0.642038583755,-2.29804563522,-1.60558331013,-2.35601019859,0.0655294117647,0.0,0.0,0.0,0.0,0.0,0.0,0.0,0.0,0.0,0.0,0.0,0.0,0.0,0.0,0.0
0.533439,-0.613686800003,0.997216403484,-1.26079273224,-0.642038583755,-2.29804563522,-1.60558331013,-2.35601019859,0.0655294117647,0.0,0.0,0.0,0.0,0.0,0.0,0.0,0.0,0.0,0.0,0.0,0.0,0.0,0.0,0.0
0.566767,-0.613686800003,0.997216403484,-1.26079273224,-0.642038583755,-2.29804563522,-1.60558331013,-2.35601019859,0.0655294117647,0.0,0.0,0.0,0.0,0.0,0.0,0.0,0.0,0.0,0.0,0.0,0.0,0.0,0.0,0.0
0.600098,-0.613686800003,0.997216403484,-1.26079273224,-0.642038583755,-2.29804563522,-1.60558331013,-2.35601019859,0.0655294117647,0.0,0.0,0.0,0.0,0.0,0.0,0.0,0.0,0.0,0.0,0.0,0.0,0.0,0.0,0.0
0.633426,-0.613686800003,0.997216403484,-1.26079273224,-0.642038583755,-2.29804563522,-1.60558331013,-2.35601019859,0.0655294117647,0.0,0.0,0.0,0.0,0.0,0.0,0.0,0.0,0.0,0.0,0.0,0.0,0.0,0.0,0.0
0.666785,-0.613685488701,0.997216403484,-1.26079273224,-0.642038583755,-2.29804563522,-1.60558331013,-2.35601019859,0.0655294117647,0.0,0.0,0.0,0.0,0.0,0.0,0.0,0.0,0.0,0.0,0.0,0.0,0.0,0.0,0.0
0.700099,-0.613686800003,0.997216403484,-1.26079273224,-0.642038583755,-2.29804563522,-1.60558331013,-2.35601019859,0.0655294117647,0.0,0.0,0.0,0.0,0.0,0.0,0.0,0.0,0.0,0.0,0.0,0.0,0.0,0.0,0.0
0.733430,-0.613686800003,0.997216403484,-1.26079273224,-0.642038583755,-2.29804563522,-1.60558331013,-2.35601019859,0.0655294117647,0.0,0.0,0.0,0.0,0.0,0.0,0.0,0.0,0.0,0.0,0.0,0.0,0.0,0.0,0.0
0.766761,-0.613686800003,0.997216403484,-1.26079273224,-0.642038583755,-2.29804563522,-1.60558331013,-2.35601019859,0.0655294117647,0.0,0.0,0.0,0.0,0.0,0.0,0.0,0.0,0.0,0.0,0.0,0.0,0.0,0.0,0.0
0.800104,-0.613686800003,0.997216403484,-1.26079273224,-0.642038583755,-2.29804563522,-1.60558331013,-2.35601019859,0.0655294117647,0.0,0.0,0.0,0.0,0.0,0.0,0.0,0.0,0.0,0.0,0.0,0.0,0.0,0.0,0.0
0.833432,-0.613685488701,0.997216403484,-1.26079273224,-0.642038583755,-2.29804563522,-1.60558331013,-2.35601019859,0.0655294117647,0.0,0.0,0.0,0.0,0.0,0.0,0.0,0.0,0.0,0.0,0.0,0.0,0.0,0.0,0.0
0.866760,-0.613686800003,0.997216403484,-1.26079273224,-0.642038583755,-2.29804563522,-1.60558331013,-2.35601019859,0.0655294117647,0.0,0.0,0.0,0.0,0.0,0.0,0.0,0.0,0.0,0.0,0.0,0.0,0.0,0.0,0.0
0.900092,-0.613686800003,0.997216403484,-1.26079273224,-0.642038583755,-2.29804563522,-1.60558331013,-2.35601019859,0.0655294117647,0.0,0.0,0.0,0.0,0.0,0.0,0.0,0.0,0.0,0.0,0.0,0.0,0.0,0.0,0.0
0.933432,-0.613686800003,0.997216403484,-1.26079273224,-0.642038583755,-2.29804563522,-1.60558331013,-2.35601019859,0.0655294117647,0.0,0.0,0.0,0.0,0.0,0.0,0.0,0.0,0.0,0.0,0.0,0.0,0.0,0.0,0.0
0.966760,-0.613686800003,0.997216403484,-1.26079273224,-0.642038583755,-2.29804563522,-1.60558331013,-2.35601019859,0.0655294117647,0.0,0.0,0.0,0.0,0.0,0.0,0.0,0.0,0.0,0.0,0.0,0.0,0.0,0.0,0.0
1.000097,-0.613686800003,0.997216403484,-1.26079273224,-0.642037332058,-2.29804563522,-1.60558331013,-2.35601019859,0.0655294117647,0.0,0.0,0.0,0.0,0.0,0.0,0.0,0.0,0.0,0.0,0.0,0.0,0.0,0.0,0.0
1.033428,-0.613686800003,0.997216403484,-1.26079273224,-0.642038583755,-2.29804563522,-1.60558331013,-2.35601019859,0.0655294117647,0.0,0.0,0.0,0.0,0.0,0.0,0.0,0.0,0.0,0.0,0.0,0.0,0.0,0.0,0.0
1.066773,-0.613686800003,0.997216403484,-1.26079273224,-0.642038583755,-2.29804563522,-1.60558331013,-2.35601019859,0.0655294117647,0.0,0.0,0.0,0.0,0.0,0.0,0.0,0.0,0.0,0.0,0.0,0.0,0.0,0.0,0.0
1.100095,-0.613686800003,0.997216403484,-1.26079273224,-0.642038583755,-2.29804563522,-1.60558331013,-2.35601019859,0.0655294117647,0.0,0.0,0.0,0.0,0.0,0.0,0.0,0.0,0.0,0.0,0.0,0.0,0.0,0.0,0.0
1.133433,-0.613686800003,0.997216403484,-1.26079273224,-0.642038583755,-2.29804563522,-1.60558331013,-2.35601019859,0.0655294117647,0.0,0.0,0.0,0.0,0.0,0.0,0.0,0.0,0.0,0.0,0.0,0.0,0.0,0.0,0.0
1.166764,-0.613686800003,0.997216403484,-1.26079273224,-0.642038583755,-2.29804563522,-1.60558331013,-2.35601019859,0.0655294117647,0.0,0.0,0.0,0.0,0.0,0.0,0.0,0.0,0.0,0.0,0.0,0.0,0.0,0.0,0.0
1.200121,-0.613686800003,0.997216403484,-1.26079273224,-0.642038583755,-2.29804563522,-1.60558331013,-2.35601019859,0.0655294117647,0.0,0.0,0.0,0.0,0.0,0.0,0.0,0.0,0.0,0.0,0.0,0.0,0.0,0.0,0.0
1.233430,-0.613686800003,0.997216403484,-1.26079273224,-0.642038583755,-2.29804563522,-1.60558331013,-2.35601019859,0.0655294117647,0.0,0.0,0.0,0.0,0.0,0.0,0.0,0.0,0.0,0.0,0.0,0.0,0.0,0.0,0.0
1.266763,-0.613686800003,0.997216403484,-1.26079273224,-0.642038583755,-2.29804563522,-1.60558331013,-2.35601019859,0.0655294117647,0.0,0.0,0.0,0.0,0.0,0.0,0.0,0.0,0.0,0.0,0.0,0.0,0.0,0.0,0.0
1.300094,-0.613686800003,0.997216403484,-1.26079273224,-0.642038583755,-2.29804563522,-1.60558331013,-2.35601019859,0.0655294117647,0.0,0.0,0.0,0.0,0.0,0.0,0.0,0.0,0.0,0.0,0.0,0.0,0.0,0.0,0.0
1.333441,-0.613686800003,0.997216403484,-1.26079273224,-0.642038583755,-2.29804563522,-1.60558331013,-2.35601019859,0.0655294117647,0.0,0.0,0.0,0.0,0.0,0.0,0.0,0.0,0.0,0.0,0.0,0.0,0.0,0.0,0.0
1.366769,-0.613686800003,0.997216403484,-1.26079273224,-0.642038583755,-2.29804563522,-1.60558331013,-2.35601019859,0.0655294117647,0.0,0.0,0.0,0.0,0.0,0.0,0.0,0.0,0.0,0.0,0.0,0.0,0.0,0.0,0.0
1.400114,-0.613686800003,0.997216403484,-1.26079273224,-0.642038583755,-2.29804563522,-1.60558331013,-2.35601019859,0.0655294117647,0.0,0.0,0.0,0.0,0.0,0.0,0.0,0.0,0.0,0.0,0.0,0.0,0.0,0.0,0.0
1.433439,-0.613686800003,0.997216403484,-1.26079273224,-0.642038583755,-2.29804563522,-1.60558331013,-2.35601019859,0.0655294117647,0.0,0.0,0.0,0.0,0.0,0.0,0.0,0.0,0.0,0.0,0.0,0.0,0.0,0.0,0.0
1.466762,-0.613686800003,0.997216403484,-1.26079273224,-0.642038583755,-2.29804563522,-1.60558331013,-2.35601019859,0.0655294117647,0.0,0.0,0.0,0.0,0.0,0.0,0.0,0.0,0.0,0.0,0.0,0.0,0.0,0.0,0.0
1.500093,-0.613686800003,0.997216403484,-1.26079273224,-0.642038583755,-2.29804563522,-1.60558331013,-2.35601019859,0.0655294117647,0.0,0.0,0.0,0.0,0.0,0.0,0.0,0.0,0.0,0.0,0.0,0.0,0.0,0.0,0.0
1.533449,-0.613686800003,0.997216403484,-1.26079273224,-0.642038583755,-2.29804563522,-1.60558331013,-2.35601019859,0.0655294117647,0.0,0.0,0.0,0.0,0.0,0.0,0.0,0.0,0.0,0.0,0.0,0.0,0.0,0.0,0.0
1.566762,-0.613686800003,0.997216403484,-1.26079273224,-0.642038583755,-2.29804563522,-1.60558331013,-2.35601019859,0.0655294117647,0.0,0.0,0.0,0.0,0.0,0.0,0.0,0.0,0.0,0.0,0.0,0.0,0.0,0.0,0.0
1.600094,-0.613686800003,0.997216403484,-1.26079273224,-0.642038583755,-2.29804563522,-1.60558331013,-2.35601019859,0.0655294117647,0.0,0.0,0.0,0.0,0.0,0.0,0.0,0.0,0.0,0.0,0.0,0.0,0.0,0.0,0.0
1.633425,-0.613686800003,0.997216403484,-1.26079273224,-0.642038583755,-2.29804563522,-1.60558331013,-2.35601019859,0.0655294117647,0.0,0.0,0.0,0.0,0.0,0.0,0.0,0.0,0.0,0.0,0.0,0.0,0.0,0.0,0.0
1.666757,-0.613685488701,0.997216403484,-1.26079273224,-0.642038583755,-2.29804563522,-1.60558331013,-2.35601019859,0.0655294117647,0.0,0.0,0.0,0.0,0.0,0.0,0.0,0.0,0.0,0.0,0.0,0.0,0.0,0.0,0.0
1.700054,-0.613686800003,0.997216403484,-1.26079273224,-0.642038583755,-2.29804563522,-1.60558331013,-2.35601019859,0.0655294117647,0.0,0.0,0.0,0.0,0.0,0.0,0.0,0.0,0.0,0.0,0.0,0.0,0.0,0.0,0.0
1.733428,-0.613686800003,0.997216403484,-1.26079273224,-0.642038583755,-2.29804563522,-1.60558331013,-2.35601019859,0.0655294117647,0.0,0.0,0.0,0.0,0.0,0.0,0.0,0.0,0.0,0.0,0.0,0.0,0.0,0.0,0.0
1.766761,-0.613686800003,0.997216403484,-1.26079273224,-0.642038583755,-2.29804563522,-1.60558331013,-2.35601019859,0.0655294117647,0.0,0.0,0.0,0.0,0.0,0.0,0.0,0.0,0.0,0.0,0.0,0.0,0.0,0.0,0.0
1.800092,-0.613686800003,0.997216403484,-1.26079273224,-0.642038583755,-2.29804563522,-1.60558331013,-2.35601019859,0.0655294117647,0.0,0.0,0.0,0.0,0.0,0.0,0.0,0.0,0.0,0.0,0.0,0.0,0.0,0.0,0.0
1.833424,-0.613686800003,0.997216403484,-1.26079273224,-0.642038583755,-2.29804563522,-1.60558331013,-2.35601019859,0.0655294117647,0.0,0.0,0.0,0.0,0.0,0.0,0.0,0.0,0.0,0.0,0.0,0.0,0.0,0.0,0.0
1.866765,-0.613686800003,0.997216403484,-1.26079273224,-0.642037332058,-2.29804563522,-1.60558331013,-2.35601019859,0.0655294117647,0.0,0.0,0.0,0.0,0.0,0.0,0.0,0.0,0.0,0.0,0.0,0.0,0.0,0.0,0.0
1.900099,-0.613686800003,0.997216403484,-1.26079273224,-0.642038583755,-2.29804563522,-1.60558331013,-2.35601019859,0.0655294117647,0.0,0.0,0.0,0.0,0.0,0.0,0.0,0.0,0.0,0.0,0.0,0.0,0.0,0.0,0.0
1.933433,-0.613686800003,0.997216403484,-1.26079273224,-0.642038583755,-2.29804563522,-1.60558331013,-2.35601019859,0.0655294117647,0.0,0.0,0.0,0.0,0.0,0.0,0.0,0.0,0.0,0.0,0.0,0.0,0.0,0.0,0.0
1.966780,-0.613686800003,0.997216403484,-1.26079273224,-0.642038583755,-2.29804563522,-1.60558331013,-2.35601019859,0.0655294117647,0.0,0.0,0.0,0.0,0.0,0.0,0.0,0.0,0.0,0.0,0.0,0.0,0.0,0.0,0.0
2.000109,-0.613686800003,0.997216403484,-1.26079273224,-0.642038583755,-2.29804563522,-1.60558331013,-2.35601019859,0.0655294117647,0.0,0.0,0.0,0.0,0.0,0.0,0.0,0.0,0.0,0.0,0.0,0.0,0.0,0.0,0.0
2.033441,-0.613686800003,0.997216403484,-1.26079273224,-0.642038583755,-2.29804563522,-1.60558331013,-2.35601019859,0.0655294117647,0.0,0.0,0.0,0.0,0.0,0.0,0.0,0.0,0.0,0.0,0.0,0.0,0.0,0.0,0.0
2.066775,-0.613686800003,0.997216403484,-1.26079273224,-0.642038583755,-2.29804563522,-1.60558331013,-2.35601019859,0.0655294117647,0.0,0.0,0.0,0.0,0.0,0.0,0.0,0.0,0.0,0.0,0.0,0.0,0.0,0.0,0.0
2.100100,-0.613686800003,0.997216403484,-1.26079273224,-0.642038583755,-2.29804563522,-1.60558331013,-2.35601019859,0.0655294117647,0.0,0.0,0.0,0.0,0.0,0.0,0.0,0.0,0.0,0.0,0.0,0.0,0.0,0.0,0.0
2.133428,-0.613685488701,0.997216403484,-1.26079273224,-0.642038583755,-2.29804563522,-1.60558331013,-2.35601019859,0.0655294117647,0.0,0.0,0.0,0.0,0.0,0.0,0.0,0.0,0.0,0.0,0.0,0.0,0.0,0.0,0.0
2.166725,-0.613686800003,0.997216403484,-1.26079273224,-0.642038583755,-2.29804563522,-1.60558331013,-2.35601019859,0.0655294117647,0.0,0.0,0.0,0.0,0.0,0.0,0.0,0.0,0.0,0.0,0.0,0.0,0.0,0.0,0.0
2.200099,-0.613685488701,0.997216403484,-1.26079273224,-0.642038583755,-2.29804563522,-1.60558331013,-2.35601019859,0.0655294117647,0.0,0.0,0.0,0.0,0.0,0.0,0.0,0.0,0.0,0.0,0.0,0.0,0.0,0.0,0.0
2.233447,-0.613686800003,0.997216403484,-1.26079273224,-0.642038583755,-2.29804563522,-1.60558331013,-2.35601019859,0.0655294117647,0.0,0.0,0.0,0.0,0.0,0.0,0.0,0.0,0.0,0.0,0.0,0.0,0.0,0.0,0.0
2.266760,-0.613686800003,0.997216403484,-1.26079273224,-0.642038583755,-2.29804563522,-1.60558331013,-2.35601019859,0.0655294117647,0.0,0.0,0.0,0.0,0.0,0.0,0.0,0.0,0.0,0.0,0.0,0.0,0.0,0.0,0.0
2.300092,-0.613686800003,0.997216403484,-1.26079273224,-0.642037332058,-2.29804563522,-1.60558331013,-2.35601019859,0.0655294117647,0.0,0.0,0.0,0.0,0.0,0.0,0.0,0.0,0.0,0.0,0.0,0.0,0.0,0.0,0.0
2.333426,-0.613686800003,0.997216403484,-1.26079273224,-0.642038583755,-2.29804563522,-1.60558331013,-2.35601019859,0.0655294117647,0.0,0.0,0.0,0.0,0.0,0.0,0.0,0.0,0.0,0.0,0.0,0.0,0.0,0.0,0.0
2.366784,-0.613686800003,0.997216403484,-1.26079273224,-0.642038583755,-2.29804563522,-1.60558331013,-2.35601019859,0.0655294117647,0.0,0.0,0.0,0.0,0.0,0.0,0.0,0.0,0.0,0.0,0.0,0.0,0.0,0.0,0.0
2.400117,-0.613686800003,0.997216403484,-1.26079273224,-0.642038583755,-2.29804563522,-1.60558331013,-2.35601019859,0.0655294117647,0.0,0.0,0.0,0.0,0.0,0.0,0.0,0.0,0.0,0.0,0.0,0.0,0.0,0.0,0.0
2.433429,-0.613686800003,0.997216403484,-1.26079273224,-0.642038583755,-2.29804563522,-1.60558331013,-2.35601019859,0.0655294117647,0.0,0.0,0.0,0.0,0.0,0.0,0.0,0.0,0.0,0.0,0.0,0.0,0.0,0.0,0.0
2.466770,-0.613686800003,0.997216403484,-1.26079273224,-0.642038583755,-2.29804563522,-1.60558331013,-2.35601019859,0.0655294117647,0.0,0.0,0.0,0.0,0.0,0.0,0.0,0.0,0.0,0.0,0.0,0.0,0.0,0.0,0.0
2.500095,-0.613686800003,0.997216403484,-1.26079273224,-0.642038583755,-2.29804563522,-1.60558331013,-2.35601019859,0.0655294117647,0.0,0.0,0.0,0.0,0.0,0.0,0.0,0.0,0.0,0.0,0.0,0.0,0.0,0.0,0.0
2.533431,-0.613686800003,0.997216403484,-1.26079273224,-0.642038583755,-2.29804563522,-1.60558331013,-2.35601019859,0.0655294117647,0.0,0.0,0.0,0.0,0.0,0.0,0.0,0.0,0.0,0.0,0.0,0.0,0.0,0.0,0.0
2.566772,-0.613686800003,0.997216403484,-1.26079273224,-0.642038583755,-2.29804563522,-1.60558331013,-2.35601019859,0.0655294117647,0.0,0.0,0.0,0.0,0.0,0.0,0.0,0.0,0.0,0.0,0.0,0.0,0.0,0.0,0.0
2.600094,-0.613686800003,0.997216403484,-1.26079273224,-0.642038583755,-2.29804563522,-1.60558331013,-2.35601019859,0.0655294117647,0.0,0.0,0.0,0.0,0.0,0.0,0.0,0.0,0.0,0.0,0.0,0.0,0.0,0.0,0.0
2.633449,-0.613686800003,0.997216403484,-1.26079273224,-0.642038583755,-2.29804563522,-1.60558331013,-2.35601019859,0.0655294117647,0.0,0.0,0.0,0.0,0.0,0.0,0.0,0.0,0.0,0.0,0.0,0.0,0.0,0.0,0.0
2.666759,-0.613686800003,0.997216403484,-1.26079273224,-0.642038583755,-2.29804563522,-1.60558331013,-2.35601019859,0.0655294117647,0.0,0.0,0.0,0.0,0.0,0.0,0.0,0.0,0.0,0.0,0.0,0.0,0.0,0.0,0.0
2.700097,-0.613686800003,0.997216403484,-1.26079273224,-0.642038583755,-2.29804563522,-1.60558331013,-2.35601019859,0.0655294117647,0.0,0.0,0.0,0.0,0.0,0.0,0.0,0.0,0.0,0.0,0.0,0.0,0.0,0.0,0.0
2.733430,-0.613686800003,0.997216403484,-1.26079273224,-0.642038583755,-2.29804563522,-1.60558331013,-2.35601019859,0.0655294117647,0.0,0.0,0.0,0.0,0.0,0.0,0.0,0.0,0.0,0.0,0.0,0.0,0.0,0.0,0.0
2.766763,-0.613686800003,0.997216403484,-1.26079273224,-0.642038583755,-2.29804563522,-1.60558331013,-2.35601019859,0.0655294117647,0.0,0.0,0.0,0.0,0.0,0.0,0.0,0.0,0.0,0.0,0.0,0.0,0.0,0.0,0.0
2.800096,-0.613685488701,0.997216403484,-1.26079273224,-0.642038583755,-2.29804563522,-1.60558331013,-2.35601019859,0.0655294117647,0.0,0.0,0.0,0.0,0.0,0.0,0.0,0.0,0.0,0.0,0.0,0.0,0.0,0.0,0.0
2.833429,-0.613686800003,0.997216403484,-1.26079273224,-0.642038583755,-2.29804563522,-1.60558331013,-2.35601019859,0.0655294117647,0.0,0.0,0.0,0.0,0.0,0.0,0.0,0.0,0.0,0.0,0.0,0.0,0.0,0.0,0.0
2.866768,-0.613685488701,0.997216403484,-1.26079273224,-0.642038583755,-2.29804563522,-1.60558331013,-2.35601019859,0.0655294117647,0.0,0.0,0.0,0.0,0.0,0.0,0.0,0.0,0.0,0.0,0.0,0.0,0.0,0.0,0.0
2.900095,-0.613686800003,0.997216403484,-1.26079273224,-0.642038583755,-2.29804563522,-1.60558331013,-2.35601019859,0.0655294117647,0.0,0.0,0.0,0.0,0.0,0.0,0.0,0.0,0.0,0.0,0.0,0.0,0.0,0.0,0.0
2.933425,-0.613686800003,0.997216403484,-1.26079273224,-0.642038583755,-2.29804563522,-1.60558331013,-2.35601019859,0.0655294117647,0.0,0.0,0.0,0.0,0.0,0.0,0.0,0.0,0.0,0.0,0.0,0.0,0.0,0.0,0.0
2.966759,-0.613686800003,0.997216403484,-1.26079273224,-0.642038583755,-2.29804563522,-1.60558331013,-2.35601019859,0.0655294117647,0.0,0.0,0.0,0.0,0.0,0.0,0.0,0.0,0.0,0.0,0.0,0.0,0.0,0.0,0.0
3.000106,-0.613686800003,0.997216403484,-1.26079273224,-0.642038583755,-2.29804563522,-1.60558331013,-2.35601019859,0.0655294117647,0.0,0.0,0.0,0.0,0.0,0.0,0.0,0.0,0.0,0.0,0.0,0.0,0.0,0.0,0.0
3.033434,-0.613686800003,0.997216403484,-1.26079273224,-0.642038583755,-2.29804563522,-1.60558331013,-2.35601019859,0.0655294117647,0.0,0.0,0.0,0.0,0.0,0.0,0.0,0.0,0.0,0.0,0.0,0.0,0.0,0.0,0.0
3.066771,-0.613685488701,0.997216403484,-1.26079273224,-0.642037332058,-2.29804563522,-1.60558331013,-2.35601019859,0.0655294117647,0.0,0.0,0.0,0.0,0.0,0.0,0.0,0.0,0.0,0.0,0.0,0.0,0.0,0.0,0.0
3.100084,-0.613686800003,0.997216403484,-1.26079273224,-0.642037332058,-2.29804563522,-1.60558331013,-2.35601019859,0.0655294117647,0.0,0.0,0.0,0.0,0.0,0.0,0.0,0.0,0.0,0.0,0.0,0.0,0.0,0.0,0.0
3.133431,-0.613686800003,0.997216403484,-1.26079273224,-0.642038583755,-2.29804563522,-1.60558331013,-2.35601019859,0.0655294117647,0.0,0.0,0.0,0.0,0.0,0.0,0.0,0.0,0.0,0.0,0.0,0.0,0.0,0.0,0.0
3.166757,-0.613686800003,0.997216403484,-1.26079273224,-0.642038583755,-2.29804563522,-1.60558331013,-2.35601019859,0.0655294117647,0.0,0.0,0.0,0.0,0.0,0.0,0.0,0.0,0.0,0.0,0.0,0.0,0.0,0.0,0.0
3.200106,-0.613685488701,0.997216403484,-1.26079273224,-0.642038583755,-2.29804563522,-1.60558331013,-2.35601019859,0.0655294117647,0.0,0.0,0.0,0.0,0.0,0.0,0.0,0.0,0.0,0.0,0.0,0.0,0.0,0.0,0.0
3.233431,-0.613685488701,0.997216403484,-1.26079273224,-0.642038583755,-2.29804563522,-1.60558331013,-2.35601019859,0.0655294117647,0.0,0.0,0.0,0.0,0.0,0.0,0.0,0.0,0.0,0.0,0.0,0.0,0.0,0.0,0.0
3.266764,-0.613686800003,0.997216403484,-1.26079273224,-0.642038583755,-2.29804563522,-1.60558331013,-2.35601019859,0.0655294117647,0.0,0.0,0.0,0.0,0.0,0.0,0.0,0.0,0.0,0.0,0.0,0.0,0.0,0.0,0.0
3.300094,-0.613686800003,0.997216403484,-1.26079273224,-0.642038583755,-2.29804563522,-1.60558331013,-2.35601019859,0.0655294117647,0.0,0.0,0.0,0.0,0.0,0.0,0.0,0.0,0.0,0.0,0.0,0.0,0.0,0.0,0.0
3.333435,-0.613686800003,0.997216403484,-1.26079273224,-0.642038583755,-2.29804563522,-1.60558331013,-2.35601019859,0.0655294117647,0.0,0.0,0.0,0.0,0.0,0.0,0.0,0.0,0.0,0.0,0.0,0.0,0.0,0.0,0.0
3.366758,-0.613685488701,0.997216403484,-1.26079273224,-0.642038583755,-2.29804563522,-1.60558331013,-2.35601019859,0.0655294117647,0.0,0.0,0.0,0.0,0.0,0.0,0.0,0.0,0.0,0.0,0.0,0.0,0.0,0.0,0.0
3.400098,-0.613685488701,0.997216403484,-1.26079273224,-0.642038583755,-2.29804563522,-1.60558331013,-2.35601019859,0.0655294117647,0.0,0.0,0.0,0.0,0.0,0.0,0.0,0.0,0.0,0.0,0.0,0.0,0.0,0.0,0.0
3.433429,-0.613686800003,0.997216403484,-1.26079273224,-0.642038583755,-2.29804563522,-1.60558331013,-2.35601019859,0.0655294117647,0.0,0.0,0.0,0.0,0.0,0.0,0.0,0.0,0.0,0.0,0.0,0.0,0.0,0.0,0.0
3.466764,-0.613686800003,0.997216403484,-1.26079273224,-0.642038583755,-2.29804563522,-1.60558331013,-2.35601019859,0.0655294117647,0.0,0.0,0.0,0.0,0.0,0.0,0.0,0.0,0.0,0.0,0.0,0.0,0.0,0.0,0.0
3.500105,-0.613686800003,0.997216403484,-1.26079273224,-0.642038583755,-2.29804563522,-1.60558331013,-2.35601019859,0.0655294117647,0.0,0.0,0.0,0.0,0.0,0.0,0.0,0.0,0.0,0.0,0.0,0.0,0.0,0.0,0.0
3.533433,-0.613686800003,0.997216403484,-1.26079273224,-0.642038583755,-2.29804563522,-1.60558331013,-2.35601019859,0.0655294117647,0.0,0.0,0.0,0.0,0.0,0.0,0.0,0.0,0.0,0.0,0.0,0.0,0.0,0.0,0.0
3.566765,-0.613686800003,0.997216403484,-1.26079273224,-0.642038583755,-2.29804563522,-1.60558331013,-2.35601019859,0.0655294117647,0.0,0.0,0.0,0.0,0.0,0.0,0.0,0.0,0.0,0.0,0.0,0.0,0.0,0.0,0.0
3.600110,-0.613686800003,0.997216403484,-1.26079273224,-0.642038583755,-2.29804563522,-1.60558331013,-2.35601019859,0.0655294117647,0.0,0.0,0.0,0.0,0.0,0.0,0.0,0.0,0.0,0.0,0.0,0.0,0.0,0.0,0.0
3.633438,-0.613686800003,0.997216403484,-1.26079273224,-0.642038583755,-2.29804563522,-1.60558331013,-2.35601019859,0.0655294117647,0.0,0.0,0.0,0.0,0.0,0.0,0.0,0.0,0.0,0.0,0.0,0.0,0.0,0.0,0.0
3.666771,-0.613686800003,0.997216403484,-1.26079273224,-0.642038583755,-2.29804563522,-1.60558331013,-2.35601019859,0.0655294117647,0.0,0.0,0.0,0.0,0.0,0.0,0.0,0.0,0.0,0.0,0.0,0.0,0.0,0.0,0.0
3.700100,-0.613686800003,0.997216403484,-1.26079273224,-0.642038583755,-2.29804563522,-1.60558331013,-2.35601019859,0.0655294117647,0.0,0.0,0.0,0.0,0.0,0.0,0.0,0.0,0.0,0.0,0.0,0.0,0.0,0.0,0.0
3.733442,-0.613686800003,0.997216403484,-1.26079273224,-0.642038583755,-2.29804563522,-1.60558331013,-2.35601019859,0.0655294117647,0.0,0.0,0.0,0.0,0.0,0.0,0.0,0.0,0.0,0.0,0.0,0.0,0.0,0.0,0.0
3.766774,-0.613686800003,0.997216403484,-1.26079273224,-0.642038583755,-2.29804563522,-1.60558331013,-2.35601019859,0.0655294117647,0.0,0.0,0.0,0.0,0.0,0.0,0.0,0.0,0.0,0.0,0.0,0.0,0.0,0.0,0.0
3.800098,-0.613686800003,0.997216403484,-1.26079273224,-0.642038583755,-2.29804563522,-1.60558331013,-2.35601019859,0.0655294117647,0.0,0.0,0.0,0.0,0.0,0.0,0.0,0.0,0.0,0.0,0.0,0.0,0.0,0.0,0.0
3.833432,-0.613686800003,0.997216403484,-1.26079273224,-0.642038583755,-2.29804563522,-1.60558331013,-2.35601019859,0.0655294117647,0.0,0.0,0.0,0.0,0.0,0.0,0.0,0.0,0.0,0.0,0.0,0.0,0.0,0.0,0.0
3.866770,-0.613685488701,0.997216403484,-1.26079273224,-0.642038583755,-2.29804563522,-1.60558331013,-2.35601019859,0.0655294117647,0.0,0.0,0.0,0.0,0.0,0.0,0.0,0.0,0.0,0.0,0.0,0.0,0.0,0.0,0.0
3.900090,-0.613686800003,0.997216403484,-1.26079273224,-0.642038583755,-2.29804563522,-1.60558331013,-2.35601019859,0.0655294117647,0.0,0.0,0.0,0.0,0.0,0.0,0.0,0.0,0.0,0.0,0.0,0.0,0.0,0.0,0.0
3.933430,-0.613685488701,0.997216403484,-1.26079273224,-0.642038583755,-2.29804563522,-1.60558331013,-2.35601019859,0.0655294117647,0.0,0.0,0.0,0.0,0.0,0.0,0.0,0.0,0.0,0.0,0.0,0.0,0.0,0.0,0.0
3.966762,-0.613686800003,0.997216403484,-1.26079273224,-0.642038583755,-2.29804563522,-1.60558331013,-2.35601019859,0.0655294117647,0.0,0.0,0.0,0.0,0.0,0.0,0.0,0.0,0.0,0.0,0.0,0.0,0.0,0.0,0.0
4.000100,-0.613686800003,0.997216403484,-1.26079273224,-0.642038583755,-2.29804563522,-1.60558331013,-2.35601019859,0.0655294117647,0.0,0.0,0.0,0.0,0.0,0.0,0.0,0.0,0.0,0.0,0.0,0.0,0.0,0.0,0.0
4.033427,-0.613686800003,0.997216403484,-1.26079273224,-0.642038583755,-2.29804563522,-1.60558331013,-2.35601019859,0.0655294117647,0.0,0.0,0.0,0.0,0.0,0.0,0.0,0.0,0.0,0.0,0.0,0.0,0.0,0.0,0.0
4.066765,-0.613686800003,0.997216403484,-1.26079273224,-0.642038583755,-2.29804563522,-1.60558331013,-2.35601019859,0.0655294117647,0.0,0.0,0.0,0.0,0.0,0.0,0.0,0.0,0.0,0.0,0.0,0.0,0.0,0.0,0.0
4.100108,-0.613685488701,0.997216403484,-1.26079273224,-0.642038583755,-2.29804563522,-1.60558331013,-2.35601019859,0.0655294117647,0.0,0.0,0.0,0.0,0.0,0.0,0.0,0.0,0.0,0.0,0.0,0.0,0.0,0.0,0.0
4.133426,-0.613686800003,0.997216403484,-1.26079273224,-0.642038583755,-2.29804563522,-1.60558331013,-2.35601019859,0.0655294117647,0.0,0.0,0.0,0.0,0.0,0.0,0.0,0.0,0.0,0.0,0.0,0.0,0.0,0.0,0.0
4.166764,-0.613686800003,0.997216403484,-1.26079273224,-0.642038583755,-2.29804563522,-1.60558331013,-2.35601019859,0.0655294117647,0.0,0.0,0.0,0.0,0.0,0.0,0.0,0.0,0.0,0.0,0.0,0.0,0.0,0.0,0.0
4.200097,-0.613686800003,0.997216403484,-1.26079273224,-0.642038583755,-2.29804563522,-1.60558331013,-2.35601019859,0.0655294117647,0.0,0.0,0.0,0.0,0.0,0.0,0.0,0.0,0.0,0.0,0.0,0.0,0.0,0.0,0.0
4.233423,-0.613686800003,0.997216403484,-1.26079273224,-0.642038583755,-2.29804563522,-1.60558331013,-2.35601019859,0.0655294117647,0.0,0.0,0.0,0.0,0.0,0.0,0.0,0.0,0.0,0.0,0.0,0.0,0.0,0.0,0.0
4.266761,-0.613685488701,0.997216403484,-1.26079273224,-0.642038583755,-2.29804563522,-1.60558331013,-2.35601019859,0.0655294117647,0.0,0.0,0.0,0.0,0.0,0.0,0.0,0.0,0.0,0.0,0.0,0.0,0.0,0.0,0.0
4.300097,-0.613686800003,0.997216403484,-1.26079273224,-0.642038583755,-2.29804563522,-1.60558331013,-2.35601019859,0.0655294117647,0.0,0.0,0.0,0.0,0.0,0.0,0.0,0.0,0.0,0.0,0.0,0.0,0.0,0.0,0.0
4.333433,-0.613686800003,0.997216403484,-1.26079273224,-0.642038583755,-2.29804563522,-1.60558331013,-2.35601019859,0.0655294117647,0.0,0.0,0.0,0.0,0.0,0.0,0.0,0.0,0.0,0.0,0.0,0.0,0.0,0.0,0.0
4.366759,-0.613686800003,0.997216403484,-1.26079273224,-0.642037332058,-2.29804563522,-1.60558331013,-2.35601019859,0.0655294117647,0.0,0.0,0.0,0.0,0.0,0.0,0.0,0.0,0.0,0.0,0.0,0.0,0.0,0.0,0.0
4.400107,-0.613686800003,0.997216403484,-1.26079273224,-0.642038583755,-2.29804563522,-1.60558331013,-2.35601019859,0.0655294117647,0.0,0.0,0.0,0.0,0.0,0.0,0.0,0.0,0.0,0.0,0.0,0.0,0.0,0.0,0.0
4.433430,-0.613686800003,0.997216403484,-1.26079273224,-0.642037332058,-2.29804563522,-1.60558331013,-2.35601019859,0.0655294117647,0.0,0.0,0.0,0.0,0.0,0.0,0.0,0.0,0.0,0.0,0.0,0.0,0.0,0.0,0.0
4.466770,-0.613686800003,0.997216403484,-1.26079273224,-0.642037332058,-2.29804563522,-1.60558331013,-2.35601019859,0.0655294117647,0.0,0.0,0.0,0.0,0.0,0.0,0.0,0.0,0.0,0.0,0.0,0.0,0.0,0.0,0.0
4.500095,-0.613686800003,0.997216403484,-1.26079273224,-0.642038583755,-2.29804563522,-1.60558331013,-2.35601019859,0.0655294117647,0.0,0.0,0.0,0.0,0.0,0.0,0.0,0.0,0.0,0.0,0.0,0.0,0.0,0.0,0.0
4.533430,-0.613686800003,0.997216403484,-1.26079273224,-0.642038583755,-2.29804563522,-1.60558331013,-2.35601019859,0.0655294117647,0.0,0.0,0.0,0.0,0.0,0.0,0.0,0.0,0.0,0.0,0.0,0.0,0.0,0.0,0.0
4.566767,-0.613686800003,0.997216403484,-1.26079273224,-0.642038583755,-2.29804563522,-1.60558331013,-2.35601019859,0.0655294117647,0.0,0.0,0.0,0.0,0.0,0.0,0.0,0.0,0.0,0.0,0.0,0.0,0.0,0.0,0.0
4.600108,-0.613686800003,0.997216403484,-1.26079273224,-0.642038583755,-2.29804563522,-1.60558331013,-2.35601019859,0.0655294117647,0.0,0.0,0.0,0.0,0.0,0.0,0.0,0.0,0.0,0.0,0.0,0.0,0.0,0.0,0.0
4.633428,-0.613686800003,0.997216403484,-1.26079273224,-0.642038583755,-2.29804563522,-1.60558331013,-2.35601019859,0.0655294117647,0.0,0.0,0.0,0.0,0.0,0.0,0.0,0.0,0.0,0.0,0.0,0.0,0.0,0.0,0.0
4.666760,-0.613686800003,0.997216403484,-1.26079273224,-0.642038583755,-2.29804563522,-1.60558331013,-2.35601019859,0.0655294117647,0.0,0.0,0.0,0.0,0.0,0.0,0.0,0.0,0.0,0.0,0.0,0.0,0.0,0.0,0.0
4.700095,-0.613686800003,0.997216403484,-1.26079273224,-0.642038583755,-2.29804563522,-1.60558331013,-2.35601019859,0.0655294117647,0.0,0.0,0.0,0.0,0.0,0.0,0.0,0.0,0.0,0.0,0.0,0.0,0.0,0.0,0.0
4.733425,-0.613686800003,0.997216403484,-1.26079273224,-0.642038583755,-2.29804563522,-1.60558331013,-2.35601019859,0.0655294117647,0.0,0.0,0.0,0.0,0.0,0.0,0.0,0.0,0.0,0.0,0.0,0.0,0.0,0.0,0.0
4.766788,-0.613685488701,0.997216403484,-1.26079273224,-0.642038583755,-2.29804563522,-1.60558331013,-2.35601019859,0.0655294117647,0.0,0.0,0.0,0.0,0.0,0.0,0.0,0.0,0.0,0.0,0.0,0.0,0.0,0.0,0.0
4.800105,-0.613686800003,0.997216403484,-1.26079273224,-0.642037332058,-2.29804563522,-1.60558331013,-2.35601019859,0.0655294117647,0.0,0.0,0.0,0.0,0.0,0.0,0.0,0.0,0.0,0.0,0.0,0.0,0.0,0.0,0.0
4.833418,-0.613686800003,0.997216403484,-1.26079273224,-0.642038583755,-2.29804563522,-1.60558331013,-2.35601019859,0.0655294117647,0.0,0.0,0.0,0.0,0.0,0.0,0.0,0.0,0.0,0.0,0.0,0.0,0.0,0.0,0.0
4.866760,-0.613686800003,0.997216403484,-1.26079273224,-0.642038583755,-2.29804563522,-1.60558331013,-2.35601019859,0.0655294117647,0.0,0.0,0.0,0.0,0.0,0.0,0.0,0.0,0.0,0.0,0.0,0.0,0.0,0.0,0.0
4.900093,-0.613686800003,0.997216403484,-1.26079273224,-0.642038583755,-2.29804563522,-1.60558331013,-2.35601019859,0.0655294117647,0.0,0.0,0.0,0.0,0.0,0.0,0.0,0.0,0.0,0.0,0.0,0.0,0.0,0.0,0.0
4.933440,-0.613686800003,0.997216403484,-1.26079273224,-0.642038583755,-2.29804563522,-1.60558331013,-2.35601019859,0.0655294117647,0.0,0.0,0.0,0.0,0.0,0.0,0.0,0.0,0.0,0.0,0.0,0.0,0.0,0.0,0.0
4.966760,-0.613686800003,0.997216403484,-1.26079273224,-0.642038583755,-2.29804563522,-1.60558331013,-2.35601019859,0.0655294117647,0.0,0.0,0.0,0.0,0.0,0.0,0.0,0.0,0.0,0.0,0.0,0.0,0.0,0.0,0.0
5.000102,-0.613686800003,0.997216403484,-1.26079273224,-0.642038583755,-2.29804563522,-1.60558331013,-2.35601019859,0.0655294117647,0.0,0.0,0.0,0.0,0.0,0.0,0.0,0.0,0.0,0.0,0.0,0.0,0.0,0.0,0.0
5.033438,-0.613686800003,0.997216403484,-1.26079273224,-0.642038583755,-2.29804563522,-1.60558331013,-2.35601019859,0.0655294117647,0.0,0.0,0.0,0.0,0.0,0.0,0.0,0.0,0.0,0.0,0.0,0.0,0.0,0.0,0.0
5.066760,-0.613686800003,0.997216403484,-1.26079273224,-0.642037332058,-2.29804563522,-1.60558331013,-2.35601019859,0.0655294117647,0.0,0.0,0.0,0.0,0.0,0.0,0.0,0.0,0.0,0.0,0.0,0.0,0.0,0.0,0.0
5.100094,-0.613686800003,0.997216403484,-1.26079273224,-0.642038583755,-2.29804563522,-1.60558331013,-2.35601019859,0.0655294117647,0.0,0.0,0.0,0.0,0.0,0.0,0.0,0.0,0.0,0.0,0.0,0.0,0.0,0.0,0.0
5.133428,-0.613685488701,0.997216403484,-1.26079273224,-0.642038583755,-2.29804563522,-1.60558331013,-2.35601019859,0.0655294117647,0.0,0.0,0.0,0.0,0.0,0.0,0.0,0.0,0.0,0.0,0.0,0.0,0.0,0.0,0.0
5.166759,-0.613686800003,0.997216403484,-1.26079273224,-0.642038583755,-2.29804563522,-1.60558331013,-2.35601019859,0.0655294117647,0.0,0.0,0.0,0.0,0.0,0.0,0.0,0.0,0.0,0.0,0.0,0.0,0.0,0.0,0.0
5.200098,-0.613686800003,0.997216403484,-1.26079273224,-0.642038583755,-2.29804563522,-1.60558331013,-2.35601019859,0.0655294117647,0.0,0.0,0.0,0.0,0.0,0.0,0.0,0.0,0.0,0.0,0.0,0.0,0.0,0.0,0.0
5.233431,-0.613686800003,0.997216403484,-1.26079273224,-0.642038583755,-2.29804563522,-1.60558331013,-2.35601019859,0.0655294117647,0.0,0.0,0.0,0.0,0.0,0.0,0.0,0.0,0.0,0.0,0.0,0.0,0.0,0.0,0.0
5.266788,-0.613686800003,0.997216403484,-1.26079273224,-0.642038583755,-2.29804563522,-1.60558331013,-2.35601019859,0.0655294117647,0.0,0.0,0.0,0.0,0.0,0.0,0.0,0.0,0.0,0.0,0.0,0.0,0.0,0.0,0.0
5.300103,-0.613686800003,0.997216403484,-1.26079273224,-0.642038583755,-2.29804563522,-1.60558331013,-2.35601019859,0.0655294117647,0.0,0.0,0.0,0.0,0.0,0.0,0.0,0.0,0.0,0.0,0.0,0.0,0.0,0.0,0.0
5.333448,-0.613686800003,0.997216403484,-1.26079273224,-0.642038583755,-2.29804563522,-1.60558331013,-2.35601019859,0.0655294117647,0.0,0.0,0.0,0.0,0.0,0.0,0.0,0.0,0.0,0.0,0.0,0.0,0.0,0.0,0.0
5.366762,-0.613686800003,0.997216403484,-1.26079273224,-0.642038583755,-2.29804563522,-1.60558331013,-2.35601019859,0.0655294117647,0.0,0.0,0.0,0.0,0.0,0.0,0.0,0.0,0.0,0.0,0.0,0.0,0.0,0.0,0.0
5.400098,-0.613686800003,0.997216403484,-1.26079273224,-0.642038583755,-2.29804563522,-1.60558331013,-2.35601019859,0.0655294117647,0.0,0.0,0.0,0.0,0.0,0.0,0.0,0.0,0.0,0.0,0.0,0.0,0.0,0.0,0.0
5.433429,-0.613686800003,0.997216403484,-1.26079273224,-0.642038583755,-2.29804563522,-1.60558331013,-2.35601019859,0.0655294117647,0.0,0.0,0.0,0.0,0.0,0.0,0.0,0.0,0.0,0.0,0.0,0.0,0.0,0.0,0.0
5.466761,-0.613686800003,0.997216403484,-1.26079273224,-0.642038583755,-2.29804563522,-1.60558331013,-2.35601019859,0.0655294117647,0.0,0.0,0.0,0.0,0.0,0.0,0.0,0.0,0.0,0.0,0.0,0.0,0.0,0.0,0.0
5.500092,-0.613686800003,0.997216403484,-1.26079273224,-0.642038583755,-2.29804563522,-1.60558331013,-2.35601019859,0.0655294117647,0.0,0.0,0.0,0.0,0.0,0.0,0.0,0.0,0.0,0.0,0.0,0.0,0.0,0.0,0.0
5.533431,-0.613686800003,0.997216403484,-1.26079273224,-0.642038583755,-2.29804563522,-1.60558331013,-2.35601019859,0.0655294117647,0.0,0.0,0.0,0.0,0.0,0.0,0.0,0.0,0.0,0.0,0.0,0.0,0.0,0.0,0.0
5.566777,-0.613685488701,0.997216403484,-1.26079273224,-0.642038583755,-2.29804563522,-1.60558331013,-2.35601019859,0.0655294117647,0.0,0.0,0.0,0.0,0.0,0.0,0.0,0.0,0.0,0.0,0.0,0.0,0.0,0.0,0.0
5.600111,-0.613686800003,0.997216403484,-1.26079273224,-0.642038583755,-2.29804563522,-1.60558331013,-2.35601019859,0.0655294117647,0.0,0.0,0.0,0.0,0.0,0.0,0.0,0.0,0.0,0.0,0.0,0.0,0.0,0.0,0.0
5.633438,-0.613686800003,0.997216403484,-1.26079273224,-0.642038583755,-2.29804563522,-1.60558331013,-2.35601019859,0.0655294117647,0.0,0.0,0.0,0.0,0.0,0.0,0.0,0.0,0.0,0.0,0.0,0.0,0.0,0.0,0.0
5.666769,-0.613685488701,0.997216403484,-1.26079273224,-0.642038583755,-2.29804563522,-1.60558331013,-2.35601019859,0.0655294117647,0.0,0.0,0.0,0.0,0.0,0.0,0.0,0.0,0.0,0.0,0.0,0.0,0.0,0.0,0.0
5.700105,-0.613685488701,0.997216403484,-1.26079273224,-0.642038583755,-2.29804563522,-1.60558331013,-2.35601019859,0.0655294117647,0.0,0.0,0.0,0.0,0.0,0.0,0.0,0.0,0.0,0.0,0.0,0.0,0.0,0.0,0.0
5.733421,-0.613686800003,0.997216403484,-1.26079273224,-0.642038583755,-2.29804563522,-1.60558331013,-2.35601019859,0.0655294117647,0.0,0.0,0.0,0.0,0.0,0.0,0.0,0.0,0.0,0.0,0.0,0.0,0.0,0.0,0.0
5.766761,-0.613686800003,0.997216403484,-1.26079273224,-0.642038583755,-2.29804563522,-1.60558331013,-2.35601019859,0.0655294117647,0.0,0.0,0.0,0.0,0.0,0.0,0.0,0.0,0.0,0.0,0.0,0.0,0.0,0.0,0.0
5.800096,-0.613686800003,0.997216403484,-1.26079273224,-0.642037332058,-2.29804563522,-1.60558331013,-2.35601019859,0.0655294117647,0.0,0.0,0.0,0.0,0.0,0.0,0.0,0.0,0.0,0.0,0.0,0.0,0.0,0.0,0.0
5.833427,-0.613686800003,0.997216403484,-1.26079273224,-0.642038583755,-2.29804563522,-1.60558331013,-2.35601019859,0.0655294117647,0.0,0.0,0.0,0.0,0.0,0.0,0.0,0.0,0.0,0.0,0.0,0.0,0.0,0.0,0.0
5.866756,-0.613686800003,0.997216403484,-1.26079273224,-0.642038583755,-2.29804563522,-1.60558331013,-2.35601019859,0.0655294117647,0.0,0.0,0.0,0.0,0.0,0.0,0.0,0.0,0.0,0.0,0.0,0.0,0.0,0.0,0.0
5.900092,-0.613686800003,0.997216403484,-1.26079273224,-0.642037332058,-2.29804563522,-1.60558331013,-2.35601019859,0.0655294117647,0.0,0.0,0.0,0.0,0.0,0.0,0.0,0.0,0.0,0.0,0.0,0.0,0.0,0.0,0.0
5.933425,-0.613686800003,0.997216403484,-1.26079273224,-0.642038583755,-2.29804563522,-1.60558331013,-2.35601019859,0.0654117647059,0.0,0.0,0.0,0.0,0.0,0.0,0.0,0.0,0.0,0.0,0.0,0.0,0.0,0.0,0.0
5.966777,-0.613685488701,0.997216403484,-1.26079273224,-0.642038583755,-2.29804563522,-1.60558331013,-2.35601019859,0.0655294117647,0.0,0.0,0.0,0.0,0.0,0.0,0.0,0.0,0.0,0.0,0.0,0.0,0.0,0.0,0.0
6.000104,-0.613686800003,0.997216403484,-1.26079273224,-0.642038583755,-2.29804563522,-1.60558331013,-2.35601019859,0.0655294117647,0.0,0.0,0.0,0.0,0.0,0.0,0.0,0.0,0.0,0.0,0.0,0.0,0.0,0.0,0.0
6.033447,-0.613686800003,0.997216403484,-1.26079273224,-0.642038583755,-2.29804563522,-1.60558331013,-2.35601019859,0.0655294117647,0.0,0.0,0.0,0.0,0.0,0.0,0.0,0.0,0.0,0.0,0.0,0.0,0.0,0.0,0.0
6.066764,-0.613685488701,0.997216403484,-1.26079273224,-0.642038583755,-2.29804563522,-1.60558331013,-2.35601019859,0.0655294117647,0.0,0.0,0.0,0.0,0.0,0.0,0.0,0.0,0.0,0.0,0.0,0.0,0.0,0.0,0.0
6.100095,-0.613686800003,0.997216403484,-1.26079273224,-0.642038583755,-2.29804563522,-1.60558331013,-2.35601019859,0.0655294117647,0.0,0.0,0.0,0.0,0.0,0.0,0.0,0.0,0.0,0.0,0.0,0.0,0.0,0.0,0.0
6.133428,-0.613686800003,0.997216403484,-1.26079273224,-0.642038583755,-2.29804563522,-1.60558331013,-2.35601019859,0.0655294117647,0.0,0.0,0.0,0.0,0.0,0.0,0.0,0.0,0.0,0.0,0.0,0.0,0.0,0.0,0.0
6.166779,-0.613686800003,0.997216403484,-1.26079273224,-0.642038583755,-2.29804563522,-1.60558331013,-2.35601019859,0.0655294117647,0.0,0.0,0.0,0.0,0.0,0.0,0.0,0.0,0.0,0.0,0.0,0.0,0.0,0.0,0.0
6.200098,-0.613686800003,0.997216403484,-1.26079273224,-0.642038583755,-2.29804563522,-1.60558331013,-2.35601019859,0.0655294117647,0.0,0.0,0.0,0.0,0.0,0.0,0.0,0.0,0.0,0.0,0.0,0.0,0.0,0.0,0.0
6.233426,-0.613686800003,0.997216403484,-1.26079273224,-0.642038583755,-2.29804563522,-1.60558331013,-2.35601019859,0.0655294117647,0.0,0.0,0.0,0.0,0.0,0.0,0.0,0.0,0.0,0.0,0.0,0.0,0.0,0.0,0.0
6.266758,-0.613685488701,0.997216403484,-1.26079273224,-0.642037332058,-2.29804563522,-1.60558331013,-2.35601019859,0.0655294117647,0.0,0.0,0.0,0.0,0.0,0.0,0.0,0.0,0.0,0.0,0.0,0.0,0.0,0.0,0.0
6.300098,-0.613686800003,0.997216403484,-1.26079273224,-0.642038583755,-2.29804563522,-1.60558331013,-2.35601019859,0.0655294117647,0.0,0.0,0.0,0.0,0.0,0.0,0.0,0.0,0.0,0.0,0.0,0.0,0.0,0.0,0.0
6.333426,-0.613685488701,0.997216403484,-1.26079273224,-0.642038583755,-2.29804563522,-1.60558331013,-2.35601019859,0.0655294117647,0.0,0.0,0.0,0.0,0.0,0.0,0.0,0.0,0.0,0.0,0.0,0.0,0.0,0.0,0.0
6.366727,-0.613686800003,0.997216403484,-1.26079273224,-0.642038583755,-2.29804563522,-1.60558331013,-2.35601019859,0.0655294117647,0.0,0.0,0.0,0.0,0.0,0.0,0.0,0.0,0.0,0.0,0.0,0.0,0.0,0.0,0.0
6.400118,-0.613686800003,0.997216403484,-1.26079273224,-0.642038583755,-2.29804563522,-1.60558331013,-2.35601019859,0.0655294117647,0.0,0.0,0.0,0.0,0.0,0.0,0.0,0.0,0.0,0.0,0.0,0.0,0.0,0.0,0.0
6.433427,-0.613686800003,0.997216403484,-1.26079273224,-0.642038583755,-2.29804563522,-1.60558331013,-2.35601019859,0.0655294117647,0.0,0.0,0.0,0.0,0.0,0.0,0.0,0.0,0.0,0.0,0.0,0.0,0.0,0.0,0.0
6.466756,-0.613686800003,0.997216403484,-1.26079273224,-0.642038583755,-2.29804563522,-1.60558331013,-2.35601019859,0.0655294117647,0.0,0.0,0.0,0.0,0.0,0.0,0.0,0.0,0.0,0.0,0.0,0.0,0.0,0.0,0.0
6.500093,-0.613686800003,0.997216403484,-1.26079273224,-0.642038583755,-2.29804563522,-1.60558331013,-2.35601019859,0.0655294117647,0.0,0.0,0.0,0.0,0.0,0.0,0.0,0.0,0.0,0.0,0.0,0.0,0.0,0.0,0.0
6.533441,-0.613686800003,0.997216403484,-1.26079273224,-0.642038583755,-2.29804563522,-1.60558331013,-2.35601019859,0.0655294117647,0.0,0.0,0.0,0.0,0.0,0.0,0.0,0.0,0.0,0.0,0.0,0.0,0.0,0.0,0.0
6.566759,-0.613686800003,0.997216403484,-1.26079273224,-0.642038583755,-2.29804563522,-1.60558331013,-2.35601019859,0.0655294117647,0.0,0.0,0.0,0.0,0.0,0.0,0.0,0.0,0.0,0.0,0.0,0.0,0.0,0.0,0.0
6.600097,-0.613686800003,0.997216403484,-1.26079273224,-0.642038583755,-2.29804563522,-1.60558331013,-2.35601019859,0.0655294117647,0.0,0.0,0.0,0.0,0.0,0.0,0.0,0.0,0.0,0.0,0.0,0.0,0.0,0.0,0.0
6.633440,-0.613686800003,0.997216403484,-1.26079273224,-0.642038583755,-2.29804563522,-1.60558331013,-2.35601019859,0.0655294117647,0.0,0.0,0.0,0.0,0.0,0.0,0.0,0.0,0.0,0.0,0.0,0.0,0.0,0.0,0.0
6.666747,-0.613686800003,0.997216403484,-1.26079273224,-0.642038583755,-2.29804563522,-1.60558331013,-2.35601019859,0.0655294117647,0.0,0.0,0.0,0.0,0.0,0.0,0.0,0.0,0.0,0.0,0.0,0.0,0.0,0.0,0.0
6.700096,-0.613686800003,0.997216403484,-1.26079273224,-0.642037332058,-2.29804563522,-1.60558331013,-2.35601019859,0.0655294117647,0.0,0.0,0.0,0.0,0.0,0.0,0.0,0.0,0.0,0.0,0.0,0.0,0.0,0.0,0.0
6.733433,-0.613686800003,0.997216403484,-1.26079273224,-0.642038583755,-2.29804563522,-1.60558331013,-2.35601019859,0.0655294117647,0.0,0.0,0.0,0.0,0.0,0.0,0.0,0.0,0.0,0.0,0.0,0.0,0.0,0.0,0.0
6.766766,-0.613686800003,0.997216403484,-1.26079273224,-0.642038583755,-2.29804563522,-1.60558331013,-2.35601019859,0.0655294117647,0.0,0.0,0.0,0.0,0.0,0.0,0.0,0.0,0.0,0.0,0.0,0.0,0.0,0.0,0.0
6.800118,-0.613686800003,0.997216403484,-1.26079273224,-0.642038583755,-2.29804563522,-1.60558331013,-2.35601019859,0.0655294117647,0.0,0.0,0.0,0.0,0.0,0.0,0.0,0.0,0.0,0.0,0.0,0.0,0.0,0.0,0.0
6.833433,-0.613686800003,0.997216403484,-1.26079273224,-0.642038583755,-2.29804563522,-1.60558331013,-2.35601019859,0.0655294117647,0.0,0.0,0.0,0.0,0.0,0.0,0.0,0.0,0.0,0.0,0.0,0.0,0.0,0.0,0.0
6.866760,-0.613686800003,0.997216403484,-1.26079273224,-0.642038583755,-2.29804563522,-1.60558331013,-2.35601019859,0.0655294117647,0.0,0.0,0.0,0.0,0.0,0.0,0.0,0.0,0.0,0.0,0.0,0.0,0.0,0.0,0.0
6.900097,-0.613686800003,0.997216403484,-1.26079273224,-0.642038583755,-2.29804563522,-1.60558331013,-2.35601019859,0.0655294117647,0.0,0.0,0.0,0.0,0.0,0.0,0.0,0.0,0.0,0.0,0.0,0.0,0.0,0.0,0.0
6.933443,-0.613686800003,0.997216403484,-1.26079273224,-0.642038583755,-2.29804563522,-1.60558331013,-2.35601019859,0.0655294117647,0.0,0.0,0.0,0.0,0.0,0.0,0.0,0.0,0.0,0.0,0.0,0.0,0.0,0.0,0.0
6.966773,-0.613686800003,0.997216403484,-1.26079273224,-0.642037332058,-2.29804563522,-1.60558331013,-2.35601019859,0.0655294117647,0.0,0.0,0.0,0.0,0.0,0.0,0.0,0.0,0.0,0.0,0.0,0.0,0.0,0.0,0.0
7.000103,-0.613686800003,0.997216403484,-1.26079273224,-0.642038583755,-2.29804563522,-1.60558331013,-2.35601019859,0.0655294117647,0.0,0.0,0.0,0.0,0.0,0.0,0.0,0.0,0.0,0.0,0.0,0.0,0.0,0.0,0.0
7.033428,-0.613686800003,0.997216403484,-1.26079273224,-0.642038583755,-2.29804563522,-1.60558331013,-2.35601019859,0.0655294117647,0.0,0.0,0.0,0.0,0.0,0.0,0.0,0.0,0.0,0.0,0.0,0.0,0.0,0.0,0.0
7.066763,-0.613686800003,0.997216403484,-1.26079273224,-0.642038583755,-2.29804563522,-1.60558331013,-2.35601019859,0.0655294117647,0.0,0.0,0.0,0.0,0.0,0.0,0.0,0.0,0.0,0.0,0.0,0.0,0.0,0.0,0.0
7.100110,-0.613686800003,0.997216403484,-1.26079273224,-0.642038583755,-2.29804563522,-1.60558331013,-2.35601019859,0.0655294117647,0.0,0.0,0.0,0.0,0.0,0.0,0.0,0.0,0.0,0.0,0.0,0.0,0.0,0.0,0.0
7.133445,-0.613686800003,0.997216403484,-1.26079273224,-0.642037332058,-2.29804563522,-1.60558331013,-2.35601019859,0.0655294117647,0.0,0.0,0.0,0.0,0.0,0.0,0.0,0.0,0.0,0.0,0.0,0.0,0.0,0.0,0.0
7.166762,-0.613686800003,0.997216403484,-1.26079273224,-0.642038583755,-2.29804563522,-1.60558331013,-2.35601019859,0.0655294117647,0.0,0.0,0.0,0.0,0.0,0.0,0.0,0.0,0.0,0.0,0.0,0.0,0.0,0.0,0.0
7.200109,-0.613686800003,0.997216403484,-1.26079273224,-0.642038583755,-2.29804563522,-1.60558331013,-2.35601019859,0.0655294117647,0.0,0.0,0.0,0.0,0.0,0.0,0.0,0.0,0.0,0.0,0.0,0.0,0.0,0.0,0.0
7.233447,-0.613686800003,0.997216403484,-1.26079273224,-0.642038583755,-2.29804563522,-1.60558331013,-2.35601019859,0.0655294117647,0.0,0.0,0.0,0.0,0.0,0.0,0.0,0.0,0.0,0.0,0.0,0.0,0.0,0.0,0.0
7.266736,-0.613686800003,0.997216403484,-1.26079273224,-0.642038583755,-2.29804563522,-1.60558331013,-2.35601019859,0.0655294117647,0.0,0.0,0.0,0.0,0.0,0.0,0.0,0.0,0.0,0.0,0.0,0.0,0.0,0.0,0.0
7.300093,-0.613685488701,0.997216403484,-1.26079273224,-0.642038583755,-2.29804563522,-1.60558331013,-2.35601019859,0.0655294117647,0.0,0.0,0.0,0.0,0.0,0.0,0.0,0.0,0.0,0.0,0.0,0.0,0.0,0.0,0.0
7.333444,-0.613685488701,0.997216403484,-1.26079273224,-0.642038583755,-2.29804563522,-1.60558331013,-2.35601019859,0.0655294117647,0.0,0.0,0.0,0.0,0.0,0.0,0.0,0.0,0.0,0.0,0.0,0.0,0.0,0.0,0.0
7.366759,-0.613686800003,0.997216403484,-1.26079273224,-0.642038583755,-2.29804563522,-1.60558331013,-2.35601019859,0.0655294117647,0.0,0.0,0.0,0.0,0.0,0.0,0.0,0.0,0.0,0.0,0.0,0.0,0.0,0.0,0.0
7.400073,-0.613686800003,0.997216403484,-1.26079273224,-0.642038583755,-2.29804563522,-1.60558331013,-2.35601019859,0.0655294117647,0.0,0.0,0.0,0.0,0.0,0.0,0.0,0.0,0.0,0.0,0.0,0.0,0.0,0.0,0.0
7.433425,-0.613686800003,0.997216403484,-1.26079273224,-0.642038583755,-2.29804563522,-1.60558331013,-2.35601019859,0.0655294117647,0.0,0.0,0.0,0.0,0.0,0.0,0.0,0.0,0.0,0.0,0.0,0.0,0.0,0.0,0.0
7.466757,-0.613685488701,0.997216403484,-1.26079273224,-0.642038583755,-2.29804563522,-1.60558331013,-2.35601019859,0.0655294117647,0.0,0.0,0.0,0.0,0.0,0.0,0.0,0.0,0.0,0.0,0.0,0.0,0.0,0.0,0.0
7.500094,-0.613686800003,0.997216403484,-1.26079273224,-0.642038583755,-2.29804563522,-1.60558331013,-2.35601019859,0.0655294117647,0.0,0.0,0.0,0.0,0.0,0.0,0.0,0.0,0.0,0.0,0.0,0.0,0.0,0.0,0.0
7.533431,-0.613685488701,0.997216403484,-1.26079273224,-0.642038583755,-2.29804563522,-1.60558331013,-2.35601019859,0.0655294117647,0.0,0.0,0.0,0.0,0.0,0.0,0.0,0.0,0.0,0.0,0.0,0.0,0.0,0.0,0.0
7.566760,-0.613686800003,0.997216403484,-1.26079273224,-0.642038583755,-2.29804563522,-1.60558331013,-2.35601019859,0.0655294117647,0.0,0.0,0.0,0.0,0.0,0.0,0.0,0.0,0.0,0.0,0.0,0.0,0.0,0.0,0.0
7.600103,-0.613686800003,0.997216403484,-1.26079273224,-0.642037332058,-2.29804563522,-1.60558331013,-2.35601019859,0.0655294117647,0.0,0.0,0.0,0.0,0.0,0.0,0.0,0.0,0.0,0.0,0.0,0.0,0.0,0.0,0.0
7.633424,-0.613686800003,0.997216403484,-1.26079273224,-0.642038583755,-2.29804563522,-1.60558331013,-2.35601019859,0.0655294117647,0.0,0.0,0.0,0.0,0.0,0.0,0.0,0.0,0.0,0.0,0.0,0.0,0.0,0.0,0.0
7.666758,-0.613685488701,0.997216403484,-1.26079273224,-0.642037332058,-2.29804563522,-1.60558331013,-2.35601019859,0.0655294117647,0.0,0.0,0.0,0.0,0.0,0.0,0.0,0.0,0.0,0.0,0.0,0.0,0.0,0.0,0.0
7.700096,-0.613685488701,0.997216403484,-1.26079273224,-0.642037332058,-2.29804563522,-1.60558331013,-2.35601019859,0.0655294117647,0.0,0.0,0.0,0.0,0.0,0.0,0.0,0.0,0.0,0.0,0.0,0.0,0.0,0.0,0.0
7.733438,-0.613685488701,0.997216403484,-1.26079273224,-0.642037332058,-2.29804563522,-1.60558331013,-2.35601019859,0.0655294117647,0.0,0.0,0.0,0.0,0.0,0.0,0.0,0.0,0.0,0.0,0.0,0.0,0.0,0.0,0.0
7.766763,-0.613685488701,0.997216403484,-1.26079273224,-0.642037332058,-2.29804563522,-1.60558331013,-2.35601019859,0.0655294117647,0.0,0.0,0.0,0.0,0.0,0.0,0.0,0.0,0.0,0.0,0.0,0.0,0.0,0.0,0.0
7.800130,-0.613685488701,0.997216403484,-1.26079273224,-0.642037332058,-2.29804563522,-1.60558331013,-2.35601019859,0.0655294117647,0.0,0.0,0.0,0.0,0.0,0.0,0.0,0.0,0.0,0.0,0.0,0.0,0.0,0.0,0.0
7.833425,-0.613685488701,0.997216403484,-1.26079273224,-0.642037332058,-2.29804563522,-1.60558331013,-2.35601019859,0.0655294117647,0.0,0.0,0.0,0.0,0.0,0.0,0.0,0.0,0.0,0.0,0.0,0.0,0.0,0.0,0.0
7.866760,-0.613685488701,0.997216403484,-1.26079273224,-0.642037332058,-2.29804563522,-1.60558331013,-2.35601019859,0.0655294117647,0.0,0.0,0.0,0.0,0.0,0.0,0.0,0.0,0.0,0.0,0.0,0.0,0.0,0.0,0.0
7.900100,-0.613685488701,0.997216403484,-1.26079273224,-0.642037332058,-2.29804563522,-1.60558331013,-2.35601019859,0.0655294117647,0.0,0.0,0.0,0.0,0.0,0.0,0.0,0.0,0.0,0.0,0.0,0.0,0.0,0.0,0.0
7.933443,-0.613685488701,0.997216403484,-1.26079273224,-0.642037332058,-2.29804563522,-1.60558331013,-2.35601019859,0.0655294117647,0.0,0.0,0.0,0.0,0.0,0.0,0.0,0.0,0.0,0.0,0.0,0.0,0.0,0.0,0.0
7.966776,-0.613685488701,0.997216403484,-1.26079273224,-0.642037332058,-2.29804563522,-1.60558331013,-2.35601019859,0.0655294117647,0.0,0.0,0.0,0.0,0.0,0.0,0.0,0.0,0.0,0.0,0.0,0.0,0.0,0.0,0.0
8.000112,-0.613685488701,0.997216403484,-1.26079273224,-0.642037332058,-2.29804563522,-1.60558331013,-2.35601019859,0.0655294117647,0.0,0.0,0.0,0.0,0.0,0.0,0.0,0.0,0.0,0.0,0.0,0.0,0.0,0.0,0.0
8.033455,-0.613685488701,0.997216403484,-1.26079273224,-0.642037332058,-2.29804563522,-1.60558331013,-2.35601019859,0.0655294117647,0.0,0.0,0.0,0.0,0.0,0.0,0.0,0.0,0.0,0.0,0.0,0.0,0.0,0.0,0.0
8.066771,-0.613685488701,0.997216403484,-1.26079273224,-0.642037332058,-2.29804563522,-1.60558331013,-2.35601019859,0.0655294117647,0.0,0.0,0.0,0.0,0.0,0.0,0.0,0.0,0.0,0.0,0.0,0.0,0.0,0.0,0.0
8.100112,-0.613685488701,0.997216403484,-1.26079273224,-0.642037332058,-2.29804563522,-1.60558331013,-2.35601019859,0.0655294117647,0.0,0.0,0.0,0.0,0.0,0.0,0.0,0.0,0.0,0.0,0.0,0.0,0.0,0.0,0.0
8.133427,-0.613685488701,0.997216403484,-1.26079273224,-0.642037332058,-2.29804563522,-1.60558331013,-2.35601019859,0.0655294117647,0.0,0.0,0.0,0.0,0.0,0.0,0.0,0.0,0.0,0.0,0.0,0.0,0.0,0.0,0.0
8.166758,-0.613685488701,0.997216403484,-1.26079273224,-0.642037332058,-2.29804563522,-1.60558331013,-2.35601019859,0.0655294117647,0.0,0.0,0.0,0.0,0.0,0.0,0.0,0.0,0.0,0.0,0.0,0.0,0.0,0.0,0.0
8.200098,-0.613685488701,0.997216403484,-1.26079273224,-0.642037332058,-2.29804563522,-1.60558331013,-2.35601019859,0.0655294117647,0.0,0.0,0.0,0.0,0.0,0.0,0.0,0.0,0.0,0.0,0.0,0.0,0.0,0.0,0.0
8.233430,-0.613685488701,0.997216403484,-1.26079273224,-0.642037332058,-2.29804563522,-1.60558331013,-2.35601019859,0.0655294117647,0.0,0.0,0.0,0.0,0.0,0.0,0.0,0.0,0.0,0.0,0.0,0.0,0.0,0.0,0.0
8.266760,-0.613685488701,0.997216403484,-1.26079273224,-0.642037332058,-2.29804563522,-1.60558331013,-2.35601019859,0.0655294117647,0.0,0.0,0.0,0.0,0.0,0.0,0.0,0.0,0.0,0.0,0.0,0.0,0.0,0.0,0.0
8.300095,-0.613685488701,0.997216403484,-1.26079273224,-0.642037332058,-2.29804563522,-1.60558331013,-2.35601019859,0.0655294117647,0.0,0.0,0.0,0.0,0.0,0.0,0.0,0.0,0.0,0.0,0.0,0.0,0.0,0.0,0.0
8.333439,-0.613685488701,0.997216403484,-1.26079273224,-0.642037332058,-2.29804563522,-1.60558331013,-2.35601019859,0.0655294117647,0.0,0.0,0.0,0.0,0.0,0.0,0.0,0.0,0.0,0.0,0.0,0.0,0.0,0.0,0.0
8.366755,-0.613685488701,0.997216403484,-1.26079273224,-0.642037332058,-2.29804563522,-1.60558331013,-2.35601019859,0.0655294117647,0.0,0.0,0.0,0.0,0.0,0.0,0.0,0.0,0.0,0.0,0.0,0.0,0.0,0.0,0.0
8.400109,-0.613685488701,0.997216403484,-1.26079273224,-0.642037332058,-2.29804563522,-1.60558331013,-2.35601019859,0.0655294117647,0.0,0.0,0.0,0.0,0.0,0.0,0.0,0.0,0.0,0.0,0.0,0.0,0.0,0.0,0.0
8.433434,-0.613685488701,0.997216403484,-1.26079273224,-0.642037332058,-2.29804563522,-1.60558331013,-2.35601019859,0.0655294117647,0.0,0.0,0.0,0.0,0.0,0.0,0.0,0.0,0.0,0.0,0.0,0.0,0.0,0.0,0.0
8.466765,-0.613685488701,0.997216403484,-1.26079273224,-0.642037332058,-2.29804563522,-1.60558331013,-2.35601019859,0.0655294117647,0.0,0.0,0.0,0.0,0.0,0.0,0.0,0.0,0.0,0.0,0.0,0.0,0.0,0.0,0.0
8.500095,-0.613685488701,0.997216403484,-1.26079273224,-0.642037332058,-2.29804563522,-1.60558331013,-2.35601019859,0.0655294117647,0.0,0.0,0.0,0.0,0.0,0.0,0.0,0.0,0.0,0.0,0.0,0.0,0.0,0.0,0.0
8.533443,-0.613685488701,0.997216403484,-1.26079273224,-0.642037332058,-2.29804563522,-1.60558331013,-2.35601019859,0.0655294117647,0.0,0.0,0.0,0.0,0.0,0.0,0.0,0.0,0.0,0.0,0.0,0.0,0.0,0.0,0.0
8.566771,-0.613686800003,0.997216403484,-1.26079273224,-0.642037332058,-2.29804563522,-1.60558331013,-2.35601019859,0.0655294117647,0.0,0.0,0.0,0.0,0.0,0.0,0.0,0.0,0.0,0.0,0.0,0.0,0.0,0.0,0.0
8.600135,-0.613685488701,0.997216403484,-1.26079273224,-0.642037332058,-2.29804563522,-1.60558331013,-2.35601019859,0.0655294117647,0.0,0.0,0.0,0.0,0.0,0.0,0.0,0.0,0.0,0.0,0.0,0.0,0.0,0.0,0.0
8.633430,-0.613685488701,0.997216403484,-1.26079273224,-0.642037332058,-2.29804563522,-1.60558331013,-2.35601019859,0.0655294117647,0.0,0.0,0.0,0.0,0.0,0.0,0.0,0.0,0.0,0.0,0.0,0.0,0.0,0.0,0.0
8.666761,-0.613686800003,0.997216403484,-1.26079273224,-0.642037332058,-2.29804563522,-1.60558331013,-2.35601019859,0.0655294117647,0.0,0.0,0.0,0.0,0.0,0.0,0.0,0.0,0.0,0.0,0.0,0.0,0.0,0.0,0.0
8.700109,-0.613685488701,0.997216403484,-1.26079273224,-0.642037332058,-2.29804563522,-1.60558331013,-2.35601019859,0.0655294117647,0.0,0.0,0.0,0.0,0.0,0.0,0.0,0.0,0.0,0.0,0.0,0.0,0.0,0.0,0.0
8.733443,-0.613685488701,0.997216403484,-1.26079273224,-0.642037332058,-2.29804563522,-1.60558331013,-2.35601019859,0.0655294117647,0.0,0.0,0.0,0.0,0.0,0.0,0.0,0.0,0.0,0.0,0.0,0.0,0.0,0.0,0.0
8.766769,-0.613685488701,0.997216403484,-1.26079273224,-0.642037332058,-2.29804563522,-1.60558331013,-2.35601019859,0.0655294117647,0.0,0.0,0.0,0.0,0.0,0.0,0.0,0.0,0.0,0.0,0.0,0.0,0.0,0.0,0.0
8.800095,-0.613685488701,0.997216403484,-1.26079273224,-0.642037332058,-2.29804563522,-1.60558331013,-2.35601019859,0.0655294117647,0.0,0.0,0.0,0.0,0.0,0.0,0.0,0.0,0.0,0.0,0.0,0.0,0.0,0.0,0.0
8.833445,-0.613685488701,0.997216403484,-1.26079273224,-0.642037332058,-2.29804563522,-1.60558331013,-2.35601019859,0.0655294117647,0.0,0.0,0.0,0.0,0.0,0.0,0.0,0.0,0.0,0.0,0.0,0.0,0.0,0.0,0.0
8.866760,-0.613685488701,0.997216403484,-1.26079273224,-0.642037332058,-2.29804563522,-1.60558331013,-2.35601019859,0.0655294117647,0.0,0.0,0.0,0.0,0.0,0.0,0.0,0.0,0.0,0.0,0.0,0.0,0.0,0.0,0.0
8.900102,-0.613685488701,0.997216403484,-1.26079273224,-0.642037332058,-2.29804563522,-1.60558331013,-2.35601019859,0.0655294117647,0.0,0.0,0.0,0.0,0.0,0.0,0.0,0.0,0.0,0.0,0.0,0.0,0.0,0.0,0.0
8.933426,-0.613685488701,0.997216403484,-1.26079273224,-0.642037332058,-2.29804563522,-1.60558331013,-2.35601019859,0.0655294117647,0.0,0.0,0.0,0.0,0.0,0.0,0.0,0.0,0.0,0.0,0.0,0.0,0.0,0.0,0.0
8.966763,-0.613685488701,0.997216403484,-1.26079273224,-0.642037332058,-2.29804563522,-1.60558331013,-2.35601019859,0.0655294117647,0.0,0.0,0.0,0.0,0.0,0.0,0.0,0.0,0.0,0.0,0.0,0.0,0.0,0.0,0.0
9.000101,-0.613685488701,0.997216403484,-1.26079273224,-0.642037332058,-2.29804563522,-1.60558331013,-2.35601019859,0.0655294117647,0.0,0.0,0.0,0.0,0.0,0.0,0.0,0.0,0.0,0.0,0.0,0.0,0.0,0.0,0.0
9.033428,-0.613685488701,0.997216403484,-1.26079273224,-0.642037332058,-2.29804563522,-1.60558331013,-2.35601019859,0.0655294117647,0.0,0.0,0.0,0.0,0.0,0.0,0.0,0.0,0.0,0.0,0.0,0.0,0.0,0.0,0.0
9.066760,-0.613685488701,0.997216403484,-1.26079273224,-0.642037332058,-2.29804563522,-1.60558331013,-2.35601019859,0.0655294117647,0.0,0.0,0.0,0.0,0.0,0.0,0.0,0.0,0.0,0.0,0.0,0.0,0.0,0.0,0.0
9.100085,-0.613685488701,0.997216403484,-1.26079273224,-0.642037332058,-2.29804563522,-1.60558331013,-2.35601019859,0.0655294117647,0.0,0.0,0.0,0.0,0.0,0.0,0.0,0.0,0.0,0.0,0.0,0.0,0.0,0.0,0.0
9.133432,-0.613685488701,0.997216403484,-1.26079273224,-0.642037332058,-2.29804563522,-1.60558331013,-2.35601019859,0.0655294117647,0.0,0.0,0.0,0.0,0.0,0.0,0.0,0.0,0.0,0.0,0.0,0.0,0.0,0.0,0.0
9.166760,-0.613685488701,0.997216403484,-1.26079273224,-0.642037332058,-2.29804563522,-1.60558331013,-2.35601019859,0.0655294117647,0.0,0.0,0.0,0.0,0.0,0.0,0.0,0.0,0.0,0.0,0.0,0.0,0.0,0.0,0.0
9.200109,-0.613685488701,0.997216403484,-1.26079273224,-0.642037332058,-2.29804563522,-1.60558331013,-2.35601019859,0.0655294117647,0.0,0.0,0.0,0.0,0.0,0.0,0.0,0.0,0.0,0.0,0.0,0.0,0.0,0.0,0.0
9.233456,-0.613685488701,0.997216403484,-1.26079273224,-0.642037332058,-2.29804563522,-1.60558331013,-2.35601019859,0.0655294117647,0.0,0.0,0.0,0.0,0.0,0.0,0.0,0.0,0.0,0.0,0.0,0.0,0.0,0.0,0.0
9.266771,-0.613685488701,0.997216403484,-1.26079273224,-0.642037332058,-2.29804563522,-1.60558331013,-2.35601019859,0.0655294117647,0.0,0.0,0.0,0.0,0.0,0.0,0.0,0.0,0.0,0.0,0.0,0.0,0.0,0.0,0.0
9.300095,-0.613685488701,0.997216403484,-1.26079273224,-0.642037332058,-2.29804563522,-1.60558331013,-2.35601019859,0.0655294117647,0.0,0.0,0.0,0.0,0.0,0.0,0.0,0.0,0.0,0.0,0.0,0.0,0.0,0.0,0.0
9.333433,-0.613685488701,0.997216403484,-1.26079273224,-0.642037332058,-2.29804563522,-1.60558331013,-2.35601019859,0.0655294117647,0.0,0.0,0.0,0.0,0.0,0.0,0.0,0.0,0.0,0.0,0.0,0.0,0.0,0.0,0.0
9.366759,-0.613685488701,0.997216403484,-1.26079273224,-0.642037332058,-2.29804563522,-1.60558331013,-2.35601019859,0.0655294117647,0.0,0.0,0.0,0.0,0.0,0.0,0.0,0.0,0.0,0.0,0.0,0.0,0.0,0.0,0.0
9.400095,-0.613685488701,0.997216403484,-1.26079273224,-0.642037332058,-2.29804563522,-1.60558331013,-2.35601019859,0.0655294117647,0.0,0.0,0.0,0.0,0.0,0.0,0.0,0.0,0.0,0.0,0.0,0.0,0.0,0.0,0.0
9.433433,-0.613685488701,0.997216403484,-1.26079273224,-0.642037332058,-2.29804563522,-1.60558331013,-2.35601019859,0.0655294117647,0.0,0.0,0.0,0.0,0.0,0.0,0.0,0.0,0.0,0.0,0.0,0.0,0.0,0.0,0.0
9.466738,-0.613685488701,0.997216403484,-1.26079273224,-0.642037332058,-2.29804563522,-1.60558331013,-2.35601019859,0.0655294117647,0.0,0.0,0.0,0.0,0.0,0.0,0.0,0.0,0.0,0.0,0.0,0.0,0.0,0.0,0.0
9.500090,-0.613685488701,0.997216403484,-1.26079273224,-0.642037332058,-2.29804563522,-1.60558331013,-2.35601019859,0.0655294117647,0.0,0.0,0.0,0.0,0.0,0.0,0.0,0.0,0.0,0.0,0.0,0.0,0.0,0.0,0.0
9.533429,-0.613685488701,0.997216403484,-1.26079273224,-0.642037332058,-2.29804563522,-1.60558331013,-2.35601019859,0.0655294117647,0.0,0.0,0.0,0.0,0.0,0.0,0.0,0.0,0.0,0.0,0.0,0.0,0.0,0.0,0.0
9.566761,-0.613685488701,0.997216403484,-1.26079273224,-0.642037332058,-2.29804563522,-1.60558331013,-2.35601019859,0.0655294117647,0.0,0.0,0.0,0.0,0.0,0.0,0.0,0.0,0.0,0.0,0.0,0.0,0.0,0.0,0.0
9.600101,-0.613685488701,0.997216403484,-1.26079273224,-0.642037332058,-2.29804563522,-1.60558331013,-2.35601019859,0.0655294117647,0.0,0.0,0.0,0.0,0.0,0.0,0.0,0.0,0.0,0.0,0.0,0.0,0.0,0.0,0.0
9.633434,-0.613685488701,0.997216403484,-1.26079273224,-0.642037332058,-2.29804563522,-1.60558331013,-2.35601019859,0.0655294117647,0.0,0.0,0.0,0.0,0.0,0.0,0.0,0.0,0.0,0.0,0.0,0.0,0.0,0.0,0.0
9.666713,-0.613685488701,0.997216403484,-1.26079273224,-0.642037332058,-2.29804563522,-1.60558331013,-2.35601019859,0.0655294117647,0.0,0.0,0.0,0.0,0.0,0.0,0.0,0.0,0.0,0.0,0.0,0.0,0.0,0.0,0.0
9.700097,-0.613685488701,0.997216403484,-1.26079273224,-0.642037332058,-2.29804563522,-1.60558331013,-2.35601019859,0.0655294117647,0.0,0.0,0.0,0.0,0.0,0.0,0.0,0.0,0.0,0.0,0.0,0.0,0.0,0.0,0.0
9.733430,-0.613685488701,0.997216403484,-1.26079273224,-0.642037332058,-2.29804563522,-1.60558331013,-2.35601019859,0.0655294117647,0.0,0.0,0.0,0.0,0.0,0.0,0.0,0.0,0.0,0.0,0.0,0.0,0.0,0.0,0.0
9.766764,-0.613685488701,0.997216403484,-1.26079273224,-0.642037332058,-2.29804563522,-1.60558331013,-2.35601019859,0.0655294117647,0.0,0.0,0.0,0.0,0.0,0.0,0.0,0.0,0.0,0.0,0.0,0.0,0.0,0.0,0.0
9.800092,-0.613685488701,0.997216403484,-1.26079273224,-0.642037332058,-2.29804563522,-1.60558331013,-2.35601019859,0.0655294117647,0.0,0.0,0.0,0.0,0.0,0.0,0.0,0.0,0.0,0.0,0.0,0.0,0.0,0.0,0.0
9.833428,-0.613685488701,0.997216403484,-1.26079273224,-0.642037332058,-2.29804563522,-1.60558331013,-2.35601019859,0.0655294117647,0.0,0.0,0.0,0.0,0.0,0.0,0.0,0.0,0.0,0.0,0.0,0.0,0.0,0.0,0.0
9.866759,-0.613685488701,0.997216403484,-1.26079273224,-0.642037332058,-2.29804563522,-1.60558331013,-2.35601019859,0.0655294117647,0.0,0.0,0.0,0.0,0.0,0.0,0.0,0.0,0.0,0.0,0.0,0.0,0.0,0.0,0.0
9.900127,-0.613685488701,0.997216403484,-1.26079273224,-0.642037332058,-2.29804563522,-1.60558331013,-2.35601019859,0.0655294117647,0.0,0.0,0.0,0.0,0.0,0.0,0.0,0.0,0.0,0.0,0.0,0.0,0.0,0.0,0.0
9.933443,-0.613685488701,0.997216403484,-1.26079273224,-0.642037332058,-2.29804563522,-1.60558331013,-2.35601019859,0.0655294117647,0.0,0.0,0.0,0.0,0.0,0.0,0.0,0.0,0.0,0.0,0.0,0.0,0.0,0.0,0.0
9.966764,-0.613685488701,0.997216403484,-1.26079273224,-0.642037332058,-2.29804563522,-1.60558331013,-2.35601019859,0.0655294117647,0.0,0.0,0.0,0.0,0.0,0.0,0.0,0.0,0.0,0.0,0.0,0.0,0.0,0.0,0.0
10.000100,-0.613685488701,0.997216403484,-1.26079273224,-0.642037332058,-2.29804563522,-1.60558331013,-2.35601019859,0.0655294117647,0.0,0.0,0.0,0.0,0.0,0.0,0.0,0.0,0.0,0.0,0.0,0.0,0.0,0.0,0.0
10.033455,-0.613685488701,0.997216403484,-1.26079273224,-0.642037332058,-2.29804563522,-1.60558331013,-2.35601019859,0.0655294117647,0.0,0.0,0.0,0.0,0.0,0.0,0.0,0.0,0.0,0.0,0.0,0.0,0.0,0.0,0.0
10.066766,-0.613685488701,0.997216403484,-1.26079273224,-0.642037332058,-2.29804563522,-1.60558331013,-2.35601019859,0.0655294117647,0.0,0.0,0.0,0.0,0.0,0.0,0.0,0.0,0.0,0.0,0.0,0.0,0.0,0.0,0.0
10.100093,-0.613685488701,0.997216403484,-1.26079273224,-0.642037332058,-2.29804563522,-1.60558331013,-2.35601019859,0.0655294117647,0.0,0.0,0.0,0.0,0.0,0.0,0.0,0.0,0.0,0.0,0.0,0.0,0.0,0.0,0.0
10.133431,-0.613685488701,0.997216403484,-1.26079273224,-0.642037332058,-2.29804563522,-1.60558331013,-2.35601019859,0.0655294117647,0.0,0.0,0.0,0.0,0.0,0.0,0.0,0.0,0.0,0.0,0.0,0.0,0.0,0.0,0.0
10.166771,-0.613685488701,0.997216403484,-1.26079273224,-0.642037332058,-2.29804563522,-1.60558331013,-2.35601019859,0.0655294117647,0.0,0.0,0.0,0.0,0.0,0.0,0.0,0.0,0.0,0.0,0.0,0.0,0.0,0.0,0.0
10.200091,-0.613685488701,0.997216403484,-1.26079273224,-0.642037332058,-2.29804563522,-1.60558331013,-2.35601019859,0.0655294117647,0.0,0.0,0.0,0.0,0.0,0.0,0.0,0.0,0.0,0.0,0.0,0.0,0.0,0.0,0.0
10.233436,-0.613685488701,0.997216403484,-1.26079273224,-0.642037332058,-2.29804563522,-1.60558331013,-2.35601019859,0.0655294117647,0.0,0.0,0.0,0.0,0.0,0.0,0.0,0.0,0.0,0.0,0.0,0.0,0.0,0.0,0.0
10.266758,-0.613686800003,0.997216403484,-1.26079273224,-0.642037332058,-2.29804563522,-1.60558331013,-2.35601019859,0.0655294117647,0.0,0.0,0.0,0.0,0.0,0.0,0.0,0.0,0.0,0.0,0.0,0.0,0.0,0.0,0.0
10.300094,-0.613685488701,0.997216403484,-1.26079273224,-0.642037332058,-2.29804563522,-1.60558331013,-2.35601019859,0.0655294117647,0.0,0.0,0.0,0.0,0.0,0.0,0.0,0.0,0.0,0.0,0.0,0.0,0.0,0.0,0.0
10.333446,-0.613685488701,0.997216403484,-1.26079273224,-0.642037332058,-2.29804563522,-1.60558331013,-2.35601019859,0.0655294117647,0.0,0.0,0.0,0.0,0.0,0.0,0.0,0.0,0.0,0.0,0.0,0.0,0.0,0.0,0.0
10.366778,-0.613685488701,0.997216403484,-1.26079273224,-0.642037332058,-2.29804563522,-1.60558331013,-2.35601019859,0.0655294117647,0.0,0.0,0.0,0.0,0.0,0.0,0.0,0.0,0.0,0.0,0.0,0.0,0.0,0.0,0.0
10.400100,-0.613686800003,0.997216403484,-1.26079273224,-0.642037332058,-2.29804563522,-1.60558331013,-2.35601019859,0.0655294117647,0.0,0.0,0.0,0.0,0.0,0.0,0.0,0.0,0.0,0.0,0.0,0.0,0.0,0.0,0.0
10.433427,-0.613685488701,0.997216403484,-1.26079273224,-0.642037332058,-2.29804563522,-1.60558331013,-2.35601019859,0.0655294117647,0.0,0.0,0.0,0.0,0.0,0.0,0.0,0.0,0.0,0.0,0.0,0.0,0.0,0.0,0.0
10.466762,-0.613686800003,0.997216403484,-1.26079273224,-0.642037332058,-2.29804563522,-1.60558331013,-2.35601019859,0.0655294117647,0.0,0.0,0.0,0.0,0.0,0.0,0.0,0.0,0.0,0.0,0.0,0.0,0.0,0.0,0.0
10.500075,-0.613685488701,0.997216403484,-1.26079273224,-0.642037332058,-2.29804563522,-1.60558331013,-2.35601019859,0.0655294117647,0.0,0.0,0.0,0.0,0.0,0.0,0.0,0.0,0.0,0.0,0.0,0.0,0.0,0.0,0.0
10.533434,-0.613685488701,0.997216403484,-1.26079273224,-0.642037332058,-2.29804563522,-1.60558331013,-2.35601019859,0.0655294117647,0.0,0.0,0.0,0.0,0.0,0.0,0.0,0.0,0.0,0.0,0.0,0.0,0.0,0.0,0.0
10.566770,-0.613685488701,0.997216403484,-1.26079273224,-0.642037332058,-2.29804563522,-1.60558331013,-2.35601019859,0.0655294117647,0.0,0.0,0.0,0.0,0.0,0.0,0.0,0.0,0.0,0.0,0.0,0.0,0.0,0.0,0.0
10.600103,-0.613685488701,0.997216403484,-1.26079273224,-0.642037332058,-2.29804563522,-1.60558331013,-2.35601019859,0.0655294117647,0.0,0.0,0.0,0.0,0.0,0.0,0.0,0.0,0.0,0.0,0.0,0.0,0.0,0.0,0.0
10.633433,-0.613685488701,0.997216403484,-1.26079273224,-0.642037332058,-2.29804563522,-1.60558331013,-2.35601019859,0.0655294117647,0.0,0.0,0.0,0.0,0.0,0.0,0.0,0.0,0.0,0.0,0.0,0.0,0.0,0.0,0.0
10.666758,-0.613685488701,0.997216403484,-1.26079273224,-0.642037332058,-2.29804563522,-1.60558331013,-2.35601019859,0.0655294117647,0.0,0.0,0.0,0.0,0.0,0.0,0.0,0.0,0.0,0.0,0.0,0.0,0.0,0.0,0.0
10.700091,-0.613685488701,0.997216403484,-1.26079273224,-0.642037332058,-2.29804563522,-1.60558331013,-2.35601019859,0.0655294117647,0.0,0.0,0.0,0.0,0.0,0.0,0.0,0.0,0.0,0.0,0.0,0.0,0.0,0.0,0.0
10.733449,-0.613686800003,0.997216403484,-1.26079273224,-0.642037332058,-2.29804563522,-1.60558331013,-2.35601019859,0.0655294117647,0.0,0.0,0.0,0.0,0.0,0.0,0.0,0.0,0.0,0.0,0.0,0.0,0.0,0.0,0.0
10.766759,-0.613685488701,0.997216403484,-1.26079273224,-0.642037332058,-2.29804563522,-1.60558331013,-2.35601019859,0.0655294117647,0.0,0.0,0.0,0.0,0.0,0.0,0.0,0.0,0.0,0.0,0.0,0.0,0.0,0.0,0.0
10.800106,-0.613685488701,0.997216403484,-1.26079273224,-0.642037332058,-2.29804563522,-1.60558331013,-2.35601019859,0.0655294117647,0.0,0.0,0.0,0.0,0.0,0.0,0.0,0.0,0.0,0.0,0.0,0.0,0.0,0.0,0.0
10.833435,-0.613686800003,0.997216403484,-1.26079273224,-0.642037332058,-2.29804563522,-1.60558331013,-2.35601019859,0.0655294117647,0.0,0.0,0.0,0.0,0.0,0.0,0.0,0.0,0.0,0.0,0.0,0.0,0.0,0.0,0.0
10.866762,-0.613685488701,0.997216403484,-1.26079273224,-0.642037332058,-2.29804563522,-1.60558331013,-2.35601019859,0.0655294117647,0.0,0.0,0.0,0.0,0.0,0.0,0.0,0.0,0.0,0.0,0.0,0.0,0.0,0.0,0.0
10.900095,-0.613685488701,0.997216403484,-1.26079273224,-0.642037332058,-2.29804563522,-1.60558331013,-2.35601019859,0.0655294117647,0.0,0.0,0.0,0.0,0.0,0.0,0.0,0.0,0.0,0.0,0.0,0.0,0.0,0.0,0.0
10.933429,-0.613685488701,0.997216403484,-1.26079273224,-0.642037332058,-2.29804563522,-1.60558331013,-2.35601019859,0.0655294117647,0.0,0.0,0.0,0.0,0.0,0.0,0.0,0.0,0.0,0.0,0.0,0.0,0.0,0.0,0.0
10.966776,-0.613685488701,0.997216403484,-1.26079273224,-0.642037332058,-2.29804563522,-1.60558331013,-2.35601019859,0.0655294117647,0.0,0.0,0.0,0.0,0.0,0.0,0.0,0.0,0.0,0.0,0.0,0.0,0.0,0.0,0.0
11.000101,-0.613685488701,0.997216403484,-1.26079273224,-0.642037332058,-2.29804563522,-1.60558331013,-2.35601019859,0.0655294117647,0.0,0.0,0.0,0.0,0.0,0.0,0.0,0.0,0.0,0.0,0.0,0.0,0.0,0.0,0.0
11.033429,-0.613686800003,0.997216403484,-1.26079273224,-0.642037332058,-2.29804563522,-1.60558331013,-2.35601019859,0.0655294117647,0.0,0.0,0.0,0.0,0.0,0.0,0.0,0.0,0.0,0.0,0.0,0.0,0.0,0.0,0.0
11.066767,-0.613685488701,0.997216403484,-1.26079273224,-0.642037332058,-2.29804563522,-1.60558331013,-2.35601019859,0.0655294117647,0.0,0.0,0.0,0.0,0.0,0.0,0.0,0.0,0.0,0.0,0.0,0.0,0.0,0.0,0.0
11.100100,-0.613685488701,0.997216403484,-1.26079273224,-0.642037332058,-2.29804563522,-1.60558331013,-2.35601019859,0.0655294117647,0.0,0.0,0.0,0.0,0.0,0.0,0.0,0.0,0.0,0.0,0.0,0.0,0.0,0.0,0.0
11.133421,-0.613685488701,0.997216403484,-1.26079273224,-0.642037332058,-2.29804563522,-1.60558331013,-2.35601019859,0.0655294117647,0.0,0.0,0.0,0.0,0.0,0.0,0.0,0.0,0.0,0.0,0.0,0.0,0.0,0.0,0.0
11.166774,-0.613685488701,0.997216403484,-1.26079273224,-0.642037332058,-2.29804563522,-1.60558331013,-2.35601019859,0.0655294117647,0.0,0.0,0.0,0.0,0.0,0.0,0.0,0.0,0.0,0.0,0.0,0.0,0.0,0.0,0.0
11.200096,-0.613685488701,0.997216403484,-1.26079273224,-0.642037332058,-2.29804563522,-1.60558331013,-2.35601019859,0.0655294117647,0.0,0.0,0.0,0.0,0.0,0.0,0.0,0.0,0.0,0.0,0.0,0.0,0.0,0.0,0.0
11.233430,-0.613685488701,0.997216403484,-1.26079273224,-0.642037332058,-2.29804563522,-1.60558331013,-2.35601019859,0.0655294117647,0.0,0.0,0.0,0.0,0.0,0.0,0.0,0.0,0.0,0.0,0.0,0.0,0.0,0.0,0.0
11.266789,-0.613685488701,0.997216403484,-1.26079273224,-0.642037332058,-2.29804563522,-1.60558331013,-2.35601019859,0.0655294117647,0.0,0.0,0.0,0.0,0.0,0.0,0.0,0.0,0.0,0.0,0.0,0.0,0.0,0.0,0.0
11.300119,-0.613685488701,0.997216403484,-1.26079273224,-0.642037332058,-2.29804563522,-1.60558331013,-2.35601019859,0.0655294117647,0.0,0.0,0.0,0.0,0.0,0.0,0.0,0.0,0.0,0.0,0.0,0.0,0.0,0.0,0.0
11.333428,-0.613685488701,0.997216403484,-1.26079273224,-0.642037332058,-2.29804563522,-1.60558331013,-2.35601019859,0.0655294117647,0.0,0.0,0.0,0.0,0.0,0.0,0.0,0.0,0.0,0.0,0.0,0.0,0.0,0.0,0.0
11.366765,-0.613685488701,0.997216403484,-1.26079273224,-0.642037332058,-2.29804563522,-1.60558331013,-2.35601019859,0.0655294117647,0.0,0.0,0.0,0.0,0.0,0.0,0.0,0.0,0.0,0.0,0.0,0.0,0.0,0.0,0.0
11.400100,-0.613685488701,0.997216403484,-1.26079273224,-0.642037332058,-2.29804563522,-1.60558331013,-2.35601019859,0.0655294117647,0.0,0.0,0.0,0.0,0.0,0.0,0.0,0.0,0.0,0.0,0.0,0.0,0.0,0.0,0.0
11.433434,-0.613685488701,0.997216403484,-1.26079273224,-0.642037332058,-2.29804563522,-1.60558331013,-2.35601019859,0.0655294117647,0.0,0.0,0.0,0.0,0.0,0.0,0.0,0.0,0.0,0.0,0.0,0.0,0.0,0.0,0.0
11.466759,-0.613685488701,0.997216403484,-1.26079273224,-0.642037332058,-2.29804563522,-1.60558331013,-2.35601019859,0.0655294117647,0.0,0.0,0.0,0.0,0.0,0.0,0.0,0.0,0.0,0.0,0.0,0.0,0.0,0.0,0.0
11.500107,-0.613685488701,0.997216403484,-1.26079273224,-0.642037332058,-2.29804563522,-1.60558331013,-2.35601019859,0.0655294117647,0.0,0.0,0.0,0.0,0.0,0.0,0.0,0.0,0.0,0.0,0.0,0.0,0.0,0.0,0.0
11.533426,-0.613685488701,0.997216403484,-1.26079273224,-0.642037332058,-2.29804563522,-1.60558331013,-2.35601019859,0.0655294117647,0.0,0.0,0.0,0.0,0.0,0.0,0.0,0.0,0.0,0.0,0.0,0.0,0.0,0.0,0.0
11.566764,-0.613685488701,0.997216403484,-1.26079273224,-0.642037332058,-2.29804563522,-1.60558331013,-2.35601019859,0.0655294117647,0.0,0.0,0.0,0.0,0.0,0.0,0.0,0.0,0.0,0.0,0.0,0.0,0.0,0.0,0.0
11.600149,-0.613685488701,0.997216403484,-1.26079273224,-0.642037332058,-2.29804563522,-1.60558331013,-2.35601019859,0.0655294117647,0.0,0.0,0.0,0.0,0.0,0.0,0.0,0.0,0.0,0.0,0.0,0.0,0.0,0.0,0.0
11.633446,-0.613685488701,0.997216403484,-1.26079273224,-0.642037332058,-2.29804563522,-1.60558331013,-2.35601019859,0.0655294117647,0.0,0.0,0.0,0.0,0.0,0.0,0.0,0.0,0.0,0.0,0.0,0.0,0.0,0.0,0.0
11.666760,-0.613685488701,0.997216403484,-1.26079273224,-0.642037332058,-2.29804563522,-1.60558331013,-2.35601019859,0.0655294117647,0.0,0.0,0.0,0.0,0.0,0.0,0.0,0.0,0.0,0.0,0.0,0.0,0.0,0.0,0.0
11.700094,-0.613685488701,0.997216403484,-1.26079273224,-0.642037332058,-2.29804563522,-1.60558331013,-2.35601019859,0.0655294117647,0.0,0.0,0.0,0.0,0.0,0.0,0.0,0.0,0.0,0.0,0.0,0.0,0.0,0.0,0.0
11.733451,-0.613685488701,0.997216403484,-1.26079273224,-0.642037332058,-2.29804563522,-1.60558331013,-2.35601019859,0.0655294117647,0.0,0.0,0.0,0.0,0.0,0.0,0.0,0.0,0.0,0.0,0.0,0.0,0.0,0.0,0.0
11.766757,-0.613685488701,0.997216403484,-1.26079273224,-0.642037332058,-2.29804563522,-1.60558331013,-2.35601019859,0.0655294117647,0.0,0.0,0.0,0.0,0.0,0.0,0.0,0.0,0.0,0.0,0.0,0.0,0.0,0.0,0.0
11.800097,-0.613685488701,0.997216403484,-1.26079273224,-0.642037332058,-2.29804563522,-1.60558331013,-2.35601019859,0.0655294117647,0.0,0.0,0.0,0.0,0.0,0.0,0.0,0.0,0.0,0.0,0.0,0.0,0.0,0.0,0.0
11.833434,-0.613685488701,0.997216403484,-1.26079273224,-0.642037332058,-2.29804563522,-1.60558331013,-2.35601019859,0.0655294117647,0.0,0.0,0.0,0.0,0.0,0.0,0.0,0.0,0.0,0.0,0.0,0.0,0.0,0.0,0.0
11.866748,-0.613685488701,0.997216403484,-1.26079273224,-0.642037332058,-2.29804563522,-1.60558331013,-2.35601019859,0.0655294117647,0.0,0.0,0.0,0.0,0.0,0.0,0.0,0.0,0.0,0.0,0.0,0.0,0.0,0.0,0.0
11.900097,-0.613685488701,0.997216403484,-1.26079273224,-0.642037332058,-2.29804563522,-1.60558331013,-2.35601019859,0.0655294117647,0.0,0.0,0.0,0.0,0.0,0.0,0.0,0.0,0.0,0.0,0.0,0.0,0.0,0.0,0.0
11.933435,-0.613685488701,0.997216403484,-1.26079273224,-0.642037332058,-2.29804563522,-1.60558331013,-2.35601019859,0.0655294117647,0.0,0.0,0.0,0.0,0.0,0.0,0.0,0.0,0.0,0.0,0.0,0.0,0.0,0.0,0.0
11.966760,-0.613685488701,0.997216403484,-1.26079273224,-0.642037332058,-2.29804563522,-1.60558331013,-2.35601019859,0.0655294117647,0.0,0.0,0.0,0.0,0.0,0.0,0.0,0.0,0.0,0.0,0.0,0.0,0.0,0.0,0.0
12.000106,-0.613685488701,0.997216403484,-1.26079273224,-0.642037332058,-2.29804563522,-1.60558331013,-2.35601019859,0.0655294117647,0.0,0.0,0.0,0.0,0.0,0.0,0.0,0.0,0.0,0.0,0.0,0.0,0.0,0.0,0.0
12.033438,-0.613685488701,0.997216403484,-1.26079273224,-0.642037332058,-2.29804563522,-1.60558331013,-2.35601019859,0.0655294117647,0.0,0.0,0.0,0.0,0.0,0.0,0.0,0.0,0.0,0.0,0.0,0.0,0.0,0.0,0.0
12.066767,-0.613686800003,0.997216403484,-1.26079273224,-0.642037332058,-2.29804563522,-1.60558331013,-2.35601019859,0.0655294117647,0.0,0.0,0.0,0.0,0.0,0.0,0.0,0.0,0.0,0.0,0.0,0.0,0.0,0.0,0.0
12.100098,-0.613685488701,0.997216403484,-1.26079273224,-0.642037332058,-2.29804563522,-1.60558331013,-2.35601019859,0.0655294117647,0.0,0.0,0.0,0.0,0.0,0.0,0.0,0.0,0.0,0.0,0.0,0.0,0.0,0.0,0.0
12.133430,-0.613685488701,0.997216403484,-1.26079273224,-0.642037332058,-2.29804563522,-1.60558331013,-2.35601019859,0.0655294117647,0.0,0.0,0.0,0.0,0.0,0.0,0.0,0.0,0.0,0.0,0.0,0.0,0.0,0.0,0.0
12.166761,-0.613685488701,0.997216403484,-1.26079273224,-0.642037332058,-2.29804563522,-1.60558331013,-2.35601019859,0.0655294117647,0.0,0.0,0.0,0.0,0.0,0.0,0.0,0.0,0.0,0.0,0.0,0.0,0.0,0.0,0.0
12.200095,-0.613685488701,0.997216403484,-1.26079273224,-0.642037332058,-2.29804563522,-1.60558331013,-2.35601019859,0.0655294117647,0.0,0.0,0.0,0.0,0.0,0.0,0.0,0.0,0.0,0.0,0.0,0.0,0.0,0.0,0.0
12.233436,-0.613685488701,0.997216403484,-1.26079273224,-0.642037332058,-2.29804563522,-1.60558331013,-2.35601019859,0.0655294117647,0.0,0.0,0.0,0.0,0.0,0.0,0.0,0.0,0.0,0.0,0.0,0.0,0.0,0.0,0.0
12.266762,-0.613685488701,0.997216403484,-1.26079273224,-0.642037332058,-2.29804563522,-1.60558331013,-2.35601019859,0.0655294117647,0.0,0.0,0.0,0.0,0.0,0.0,0.0,0.0,0.0,0.0,0.0,0.0,0.0,0.0,0.0
12.300111,-0.613685488701,0.997216403484,-1.26079273224,-0.642037332058,-2.29804563522,-1.60558331013,-2.35601019859,0.0655294117647,0.0,0.0,0.0,0.0,0.0,0.0,0.0,0.0,0.0,0.0,0.0,0.0,0.0,0.0,0.0
12.333436,-0.613685488701,0.997216403484,-1.26079273224,-0.642037332058,-2.29804563522,-1.60558331013,-2.35601019859,0.0655294117647,0.0,0.0,0.0,0.0,0.0,0.0,0.0,0.0,0.0,0.0,0.0,0.0,0.0,0.0,0.0
12.366761,-0.613685488701,0.997216403484,-1.26079273224,-0.642037332058,-2.29804563522,-1.60558331013,-2.35601019859,0.0655294117647,0.0,0.0,0.0,0.0,0.0,0.0,0.0,0.0,0.0,0.0,0.0,0.0,0.0,0.0,0.0
12.400140,-0.613685488701,0.997216403484,-1.26079273224,-0.642037332058,-2.29804563522,-1.60558331013,-2.35601019859,0.0655294117647,0.0,0.0,0.0,0.0,0.0,0.0,0.0,0.0,0.0,0.0,0.0,0.0,0.0,0.0,0.0
12.433433,-0.613685488701,0.997216403484,-1.26079273224,-0.642037332058,-2.29804563522,-1.60558331013,-2.35601019859,0.0655294117647,0.0,0.0,0.0,0.0,0.0,0.0,0.0,0.0,0.0,0.0,0.0,0.0,0.0,0.0,0.0
12.466760,-0.613685488701,0.997216403484,-1.26079273224,-0.642037332058,-2.29804563522,-1.60558331013,-2.35601019859,0.0655294117647,0.0,0.0,0.0,0.0,0.0,0.0,0.0,0.0,0.0,0.0,0.0,0.0,0.0,0.0,0.0
12.500092,-0.613685488701,0.997216403484,-1.26079273224,-0.642037332058,-2.29804563522,-1.60558331013,-2.35601019859,0.0655294117647,0.0,0.0,0.0,0.0,0.0,0.0,0.0,0.0,0.0,0.0,0.0,0.0,0.0,0.0,0.0
12.533425,-0.613685488701,0.997216403484,-1.26079273224,-0.642037332058,-2.29804563522,-1.60558331013,-2.35601019859,0.0655294117647,0.0,0.0,0.0,0.0,0.0,0.0,0.0,0.0,0.0,0.0,0.0,0.0,0.0,0.0,0.0
12.566755,-0.613685488701,0.997216403484,-1.26079273224,-0.642037332058,-2.29804563522,-1.60558331013,-2.35601019859,0.0655294117647,0.0,0.0,0.0,0.0,0.0,0.0,0.0,0.0,0.0,0.0,0.0,0.0,0.0,0.0,0.0
12.600095,-0.613685488701,0.997216403484,-1.26079273224,-0.642037332058,-2.29804563522,-1.60558331013,-2.35601019859,0.0655294117647,0.0,0.0,0.0,0.0,0.0,0.0,0.0,0.0,0.0,0.0,0.0,0.0,0.0,0.0,0.0
12.633458,-0.613685488701,0.997216403484,-1.26079273224,-0.642037332058,-2.29804563522,-1.60558331013,-2.35601019859,0.0655294117647,0.0,0.0,0.0,0.0,0.0,0.0,0.0,0.0,0.0,0.0,0.0,0.0,0.0,0.0,0.0
12.666756,-0.613685488701,0.997216403484,-1.26079273224,-0.642037332058,-2.29804563522,-1.60558331013,-2.35601019859,0.0655294117647,0.0,0.0,0.0,0.0,0.0,0.0,0.0,0.0,0.0,0.0,0.0,0.0,0.0,0.0,0.0
12.700095,-0.613685488701,0.997216403484,-1.26079273224,-0.642037332058,-2.29804563522,-1.60558331013,-2.35601019859,0.0655294117647,0.0,0.0,0.0,0.0,0.0,0.0,0.0,0.0,0.0,0.0,0.0,0.0,0.0,0.0,0.0
12.733429,-0.613685488701,0.997216403484,-1.26079273224,-0.642037332058,-2.29804563522,-1.60558331013,-2.35601019859,0.0655294117647,0.0,0.0,0.0,0.0,0.0,0.0,0.0,0.0,0.0,0.0,0.0,0.0,0.0,0.0,0.0
12.766758,-0.613685488701,0.997216403484,-1.26079273224,-0.642037332058,-2.29804563522,-1.60558331013,-2.35601019859,0.0655294117647,0.0,0.0,0.0,0.0,0.0,0.0,0.0,0.0,0.0,0.0,0.0,0.0,0.0,0.0,0.0
12.800101,-0.613685488701,0.997216403484,-1.26079273224,-0.642037332058,-2.29804563522,-1.60558331013,-2.35601019859,0.0655294117647,0.0,0.0,0.0,0.0,0.0,0.0,0.0,0.0,0.0,0.0,0.0,0.0,0.0,0.0,0.0
12.833424,-0.613685488701,0.997216403484,-1.26079273224,-0.642037332058,-2.29804563522,-1.60558331013,-2.35601019859,0.0655294117647,0.0,0.0,0.0,0.0,0.0,0.0,0.0,0.0,0.0,0.0,0.0,0.0,0.0,0.0,0.0
12.866776,-0.613685488701,0.997216403484,-1.26079273224,-0.642037332058,-2.29804563522,-1.60558331013,-2.35601019859,0.0655294117647,0.0,0.0,0.0,0.0,0.0,0.0,0.0,0.0,0.0,0.0,0.0,0.0,0.0,0.0,0.0
12.900092,-0.613685488701,0.997216403484,-1.26079273224,-0.642037332058,-2.29804563522,-1.60558331013,-2.35601019859,0.0655294117647,0.0,0.0,0.0,0.0,0.0,0.0,0.0,0.0,0.0,0.0,0.0,0.0,0.0,0.0,0.0
12.933426,-0.613685488701,0.997216403484,-1.26079273224,-0.642037332058,-2.29804563522,-1.60558331013,-2.35601019859,0.0655294117647,0.0,0.0,0.0,0.0,0.0,0.0,0.0,0.0,0.0,0.0,0.0,0.0,0.0,0.0,0.0
12.966760,-0.613685488701,0.997216403484,-1.26079273224,-0.642037332058,-2.29804563522,-1.60558331013,-2.35601019859,0.0655294117647,0.0,0.0,0.0,0.0,0.0,0.0,0.0,0.0,0.0,0.0,0.0,0.0,0.0,0.0,0.0
13.000099,-0.613685488701,0.997216403484,-1.26079273224,-0.642037332058,-2.29804563522,-1.60558331013,-2.35601019859,0.0655294117647,0.0,0.0,0.0,0.0,0.0,0.0,0.0,0.0,0.0,0.0,0.0,0.0,0.0,0.0,0.0
13.033438,-0.613685488701,0.997216403484,-1.26079273224,-0.642037332058,-2.29804563522,-1.60558331013,-2.35601019859,0.0655294117647,0.0,0.0,0.0,0.0,0.0,0.0,0.0,0.0,0.0,0.0,0.0,0.0,0.0,0.0,0.0
13.066760,-0.613685488701,0.997216403484,-1.26079273224,-0.642037332058,-2.29804563522,-1.60558331013,-2.35601019859,0.0655294117647,0.0,0.0,0.0,0.0,0.0,0.0,0.0,0.0,0.0,0.0,0.0,0.0,0.0,0.0,0.0
13.100103,-0.613685488701,0.997216403484,-1.26079273224,-0.642037332058,-2.29804563522,-1.60558331013,-2.35601019859,0.0655294117647,0.0,0.0,0.0,0.0,0.0,0.0,0.0,0.0,0.0,0.0,0.0,0.0,0.0,0.0,0.0
13.133431,-0.613686800003,0.997216403484,-1.26079273224,-0.642037332058,-2.29804563522,-1.60558331013,-2.35601019859,0.0655294117647,0.0,0.0,0.0,0.0,0.0,0.0,0.0,0.0,0.0,0.0,0.0,0.0,0.0,0.0,0.0
13.166762,-0.613686800003,0.997216403484,-1.26079273224,-0.642037332058,-2.29804563522,-1.60558331013,-2.35601019859,0.0655294117647,0.0,0.0,0.0,0.0,0.0,0.0,0.0,0.0,0.0,0.0,0.0,0.0,0.0,0.0,0.0
13.200104,-0.613685488701,0.997216403484,-1.26079273224,-0.642037332058,-2.29804563522,-1.60558331013,-2.35601019859,0.0655294117647,0.0,0.0,0.0,0.0,0.0,0.0,0.0,0.0,0.0,0.0,0.0,0.0,0.0,0.0,0.0
13.233443,-0.613686800003,0.997216403484,-1.26079273224,-0.642037332058,-2.29804563522,-1.60558331013,-2.35601019859,0.0655294117647,0.0,0.0,0.0,0.0,0.0,0.0,0.0,0.0,0.0,0.0,0.0,0.0,0.0,0.0,0.0
13.266771,-0.613685488701,0.997216403484,-1.26079273224,-0.642037332058,-2.29804563522,-1.60558331013,-2.35601019859,0.0655294117647,0.0,0.0,0.0,0.0,0.0,0.0,0.0,0.0,0.0,0.0,0.0,0.0,0.0,0.0,0.0
13.300111,-0.613685488701,0.997216403484,-1.26079273224,-0.642037332058,-2.29804563522,-1.60558331013,-2.35601019859,0.0655294117647,0.0,0.0,0.0,0.0,0.0,0.0,0.0,0.0,0.0,0.0,0.0,0.0,0.0,0.0,0.0
13.333433,-0.613685488701,0.997216403484,-1.26079273224,-0.642037332058,-2.29804563522,-1.60558331013,-2.35601019859,0.0655294117647,0.0,0.0,0.0,0.0,0.0,0.0,0.0,0.0,0.0,0.0,0.0,0.0,0.0,0.0,0.0
13.366765,-0.613685488701,0.997216403484,-1.26079273224,-0.642037332058,-2.29804563522,-1.60558331013,-2.35601019859,0.0655294117647,0.0,0.0,0.0,0.0,0.0,0.0,0.0,0.0,0.0,0.0,0.0,0.0,0.0,0.0,0.0
13.400095,-0.613685488701,0.997216403484,-1.26079273224,-0.642037332058,-2.29804563522,-1.60558331013,-2.35601019859,0.0655294117647,0.0,0.0,0.0,0.0,0.0,0.0,0.0,0.0,0.0,0.0,0.0,0.0,0.0,0.0,0.0
13.433427,-0.613685488701,0.997216403484,-1.26079273224,-0.642037332058,-2.29804563522,-1.60558331013,-2.35601019859,0.0655294117647,0.0,0.0,0.0,0.0,0.0,0.0,0.0,0.0,0.0,0.0,0.0,0.0,0.0,0.0,0.0
13.466759,-0.613685488701,0.997216403484,-1.26079273224,-0.642037332058,-2.29804563522,-1.60558331013,-2.35601019859,0.0655294117647,0.0,0.0,0.0,0.0,0.0,0.0,0.0,0.0,0.0,0.0,0.0,0.0,0.0,0.0,0.0
13.500098,-0.613685488701,0.997216403484,-1.26079273224,-0.642037332058,-2.29804563522,-1.60558331013,-2.35601019859,0.0655294117647,0.0,0.0,0.0,0.0,0.0,0.0,0.0,0.0,0.0,0.0,0.0,0.0,0.0,0.0,0.0
13.533432,-0.613685488701,0.997216403484,-1.26079273224,-0.642037332058,-2.29804563522,-1.60558331013,-2.35601019859,0.0655294117647,0.0,0.0,0.0,0.0,0.0,0.0,0.0,0.0,0.0,0.0,0.0,0.0,0.0,0.0,0.0
13.566759,-0.613685488701,0.997216403484,-1.26079273224,-0.642037332058,-2.29804563522,-1.60558331013,-2.35601019859,0.0655294117647,0.0,0.0,0.0,0.0,0.0,0.0,0.0,0.0,0.0,0.0,0.0,0.0,0.0,0.0,0.0
13.600115,-0.613685488701,0.997216403484,-1.26079273224,-0.642037332058,-2.29804563522,-1.60558331013,-2.35601019859,0.0655294117647,0.0,0.0,0.0,0.0,0.0,0.0,0.0,0.0,0.0,0.0,0.0,0.0,0.0,0.0,0.0
13.633429,-0.613685488701,0.997216403484,-1.26079273224,-0.642037332058,-2.29804563522,-1.60558331013,-2.35601019859,0.0655294117647,0.0,0.0,0.0,0.0,0.0,0.0,0.0,0.0,0.0,0.0,0.0,0.0,0.0,0.0,0.0
13.666761,-0.613685488701,0.997216403484,-1.26079273224,-0.642037332058,-2.29804563522,-1.60558331013,-2.35601019859,0.0655294117647,0.0,0.0,0.0,0.0,0.0,0.0,0.0,0.0,0.0,0.0,0.0,0.0,0.0,0.0,0.0
13.700095,-0.613685488701,0.997216403484,-1.26079273224,-0.642037332058,-2.29804563522,-1.60558331013,-2.35601019859,0.0655294117647,0.0,0.0,0.0,0.0,0.0,0.0,0.0,0.0,0.0,0.0,0.0,0.0,0.0,0.0,0.0
13.733430,-0.613685488701,0.997216403484,-1.26079273224,-0.642037332058,-2.29804563522,-1.60558331013,-2.35601019859,0.0655294117647,0.0,0.0,0.0,0.0,0.0,0.0,0.0,0.0,0.0,0.0,0.0,0.0,0.0,0.0,0.0
13.766767,-0.613685488701,0.997216403484,-1.26079273224,-0.642037332058,-2.29804563522,-1.60558331013,-2.35601019859,0.0655294117647,0.0,0.0,0.0,0.0,0.0,0.0,0.0,0.0,0.0,0.0,0.0,0.0,0.0,0.0,0.0
13.800090,-0.613685488701,0.997216403484,-1.26079273224,-0.642037332058,-2.29804563522,-1.60558331013,-2.35601019859,0.0655294117647,0.0,0.0,0.0,0.0,0.0,0.0,0.0,0.0,0.0,0.0,0.0,0.0,0.0,0.0,0.0
13.833424,-0.613685488701,0.997216403484,-1.26079273224,-0.642037332058,-2.29804563522,-1.60558331013,-2.35601019859,0.0655294117647,0.0,0.0,0.0,0.0,0.0,0.0,0.0,0.0,0.0,0.0,0.0,0.0,0.0,0.0,0.0
13.866756,-0.613685488701,0.997216403484,-1.26079273224,-0.642037332058,-2.29804563522,-1.60558331013,-2.35601019859,0.0655294117647,0.0,0.0,0.0,0.0,0.0,0.0,0.0,0.0,0.0,0.0,0.0,0.0,0.0,0.0,0.0
13.900089,-0.613685488701,0.997216403484,-1.26079273224,-0.642037332058,-2.29804563522,-1.60558331013,-2.35601019859,0.0655294117647,0.0,0.0,0.0,0.0,0.0,0.0,0.0,0.0,0.0,0.0,0.0,0.0,0.0,0.0,0.0
13.933428,-0.613685488701,0.997216403484,-1.26079273224,-0.642037332058,-2.29804563522,-1.60558331013,-2.35601019859,0.0655294117647,0.0,0.0,0.0,0.0,0.0,0.0,0.0,0.0,0.0,0.0,0.0,0.0,0.0,0.0,0.0
13.966770,-0.613685488701,0.997216403484,-1.26079273224,-0.642037332058,-2.29804563522,-1.60558331013,-2.35601019859,0.0655294117647,0.0,0.0,0.0,0.0,0.0,0.0,0.0,0.0,0.0,0.0,0.0,0.0,0.0,0.0,0.0
14.000110,-0.613685488701,0.997216403484,-1.26079273224,-0.642037332058,-2.29804563522,-1.60558331013,-2.35601019859,0.0655294117647,0.0,0.0,0.0,0.0,0.0,0.0,0.0,0.0,0.0,0.0,0.0,0.0,0.0,0.0,0.0
14.033432,-0.613685488701,0.997216403484,-1.26079273224,-0.642037332058,-2.29804563522,-1.60558331013,-2.35601019859,0.0655294117647,0.0,0.0,0.0,0.0,0.0,0.0,0.0,0.0,0.0,0.0,0.0,0.0,0.0,0.0,0.0
14.066760,-0.613685488701,0.997216403484,-1.26079273224,-0.642037332058,-2.29804563522,-1.60558331013,-2.35601019859,0.0655294117647,0.0,0.0,0.0,0.0,0.0,0.0,0.0,0.0,0.0,0.0,0.0,0.0,0.0,0.0,0.0
14.100106,-0.613685488701,0.997216403484,-1.26079273224,-0.642037332058,-2.29804563522,-1.60558331013,-2.35601019859,0.0655294117647,0.0,0.0,0.0,0.0,0.0,0.0,0.0,0.0,0.0,0.0,0.0,0.0,0.0,0.0,0.0
14.133429,-0.613685488701,0.997216403484,-1.26079273224,-0.642037332058,-2.29804563522,-1.60558331013,-2.35601019859,0.0655294117647,0.0,0.0,0.0,0.0,0.0,0.0,0.0,0.0,0.0,0.0,0.0,0.0,0.0,0.0,0.0
14.166759,-0.613685488701,0.997216403484,-1.26079273224,-0.642037332058,-2.29804563522,-1.60558331013,-2.35601019859,0.0655294117647,0.0,0.0,0.0,0.0,0.0,0.0,0.0,0.0,0.0,0.0,0.0,0.0,0.0,0.0,0.0
14.200091,-0.613686800003,0.997216403484,-1.26079273224,-0.642038583755,-2.29804563522,-1.60558331013,-2.35601019859,0.0655294117647,0.0,0.0,0.0,0.0,0.0,0.0,0.0,0.0,0.0,0.0,0.0,0.0,0.0,0.0,0.0
14.233428,-0.613684177399,0.997369706631,-1.26079010963,-0.642036020756,-2.29678606987,-1.60558331013,-2.35599946976,0.0655294117647,0.0,0.0,0.0,0.0,0.0,0.0,0.0,0.0,0.0,0.0,0.0,0.0,0.0,0.0,0.0
14.266795,-0.613789021969,0.997579455376,-1.26078629494,-0.642034769058,-2.29401230812,-1.60558331013,-2.35599946976,0.0655294117647,0.0,0.0,0.0,0.0,0.0,0.0,0.0,0.0,0.0,0.0,0.0,0.0,0.0,0.0,0.0
14.300090,-0.613757014275,0.997840166092,-1.26078510284,-0.642010450363,-2.29283022881,-1.60558331013,-2.35599946976,0.0655294117647,0.0,0.0,0.0,0.0,0.0,0.0,0.0,0.0,0.0,0.0,0.0,0.0,0.0,0.0,0.0
14.333439,-0.613757014275,0.998159766197,-1.26078379154,-0.642002701759,-2.2918035984,-1.60558331013,-2.35599946976,0.0655294117647,0.0,0.0,0.0,0.0,0.0,0.0,0.0,0.0,0.0,0.0,0.0,0.0,0.0,0.0,0.0
14.366793,-0.613757014275,0.998590528965,-1.26078236103,-0.642002701759,-2.28981137276,-1.60558331013,-2.35599946976,0.0655294117647,0.0,0.0,0.0,0.0,0.0,0.0,0.0,0.0,0.0,0.0,0.0,0.0,0.0,0.0,0.0
14.400112,-0.613757014275,0.99896132946,-1.26077747345,-0.641984939575,-2.28815674782,-1.60558331013,-2.35600137711,0.0655294117647,0.0,0.0,0.0,0.0,0.0,0.0,0.0,0.0,0.0,0.0,0.0,0.0,0.0,0.0,0.0
14.433439,-0.613744318485,0.999482810497,-1.26071083546,-0.641844272614,-2.28663921356,-1.60558331013,-2.35600328445,0.0655294117647,0.0,0.0,0.0,0.0,0.0,0.0,0.0,0.0,0.0,0.0,0.0,0.0,0.0,0.0,0.0
14.466772,-0.613626658916,1.00034821033,-1.26034653187,-0.641276717186,-2.28470420837,-1.60558331013,-2.3560051918,0.0655294117647,0.0,0.0,0.0,0.0,0.0,0.0,0.0,0.0,0.0,0.0,0.0,0.0,0.0,0.0,0.0
14.500099,-0.613484859467,1.00105893612,-1.25993621349,-0.640553176403,-2.28322982788,-1.60558331013,-2.35600328445,0.0655294117647,0.0,0.0,0.0,0.0,0.0,0.0,0.0,0.0,0.0,0.0,0.0,0.0,0.0,0.0,0.0
14.533431,-0.613181829453,1.00177609921,-1.25951063633,-0.639731228352,-2.28196144104,-1.60558331013,-2.35599946976,0.0655294117647,0.0,0.0,0.0,0.0,0.0,0.0,0.0,0.0,0.0,0.0,0.0,0.0,0.0,0.0,0.0
14.566761,-0.612347126007,1.00266706944,-1.25919353962,-0.638966739178,-2.28062820435,-1.60558331013,-2.35599803925,0.0655294117647,0.0,0.0,0.0,0.0,0.0,0.0,0.0,0.0,0.0,0.0,0.0,0.0,0.0,0.0,0.0
14.600089,-0.611607015133,1.00335991383,-1.25915646553,-0.63812315464,-2.27988553047,-1.60558331013,-2.35599803925,0.0655294117647,0.0,0.0,0.0,0.0,0.0,0.0,0.0,0.0,0.0,0.0,0.0,0.0,0.0,0.0,0.0
14.633440,-0.610765755177,1.00408470631,-1.25915777683,-0.636927843094,-2.27937650681,-1.60558331013,-2.35599803925,0.0655294117647,0.0,0.0,0.0,0.0,0.0,0.0,0.0,0.0,0.0,0.0,0.0,0.0,0.0,0.0,0.0
14.666761,-0.6093942523,1.00480699539,-1.25916028023,-0.63480079174,-2.27932929993,-1.60558331013,-2.35599803925,0.0655294117647,0.0,0.0,0.0,0.0,0.0,0.0,0.0,0.0,0.0,0.0,0.0,0.0,0.0,0.0,0.0
14.700095,-0.608243763447,1.00507926941,-1.25916278362,-0.632907629013,-2.27933716774,-1.60558331013,-2.35599637032,0.0655294117647,0.0,0.0,0.0,0.0,0.0,0.0,0.0,0.0,0.0,0.0,0.0,0.0,0.0,0.0,0.0
14.733442,-0.60683631897,1.00518405437,-1.25916278362,-0.630898058414,-2.27934145927,-1.60558331013,-2.35599637032,0.0655294117647,0.0,0.0,0.0,0.0,0.0,0.0,0.0,0.0,0.0,0.0,0.0,0.0,0.0,0.0,0.0
14.766756,-0.604799926281,1.00513803959,-1.25916802883,-0.627968192101,-2.27934789658,-1.60558331013,-2.35599637032,0.0655294117647,0.0,0.0,0.0,0.0,0.0,0.0,0.0,0.0,0.0,0.0,0.0,0.0,0.0,0.0,0.0
14.800089,-0.603343904018,1.00505876541,-1.25917184353,-0.625631392002,-2.27934980392,-1.60558331013,-2.35599637032,0.0655294117647,0.0,0.0,0.0,0.0,0.0,0.0,0.0,0.0,0.0,0.0,0.0,0.0,0.0,0.0,0.0
14.833431,-0.601861000061,1.00494754314,-1.25917303562,-0.623421192169,-2.27934789658,-1.60558331013,-2.35599637032,0.0655294117647,0.0,0.0,0.0,0.0,0.0,0.0,0.0,0.0,0.0,0.0,0.0,0.0,0.0,0.0,0.0
14.866761,-0.599974215031,1.00473284721,-1.25917434692,-0.62055259943,-2.27934575081,-1.60558509827,-2.35599637032,0.0655294117647,0.0,0.0,0.0,0.0,0.0,0.0,0.0,0.0,0.0,0.0,0.0,0.0,0.0,0.0,0.0
14.900092,-0.598800778389,1.00461268425,-1.25917434692,-0.618552029133,-2.27932524681,-1.60558509827,-2.35599637032,0.0655294117647,0.0,0.0,0.0,0.0,0.0,0.0,0.0,0.0,0.0,0.0,0.0,0.0,0.0,0.0,0.0
14.933425,-0.597617089748,1.00454998016,-1.25917553902,-0.61679315567,-2.27932739258,-1.60558509827,-2.35599637032,0.0655294117647,0.0,0.0,0.0,0.0,0.0,0.0,0.0,0.0,0.0,0.0,0.0,0.0,0.0,0.0,0.0
14.966759,-0.595951378345,1.00456666946,-1.25917434692,-0.614668548107,-2.27926588058,-1.60558509827,-2.35599637032,0.0655294117647,0.0,0.0,0.0,0.0,0.0,0.0,0.0,0.0,0.0,0.0,0.0,0.0,0.0,0.0,0.0
15.000100,-0.594690978527,1.0047416687,-1.25917184353,-0.613018214703,-2.27895903587,-1.60558509827,-2.35599637032,0.0655294117647,0.0,0.0,0.0,0.0,0.0,0.0,0.0,0.0,0.0,0.0,0.0,0.0,0.0,0.0,0.0
15.033429,-0.593352615833,1.0050907135,-1.25917053223,-0.611350059509,-2.2783434391,-1.60558509827,-2.35599637032,0.0655294117647,0.0,0.0,0.0,0.0,0.0,0.0,0.0,0.0,0.0,0.0,0.0,0.0,0.0,0.0,0.0
15.066759,-0.591505467892,1.00578355789,-1.25909507275,-0.609082341194,-2.27703022957,-1.6055867672,-2.35599637032,0.0655294117647,0.0,0.0,0.0,0.0,0.0,0.0,0.0,0.0,0.0,0.0,0.0,0.0,0.0,0.0,0.0
15.100099,-0.590014874935,1.00645983219,-1.25863611698,-0.607687592506,-2.27608942986,-1.60559010506,-2.35599470139,0.0655294117647,0.0,0.0,0.0,0.0,0.0,0.0,0.0,0.0,0.0,0.0,0.0,0.0,0.0,0.0,0.0
15.133450,-0.588553726673,1.00726258755,-1.25776946545,-0.606376051903,-2.27562308311,-1.60559499264,-2.35599470139,0.0655294117647,0.0,0.0,0.0,0.0,0.0,0.0,0.0,0.0,0.0,0.0,0.0,0.0,0.0,0.0,0.0
15.166758,-0.586578786373,1.00833773613,-1.25653064251,-0.604568600655,-2.2754471302,-1.60560715199,-2.35599470139,0.0655294117647,0.0,0.0,0.0,0.0,0.0,0.0,0.0,0.0,0.0,0.0,0.0,0.0,0.0,0.0,0.0
15.200101,-0.584979653358,1.00912261009,-1.25577270985,-0.603343904018,-2.27528977394,-1.60561239719,-2.35599279404,0.0655294117647,0.0,0.0,0.0,0.0,0.0,0.0,0.0,0.0,0.0,0.0,0.0,0.0,0.0,0.0,0.0
15.233446,-0.583500683308,1.00987291336,-1.2552177906,-0.601795911789,-2.27528142929,-1.6056855917,-2.35599136353,0.0655294117647,0.0,0.0,0.0,0.0,0.0,0.0,0.0,0.0,0.0,0.0,0.0,0.0,0.0,0.0,0.0
15.266762,-0.58129554987,1.01065528393,-1.25476157665,-0.600003659725,-2.27527976036,-1.60650360584,-2.35598778725,0.0655294117647,0.0,0.0,0.0,0.0,0.0,0.0,0.0,0.0,0.0,0.0,0.0,0.0,0.0,0.0,0.0
15.300092,-0.579626023769,1.01112043858,-1.25439345837,-0.59887111187,-2.27528142929,-1.60784828663,-2.35597419739,0.0655294117647,0.0,0.0,0.0,0.0,0.0,0.0,0.0,0.0,0.0,0.0,0.0,0.0,0.0,0.0,0.0
15.333440,-0.578126549721,1.01157557964,-1.25415956974,-0.59781396389,-2.27528142929,-1.61049711704,-2.35593152046,0.0655294117647,0.0,0.0,0.0,0.0,0.0,0.0,0.0,0.0,0.0,0.0,0.0,0.0,0.0,0.0,0.0
15.366761,-0.576111972332,1.01227617264,-1.25383603573,-0.597388267517,-2.27528333664,-1.61544322968,-2.35577297211,0.0655294117647,0.0,0.0,0.0,0.0,0.0,0.0,0.0,0.0,0.0,0.0,0.0,0.0,0.0,0.0,0.0
15.400095,-0.57475823164,1.01298308372,-1.25348067284,-0.597394645214,-2.27528572083,-1.61989700794,-2.35561943054,0.0655294117647,0.0,0.0,0.0,0.0,0.0,0.0,0.0,0.0,0.0,0.0,0.0,0.0,0.0,0.0,0.0
15.433425,-0.573450446129,1.01382553577,-1.25307798386,-0.597501993179,-2.27528762817,-1.62343895435,-2.35537958145,0.0655294117647,0.0,0.0,0.0,0.0,0.0,0.0,0.0,0.0,0.0,0.0,0.0,0.0,0.0,0.0,0.0
15.466760,-0.571595668793,1.01496315002,-1.25254249573,-0.597659230232,-2.27528762817,-1.62732493877,-2.35454058647,0.0655294117647,0.0,0.0,0.0,0.0,0.0,0.0,0.0,0.0,0.0,0.0,0.0,0.0,0.0,0.0,0.0
15.500096,-0.570183098316,1.01571619511,-1.25214111805,-0.597801089287,-2.27528762817,-1.6301831007,-2.35326576233,0.0655294117647,0.0,0.0,0.0,0.0,0.0,0.0,0.0,0.0,0.0,0.0,0.0,0.0,0.0,0.0,0.0
15.533430,-0.568852365017,1.01633226871,-1.25194919109,-0.597767949104,-2.27528572083,-1.63271260262,-2.35248208046,0.0655294117647,0.0,0.0,0.0,0.0,0.0,0.0,0.0,0.0,0.0,0.0,0.0,0.0,0.0,0.0,0.0
15.566762,-0.566905498505,1.01689219475,-1.25188410282,-0.597741127014,-2.27528333664,-1.63604640961,-2.35233354568,0.0655294117647,0.0,0.0,0.0,0.0,0.0,0.0,0.0,0.0,0.0,0.0,0.0,0.0,0.0,0.0,0.0
15.600104,-0.565428972244,1.01730883121,-1.25186741352,-0.59771168232,-2.27528142929,-1.63885164261,-2.35193634033,0.0655294117647,0.0,0.0,0.0,0.0,0.0,0.0,0.0,0.0,0.0,0.0,0.0,0.0,0.0,0.0,0.0
15.633429,-0.564047157764,1.01774346828,-1.25186741352,-0.59771168232,-2.27528142929,-1.64161300659,-2.35129380226,0.0655294117647,0.0,0.0,0.0,0.0,0.0,0.0,0.0,0.0,0.0,0.0,0.0,0.0,0.0,0.0,0.0
15.666760,-0.562178313732,1.01848101616,-1.25186610222,-0.59771168232,-2.27528142929,-1.6449007988,-2.35082530975,0.0655294117647,0.0,0.0,0.0,0.0,0.0,0.0,0.0,0.0,0.0,0.0,0.0,0.0,0.0,0.0,0.0
15.700092,-0.560721039772,1.01916885376,-1.25181376934,-0.59771168232,-2.27528142929,-1.64691197872,-2.34984493256,0.0655294117647,0.0,0.0,0.0,0.0,0.0,0.0,0.0,0.0,0.0,0.0,0.0,0.0,0.0,0.0,0.0
15.733434,-0.559326410294,1.01990509033,-1.25174868107,-0.59771168232,-2.27528142929,-1.64892995358,-2.34848833084,0.0655294117647,0.0,0.0,0.0,0.0,0.0,0.0,0.0,0.0,0.0,0.0,0.0,0.0,0.0,0.0,0.0
15.766765,-0.557559669018,1.02082300186,-1.25173330307,-0.597712874413,-2.27528142929,-1.65162134171,-2.34698343277,0.0655294117647,0.0,0.0,0.0,0.0,0.0,0.0,0.0,0.0,0.0,0.0,0.0,0.0,0.0,0.0,0.0
15.800098,-0.556228935719,1.02153110504,-1.25167822838,-0.597712874413,-2.27527976036,-1.65410649776,-2.34611225128,0.0655294117647,0.0,0.0,0.0,0.0,0.0,0.0,0.0,0.0,0.0,0.0,0.0,0.0,0.0,0.0,0.0
15.833431,-0.554945528507,1.02224326134,-1.25158882141,-0.59771168232,-2.27526926994,-1.65648591518,-2.34495353699,0.0655294117647,0.0,0.0,0.0,0.0,0.0,0.0,0.0,0.0,0.0,0.0,0.0,0.0,0.0,0.0,0.0
15.866767,-0.553030610085,1.02310347557,-1.25132799149,-0.597687363625,-2.27519774437,-1.65883946419,-2.34346723557,0.0655294117647,0.0,0.0,0.0,0.0,0.0,0.0,0.0,0.0,0.0,0.0,0.0,0.0,0.0,0.0,0.0
15.900090,-0.551531136036,1.02372610569,-1.25093567371,-0.59741127491,-2.27459454536,-1.66026294231,-2.34290480614,0.0655294117647,0.0,0.0,0.0,0.0,0.0,0.0,0.0,0.0,0.0,0.0,0.0,0.0,0.0,0.0,0.0
15.933440,-0.550119876862,1.02432954311,-1.25040781498,-0.596883296967,-2.27340602875,-1.6612393856,-2.34220910072,0.0655294117647,0.0,0.0,0.0,0.0,0.0,0.0,0.0,0.0,0.0,0.0,0.0,0.0,0.0,0.0,0.0
15.966765,-0.548295855522,1.02499675751,-1.24945533276,-0.595845341682,-2.27190685272,-1.66132128239,-2.34096360207,0.0655294117647,0.0,0.0,0.0,0.0,0.0,0.0,0.0,0.0,0.0,0.0,0.0,0.0,0.0,0.0,0.0
16.000104,-0.547073662281,1.02538657188,-1.24914729595,-0.594669282436,-2.27094745636,-1.66131961346,-2.33902406693,0.0655294117647,0.0,0.0,0.0,0.0,0.0,0.0,0.0,0.0,0.0,0.0,0.0,0.0,0.0,0.0,0.0
16.033434,-0.545878469944,1.0256716013,-1.24913573265,-0.593518793583,-2.26996183395,-1.66131794453,-2.33763647079,0.0655294117647,0.0,0.0,0.0,0.0,0.0,0.0,0.0,0.0,0.0,0.0,0.0,0.0,0.0,0.0,0.0
16.066780,-0.544372618198,1.02585577965,-1.24912929535,-0.592471837997,-2.26843810081,-1.6613162756,-2.33519721031,0.0655294117647,0.0,0.0,0.0,0.0,0.0,0.0,0.0,0.0,0.0,0.0,0.0,0.0,0.0,0.0,0.0
16.100112,-0.543176114559,1.02603983879,-1.24905765057,-0.592345356941,-2.26695942879,-1.6613162756,-2.33402323723,0.0655294117647,0.0,0.0,0.0,0.0,0.0,0.0,0.0,0.0,0.0,0.0,0.0,0.0,0.0,0.0,0.0
16.133439,-0.542130410671,1.02654612064,-1.24863600731,-0.592399001122,-2.26541280746,-1.66131961346,-2.33198976517,0.0655294117647,0.0,0.0,0.0,0.0,0.0,0.0,0.0,0.0,0.0,0.0,0.0,0.0,0.0,0.0,0.0
16.166768,-0.54106938839,1.02783203125,-1.24739074707,-0.592726230621,-2.26349854469,-1.66132283211,-2.33006691933,0.0655294117647,0.0,0.0,0.0,0.0,0.0,0.0,0.0,0.0,0.0,0.0,0.0,0.0,0.0,0.0,0.0
16.200101,-0.540411114693,1.02922534943,-1.24591422081,-0.593728363514,-2.26209545135,-1.66132283211,-2.32847523689,0.0655294117647,0.0,0.0,0.0,0.0,0.0,0.0,0.0,0.0,0.0,0.0,0.0,0.0,0.0,0.0,0.0
16.233438,-0.539811491966,1.03085517883,-1.24421048164,-0.595621645451,-2.2606086731,-1.66132462025,-2.32748651505,0.0655294117647,0.0,0.0,0.0,0.0,0.0,0.0,0.0,0.0,0.0,0.0,0.0,0.0,0.0,0.0,0.0
16.266766,-0.539173662663,1.0332890749,-1.24198877811,-0.598283052444,-2.25872063637,-1.66132462025,-2.32687973976,0.0655294117647,0.0,0.0,0.0,0.0,0.0,0.0,0.0,0.0,0.0,0.0,0.0,0.0,0.0,0.0,0.0
16.300097,-0.538956344128,1.034979105,-1.24043428898,-0.599804341793,-2.2574365139,-1.66132283211,-2.32676887512,0.0655294117647,0.0,0.0,0.0,0.0,0.0,0.0,0.0,0.0,0.0,0.0,0.0,0.0,0.0,0.0,0.0
16.333430,-0.538854062557,1.03646957874,-1.23918282986,-0.600968778133,-2.25621318817,-1.66132128239,-2.32677412033,0.0655294117647,0.0,0.0,0.0,0.0,0.0,0.0,0.0,0.0,0.0,0.0,0.0,0.0,0.0,0.0,0.0
16.366766,-0.538859248161,1.03803801537,-1.23811292648,-0.602098822594,-2.25484466553,-1.66131961346,-2.32672786713,0.0655294117647,0.0,0.0,0.0,0.0,0.0,0.0,0.0,0.0,0.0,0.0,0.0,0.0,0.0,0.0,0.0
16.400102,-0.538759469986,1.03879487514,-1.23757600784,-0.602689385414,-2.25353813171,-1.66131794453,-2.32647037506,0.0655294117647,0.0,0.0,0.0,0.0,0.0,0.0,0.0,0.0,0.0,0.0,0.0,0.0,0.0,0.0,0.0
16.433429,-0.538607358932,1.03945314884,-1.23722314835,-0.603055000305,-2.25177693367,-1.66131794453,-2.32549405098,0.0655294117647,0.0,0.0,0.0,0.0,0.0,0.0,0.0,0.0,0.0,0.0,0.0,0.0,0.0,0.0,0.0
16.466759,-0.53811776638,1.04039525986,-1.23660683632,-0.603200793266,-2.24992609024,-1.66131794453,-2.32352209091,0.0655294117647,0.0,0.0,0.0,0.0,0.0,0.0,0.0,0.0,0.0,0.0,0.0,0.0,0.0,0.0,0.0
16.500094,-0.537612855434,1.0412658453,-1.23583221436,-0.603199541569,-2.24855971336,-1.66131794453,-2.32338070869,0.0655294117647,0.0,0.0,0.0,0.0,0.0,0.0,0.0,0.0,0.0,0.0,0.0,0.0,0.0,0.0,0.0
16.533438,-0.537161588669,1.0422399044,-1.23498606682,-0.603199541569,-2.246976614,-1.6613162756,-2.32338070869,0.0655294117647,0.0,0.0,0.0,0.0,0.0,0.0,0.0,0.0,0.0,0.0,0.0,0.0,0.0,0.0,0.0
16.566770,-0.536709070206,1.04363584518,-1.23365533352,-0.603196918964,-2.24490690231,-1.6612906456,-2.32338404655,0.0655294117647,0.0,0.0,0.0,0.0,0.0,0.0,0.0,0.0,0.0,0.0,0.0,0.0,0.0,0.0,0.0
16.600101,-0.536475121975,1.04468786716,-1.23279106617,-0.603196918964,-2.24363064766,-1.66128718853,-2.32338213921,0.0655294117647,0.0,0.0,0.0,0.0,0.0,0.0,0.0,0.0,0.0,0.0,0.0,0.0,0.0,0.0,0.0
16.633428,-0.53636777401,1.04575014114,-1.23213660717,-0.603198170662,-2.24235630035,-1.66128718853,-2.32338213921,0.0655294117647,0.0,0.0,0.0,0.0,0.0,0.0,0.0,0.0,0.0,0.0,0.0,0.0,0.0,0.0,0.0
16.666766,-0.536334514618,1.04713845253,-1.23132622242,-0.60330170393,-2.24062585831,-1.66128718853,-2.3229970932,0.0655294117647,0.0,0.0,0.0,0.0,0.0,0.0,0.0,0.0,0.0,0.0,0.0,0.0,0.0,0.0,0.0
16.700105,-0.536335766315,1.04810357094,-1.23094153404,-0.603524148464,-2.23938035965,-1.66128718853,-2.32191801071,0.0655294117647,0.0,0.0,0.0,0.0,0.0,0.0,0.0,0.0,0.0,0.0,0.0,0.0,0.0,0.0,0.0
16.733382,-0.536349952221,1.04902136326,-1.23069095612,-0.603666007519,-2.23816347122,-1.66127693653,-2.32050347328,0.0655294117647,0.0,0.0,0.0,0.0,0.0,0.0,0.0,0.0,0.0,0.0,0.0,0.0,0.0,0.0,0.0
16.766759,-0.536353707314,1.05015265942,-1.23065495491,-0.603877007961,-2.23620200157,-1.66126847267,-2.31937527657,0.0655294117647,0.0,0.0,0.0,0.0,0.0,0.0,0.0,0.0,0.0,0.0,0.0,0.0,0.0,0.0,0.0
16.800102,-0.536353707314,1.0508736372,-1.23065495491,-0.603985607624,-2.23471498489,-1.66126334667,-2.31799459457,0.0655294117647,0.0,0.0,0.0,0.0,0.0,0.0,0.0,0.0,0.0,0.0,0.0,0.0,0.0,0.0,0.0
16.833444,-0.53636264801,1.05143606663,-1.23065626621,-0.604013741016,-2.23300480843,-1.66122078896,-2.31639575958,0.0655294117647,0.0,0.0,0.0,0.0,0.0,0.0,0.0,0.0,0.0,0.0,0.0,0.0,0.0,0.0,0.0
16.866767,-0.536374151707,1.05216598511,-1.23063600063,-0.604032874107,-2.23024582863,-1.66121065617,-2.31418347359,0.0655294117647,0.0,0.0,0.0,0.0,0.0,0.0,0.0,0.0,0.0,0.0,0.0,0.0,0.0,0.0,0.0
16.900095,-0.536370277405,1.05268752575,-1.2304122448,-0.60403162241,-2.22835206985,-1.66116786003,-2.3130569458,0.0655294117647,0.0,0.0,0.0,0.0,0.0,0.0,0.0,0.0,0.0,0.0,0.0,0.0,0.0,0.0,0.0
16.933431,-0.536334514618,1.05313491821,-1.22998392582,-0.603944718838,-2.22625374794,-1.6610776186,-2.31247925758,0.0655294117647,0.0,0.0,0.0,0.0,0.0,0.0,0.0,0.0,0.0,0.0,0.0,0.0,0.0,0.0,0.0
16.966759,-0.536315381527,1.05359268188,-1.22907757759,-0.603507578373,-2.22326922417,-1.66080129147,-2.31123161316,0.0655294117647,0.0,0.0,0.0,0.0,0.0,0.0,0.0,0.0,0.0,0.0,0.0,0.0,0.0,0.0,0.0
17.000102,-0.536320447922,1.05392241478,-1.22827994823,-0.603020489216,-2.22116446495,-1.66050994396,-2.31085300446,0.0655294117647,0.0,0.0,0.0,0.0,0.0,0.0,0.0,0.0,0.0,0.0,0.0,0.0,0.0,0.0,0.0
17.033438,-0.536321699619,1.0541883707,-1.22769200802,-0.602643370628,-2.21891689301,-1.66014695168,-2.31016778946,0.0655294117647,0.0,0.0,0.0,0.0,0.0,0.0,0.0,0.0,0.0,0.0,0.0,0.0,0.0,0.0,0.0
17.066761,-0.536324381828,1.05436480045,-1.22712314129,-0.602093756199,-2.21618008614,-1.65938329697,-2.30856728554,0.0655294117647,0.0,0.0,0.0,0.0,0.0,0.0,0.0,0.0,0.0,0.0,0.0,0.0,0.0,0.0,0.0
17.100092,-0.536325573921,1.05438780785,-1.22701442242,-0.601960837841,-2.21421265602,-1.65883791447,-2.30773234367,0.0655294117647,0.0,0.0,0.0,0.0,0.0,0.0,0.0,0.0,0.0,0.0,0.0,0.0,0.0,0.0,0.0
17.133432,-0.536351144314,1.05437886715,-1.22702217102,-0.601954340935,-2.21232271194,-1.65836763382,-2.30631923676,0.0655294117647,0.0,0.0,0.0,0.0,0.0,0.0,0.0,0.0,0.0,0.0,0.0,0.0,0.0,0.0,0.0
17.166759,-0.536455929279,1.05437111855,-1.22702860832,-0.601914823055,-2.20989727974,-1.6577693224,-2.30386519432,0.0655294117647,0.0,0.0,0.0,0.0,0.0,0.0,0.0,0.0,0.0,0.0,0.0,0.0,0.0,0.0,0.0
17.200099,-0.536495625973,1.05437242985,-1.22702860832,-0.601901948452,-2.20749592781,-1.65753924847,-2.3014497757,0.0655294117647,0.0,0.0,0.0,0.0,0.0,0.0,0.0,0.0,0.0,0.0,0.0,0.0,0.0,0.0,0.0
17.233428,-0.536495625973,1.05437242985,-1.22702860832,-0.601753771305,-2.20536899567,-1.65708231926,-2.29979801178,0.0655294117647,0.0,0.0,0.0,0.0,0.0,0.0,0.0,0.0,0.0,0.0,0.0,0.0,0.0,0.0,0.0
