IRLabUoB/boris-robot/boris_tools/scripts/contact_trajectories/saucepan_trajectory03.csv
time,left_arm_0_joint,left_arm_1_joint,left_arm_2_joint,left_arm_3_joint,left_arm_4_joint,left_arm_5_joint,left_arm_6_joint,left_hand_synergy_joint,right_arm_0_joint,right_arm_1_joint,right_arm_2_joint,right_arm_3_joint,right_arm_4_joint,right_arm_5_joint,right_arm_6_joint,right_hand_synergy_joint,head_neck_pitch_joint,head_neck_roll_joint,head_neck_yaw_joint,head_head_tilt_joint,head_eyes_tilt_joint,head_left_eye_joint,head_right_eye_joint
0.000210,-1.44436395168,0.979434907436,1.89797723293,-1.15227758884,1.19831264019,-1.39116001129,-1.50062477589,0.0174117647059,0.0,0.0,0.0,0.0,0.0,0.0,0.0,0.0,0.0,0.0,0.0,0.0,0.0,0.0,0.0
0.033513,-1.44436395168,0.979434907436,1.89797723293,-1.15227758884,1.19831264019,-1.39116001129,-1.50062477589,0.0174117647059,0.0,0.0,0.0,0.0,0.0,0.0,0.0,0.0,0.0,0.0,0.0,0.0,0.0,0.0,0.0
0.066837,-1.44436395168,0.979434907436,1.89797723293,-1.15227758884,1.19831264019,-1.39116001129,-1.50062477589,0.0174117647059,0.0,0.0,0.0,0.0,0.0,0.0,0.0,0.0,0.0,0.0,0.0,0.0,0.0,0.0,0.0
0.100159,-1.44436395168,0.979434907436,1.89797723293,-1.15227758884,1.19831264019,-1.39116001129,-1.50062477589,0.0174117647059,0.0,0.0,0.0,0.0,0.0,0.0,0.0,0.0,0.0,0.0,0.0,0.0,0.0,0.0,0.0
0.133509,-1.44436395168,0.979434907436,1.89797723293,-1.15227758884,1.19831264019,-1.39116001129,-1.50062477589,0.0174117647059,0.0,0.0,0.0,0.0,0.0,0.0,0.0,0.0,0.0,0.0,0.0,0.0,0.0,0.0,0.0
0.166857,-1.44436395168,0.979434907436,1.89797723293,-1.15227758884,1.19831264019,-1.39116001129,-1.50062477589,0.0174117647059,0.0,0.0,0.0,0.0,0.0,0.0,0.0,0.0,0.0,0.0,0.0,0.0,0.0,0.0,0.0
0.200173,-1.44436395168,0.979434907436,1.89797723293,-1.15227758884,1.19831264019,-1.39116001129,-1.50062477589,0.0174117647059,0.0,0.0,0.0,0.0,0.0,0.0,0.0,0.0,0.0,0.0,0.0,0.0,0.0,0.0,0.0
0.233471,-1.44436395168,0.979434907436,1.89797723293,-1.15227758884,1.19831264019,-1.39116001129,-1.50062477589,0.0174117647059,0.0,0.0,0.0,0.0,0.0,0.0,0.0,0.0,0.0,0.0,0.0,0.0,0.0,0.0,0.0
0.266830,-1.44436395168,0.979434907436,1.89797723293,-1.15227758884,1.19831264019,-1.39116001129,-1.50062477589,0.0174117647059,0.0,0.0,0.0,0.0,0.0,0.0,0.0,0.0,0.0,0.0,0.0,0.0,0.0,0.0,0.0
0.300182,-1.44436395168,0.979434907436,1.89797723293,-1.15227758884,1.19831264019,-1.39116001129,-1.50062477589,0.0174117647059,0.0,0.0,0.0,0.0,0.0,0.0,0.0,0.0,0.0,0.0,0.0,0.0,0.0,0.0,0.0
0.333489,-1.44436395168,0.979434907436,1.89797723293,-1.15227758884,1.19831264019,-1.39116001129,-1.50062477589,0.0174117647059,0.0,0.0,0.0,0.0,0.0,0.0,0.0,0.0,0.0,0.0,0.0,0.0,0.0,0.0,0.0
0.366816,-1.44436395168,0.979434907436,1.89797723293,-1.15227758884,1.19831264019,-1.39116001129,-1.50062477589,0.0174117647059,0.0,0.0,0.0,0.0,0.0,0.0,0.0,0.0,0.0,0.0,0.0,0.0,0.0,0.0,0.0
0.400151,-1.44436395168,0.979434907436,1.89797723293,-1.15227758884,1.19831264019,-1.39116001129,-1.50062477589,0.0174117647059,0.0,0.0,0.0,0.0,0.0,0.0,0.0,0.0,0.0,0.0,0.0,0.0,0.0,0.0,0.0
0.433935,-1.44436395168,0.979434907436,1.89797723293,-1.15227758884,1.19831264019,-1.39116001129,-1.50062477589,0.0174117647059,0.0,0.0,0.0,0.0,0.0,0.0,0.0,0.0,0.0,0.0,0.0,0.0,0.0,0.0,0.0
0.466824,-1.44436395168,0.979434907436,1.89797723293,-1.15227758884,1.19831264019,-1.39116001129,-1.50062477589,0.0174117647059,0.0,0.0,0.0,0.0,0.0,0.0,0.0,0.0,0.0,0.0,0.0,0.0,0.0,0.0,0.0
0.500166,-1.44436395168,0.979434907436,1.89797723293,-1.15227758884,1.19831264019,-1.39116001129,-1.50062477589,0.0174117647059,0.0,0.0,0.0,0.0,0.0,0.0,0.0,0.0,0.0,0.0,0.0,0.0,0.0,0.0,0.0
0.533481,-1.44436395168,0.979434907436,1.89797723293,-1.15227758884,1.19831264019,-1.39116001129,-1.50062477589,0.0174117647059,0.0,0.0,0.0,0.0,0.0,0.0,0.0,0.0,0.0,0.0,0.0,0.0,0.0,0.0,0.0
0.566778,-1.44436395168,0.979434907436,1.89797723293,-1.15227758884,1.19831264019,-1.39116001129,-1.50062477589,0.0174117647059,0.0,0.0,0.0,0.0,0.0,0.0,0.0,0.0,0.0,0.0,0.0,0.0,0.0,0.0,0.0
0.600151,-1.44436395168,0.979434907436,1.89797723293,-1.15227758884,1.19831264019,-1.39116001129,-1.50062477589,0.0174117647059,0.0,0.0,0.0,0.0,0.0,0.0,0.0,0.0,0.0,0.0,0.0,0.0,0.0,0.0,0.0
0.633496,-1.44436395168,0.979434907436,1.89797723293,-1.15227758884,1.19831264019,-1.39116001129,-1.50062477589,0.0174117647059,0.0,0.0,0.0,0.0,0.0,0.0,0.0,0.0,0.0,0.0,0.0,0.0,0.0,0.0,0.0
0.666823,-1.44436395168,0.979434907436,1.89797723293,-1.15227758884,1.19831264019,-1.39116001129,-1.50062477589,0.0174117647059,0.0,0.0,0.0,0.0,0.0,0.0,0.0,0.0,0.0,0.0,0.0,0.0,0.0,0.0,0.0
0.700154,-1.44436395168,0.979434907436,1.89797723293,-1.15227758884,1.19831264019,-1.39116001129,-1.50062477589,0.0174117647059,0.0,0.0,0.0,0.0,0.0,0.0,0.0,0.0,0.0,0.0,0.0,0.0,0.0,0.0,0.0
0.733471,-1.44436395168,0.979434907436,1.89797723293,-1.15227758884,1.19831264019,-1.39116001129,-1.50062477589,0.0174117647059,0.0,0.0,0.0,0.0,0.0,0.0,0.0,0.0,0.0,0.0,0.0,0.0,0.0,0.0,0.0
0.766808,-1.44436395168,0.979434907436,1.89797723293,-1.15227758884,1.19831264019,-1.39116001129,-1.50062477589,0.0174117647059,0.0,0.0,0.0,0.0,0.0,0.0,0.0,0.0,0.0,0.0,0.0,0.0,0.0,0.0,0.0
0.800214,-1.44436395168,0.979434907436,1.89797723293,-1.15227758884,1.19831264019,-1.39116001129,-1.50062477589,0.0174117647059,0.0,0.0,0.0,0.0,0.0,0.0,0.0,0.0,0.0,0.0,0.0,0.0,0.0,0.0,0.0
0.833512,-1.44436395168,0.979434907436,1.89797723293,-1.15227758884,1.19831264019,-1.39116001129,-1.50062477589,0.0174117647059,0.0,0.0,0.0,0.0,0.0,0.0,0.0,0.0,0.0,0.0,0.0,0.0,0.0,0.0,0.0
0.866837,-1.44436395168,0.979434907436,1.89797723293,-1.15227758884,1.19831264019,-1.39116001129,-1.50062477589,0.0174117647059,0.0,0.0,0.0,0.0,0.0,0.0,0.0,0.0,0.0,0.0,0.0,0.0,0.0,0.0,0.0
0.900183,-1.44436395168,0.979434907436,1.89797723293,-1.15227758884,1.19831264019,-1.39116001129,-1.50062477589,0.0174117647059,0.0,0.0,0.0,0.0,0.0,0.0,0.0,0.0,0.0,0.0,0.0,0.0,0.0,0.0,0.0
0.933495,-1.44436395168,0.979434907436,1.89797723293,-1.15227758884,1.19831264019,-1.39116001129,-1.50062477589,0.0174117647059,0.0,0.0,0.0,0.0,0.0,0.0,0.0,0.0,0.0,0.0,0.0,0.0,0.0,0.0,0.0
0.966841,-1.44436395168,0.979434907436,1.89797723293,-1.15227758884,1.19831264019,-1.39116001129,-1.50062477589,0.0174117647059,0.0,0.0,0.0,0.0,0.0,0.0,0.0,0.0,0.0,0.0,0.0,0.0,0.0,0.0,0.0
1.000095,-1.44436395168,0.979434907436,1.89797723293,-1.15227758884,1.19831264019,-1.39116001129,-1.50062477589,0.0174117647059,0.0,0.0,0.0,0.0,0.0,0.0,0.0,0.0,0.0,0.0,0.0,0.0,0.0,0.0,0.0
1.033493,-1.44436395168,0.979434907436,1.89797723293,-1.15227758884,1.19831264019,-1.39116001129,-1.50062477589,0.0174117647059,0.0,0.0,0.0,0.0,0.0,0.0,0.0,0.0,0.0,0.0,0.0,0.0,0.0,0.0,0.0
1.066831,-1.44436395168,0.979434907436,1.89797723293,-1.15227758884,1.19831264019,-1.39116001129,-1.50062477589,0.0174117647059,0.0,0.0,0.0,0.0,0.0,0.0,0.0,0.0,0.0,0.0,0.0,0.0,0.0,0.0,0.0
1.100225,-1.44436395168,0.979434907436,1.89797723293,-1.15227758884,1.19831264019,-1.39116001129,-1.50062477589,0.0174117647059,0.0,0.0,0.0,0.0,0.0,0.0,0.0,0.0,0.0,0.0,0.0,0.0,0.0,0.0,0.0
1.133536,-1.44436395168,0.979434907436,1.89797723293,-1.15227758884,1.19831264019,-1.39116001129,-1.50062477589,0.0174117647059,0.0,0.0,0.0,0.0,0.0,0.0,0.0,0.0,0.0,0.0,0.0,0.0,0.0,0.0,0.0
1.166825,-1.44436395168,0.979434907436,1.89797723293,-1.15227758884,1.19831264019,-1.39116001129,-1.50062477589,0.0174117647059,0.0,0.0,0.0,0.0,0.0,0.0,0.0,0.0,0.0,0.0,0.0,0.0,0.0,0.0,0.0
1.200132,-1.44436395168,0.979434907436,1.89797723293,-1.15227758884,1.19831264019,-1.39116001129,-1.50062477589,0.0174117647059,0.0,0.0,0.0,0.0,0.0,0.0,0.0,0.0,0.0,0.0,0.0,0.0,0.0,0.0,0.0
1.233494,-1.44436395168,0.979434907436,1.89797723293,-1.15227758884,1.19831264019,-1.39116001129,-1.50062477589,0.0174117647059,0.0,0.0,0.0,0.0,0.0,0.0,0.0,0.0,0.0,0.0,0.0,0.0,0.0,0.0,0.0
1.266827,-1.44436395168,0.979434907436,1.89797723293,-1.15227758884,1.19831264019,-1.39116001129,-1.50062477589,0.0174117647059,0.0,0.0,0.0,0.0,0.0,0.0,0.0,0.0,0.0,0.0,0.0,0.0,0.0,0.0,0.0
1.300233,-1.44436395168,0.979434907436,1.89797723293,-1.15227758884,1.19831264019,-1.39116001129,-1.50062477589,0.0174117647059,0.0,0.0,0.0,0.0,0.0,0.0,0.0,0.0,0.0,0.0,0.0,0.0,0.0,0.0,0.0
1.333520,-1.44436395168,0.979434907436,1.89797723293,-1.15227758884,1.19831264019,-1.39116001129,-1.50062477589,0.0174117647059,0.0,0.0,0.0,0.0,0.0,0.0,0.0,0.0,0.0,0.0,0.0,0.0,0.0,0.0,0.0
1.366855,-1.44436395168,0.979434907436,1.89797723293,-1.15227758884,1.19831264019,-1.39116001129,-1.50062477589,0.0174117647059,0.0,0.0,0.0,0.0,0.0,0.0,0.0,0.0,0.0,0.0,0.0,0.0,0.0,0.0,0.0
1.400170,-1.44436395168,0.979434907436,1.89797723293,-1.15227758884,1.19831264019,-1.39116001129,-1.50062477589,0.0174117647059,0.0,0.0,0.0,0.0,0.0,0.0,0.0,0.0,0.0,0.0,0.0,0.0,0.0,0.0,0.0
1.433476,-1.44436395168,0.979434907436,1.89797723293,-1.15227758884,1.19831264019,-1.39116001129,-1.50062477589,0.0174117647059,0.0,0.0,0.0,0.0,0.0,0.0,0.0,0.0,0.0,0.0,0.0,0.0,0.0,0.0,0.0
1.466850,-1.44436395168,0.979434907436,1.89797723293,-1.15227758884,1.19831264019,-1.39116001129,-1.50062477589,0.0174117647059,0.0,0.0,0.0,0.0,0.0,0.0,0.0,0.0,0.0,0.0,0.0,0.0,0.0,0.0,0.0
1.500208,-1.44436395168,0.979434907436,1.89797723293,-1.15227758884,1.19831264019,-1.39116001129,-1.50062477589,0.0174117647059,0.0,0.0,0.0,0.0,0.0,0.0,0.0,0.0,0.0,0.0,0.0,0.0,0.0,0.0,0.0
1.533522,-1.44436395168,0.979434907436,1.89797723293,-1.15227758884,1.19831264019,-1.39116001129,-1.50062477589,0.0174117647059,0.0,0.0,0.0,0.0,0.0,0.0,0.0,0.0,0.0,0.0,0.0,0.0,0.0,0.0,0.0
1.566810,-1.44436395168,0.979434907436,1.89797723293,-1.15227758884,1.19831264019,-1.39116001129,-1.50062477589,0.0174117647059,0.0,0.0,0.0,0.0,0.0,0.0,0.0,0.0,0.0,0.0,0.0,0.0,0.0,0.0,0.0
1.600184,-1.44436395168,0.979434907436,1.89797723293,-1.15227758884,1.19831264019,-1.39116001129,-1.50062477589,0.0174117647059,0.0,0.0,0.0,0.0,0.0,0.0,0.0,0.0,0.0,0.0,0.0,0.0,0.0,0.0,0.0
1.633485,-1.44436395168,0.979434907436,1.89797723293,-1.15227758884,1.19831264019,-1.39116001129,-1.50062477589,0.0174117647059,0.0,0.0,0.0,0.0,0.0,0.0,0.0,0.0,0.0,0.0,0.0,0.0,0.0,0.0,0.0
1.666838,-1.44436395168,0.979434907436,1.89797723293,-1.15227758884,1.19831264019,-1.39116001129,-1.50062477589,0.0174117647059,0.0,0.0,0.0,0.0,0.0,0.0,0.0,0.0,0.0,0.0,0.0,0.0,0.0,0.0,0.0
1.700158,-1.44436395168,0.979434907436,1.89797723293,-1.15227758884,1.19831264019,-1.39116001129,-1.50062477589,0.0174117647059,0.0,0.0,0.0,0.0,0.0,0.0,0.0,0.0,0.0,0.0,0.0,0.0,0.0,0.0,0.0
1.733445,-1.44436395168,0.979434907436,1.89797723293,-1.15227758884,1.19831264019,-1.39116001129,-1.50062477589,0.0174117647059,0.0,0.0,0.0,0.0,0.0,0.0,0.0,0.0,0.0,0.0,0.0,0.0,0.0,0.0,0.0
1.766821,-1.44436395168,0.979434907436,1.89797723293,-1.15227758884,1.19831264019,-1.39116001129,-1.50062477589,0.0174117647059,0.0,0.0,0.0,0.0,0.0,0.0,0.0,0.0,0.0,0.0,0.0,0.0,0.0,0.0,0.0
1.800187,-1.44436395168,0.979434907436,1.89797723293,-1.15227758884,1.19831264019,-1.39116001129,-1.50062477589,0.0174117647059,0.0,0.0,0.0,0.0,0.0,0.0,0.0,0.0,0.0,0.0,0.0,0.0,0.0,0.0,0.0
1.833500,-1.44436395168,0.979434907436,1.89797723293,-1.15227758884,1.19831264019,-1.39116001129,-1.50062477589,0.0174117647059,0.0,0.0,0.0,0.0,0.0,0.0,0.0,0.0,0.0,0.0,0.0,0.0,0.0,0.0,0.0
1.866822,-1.44436395168,0.979434907436,1.89797723293,-1.15227758884,1.19831264019,-1.39116001129,-1.50062477589,0.0174117647059,0.0,0.0,0.0,0.0,0.0,0.0,0.0,0.0,0.0,0.0,0.0,0.0,0.0,0.0,0.0
1.900251,-1.44436395168,0.979434907436,1.89797723293,-1.15227758884,1.19831264019,-1.39116001129,-1.50062477589,0.0174117647059,0.0,0.0,0.0,0.0,0.0,0.0,0.0,0.0,0.0,0.0,0.0,0.0,0.0,0.0,0.0
1.933553,-1.44436395168,0.979434907436,1.89797723293,-1.15227758884,1.19831264019,-1.39116001129,-1.50062477589,0.0174117647059,0.0,0.0,0.0,0.0,0.0,0.0,0.0,0.0,0.0,0.0,0.0,0.0,0.0,0.0,0.0
1.966853,-1.44436395168,0.979434907436,1.89797723293,-1.15227758884,1.19831264019,-1.39116001129,-1.50062477589,0.0174117647059,0.0,0.0,0.0,0.0,0.0,0.0,0.0,0.0,0.0,0.0,0.0,0.0,0.0,0.0,0.0
2.000199,-1.44436395168,0.979434907436,1.89797723293,-1.15227758884,1.19831264019,-1.39116001129,-1.50062477589,0.0174117647059,0.0,0.0,0.0,0.0,0.0,0.0,0.0,0.0,0.0,0.0,0.0,0.0,0.0,0.0,0.0
2.033480,-1.44436395168,0.979434907436,1.89797723293,-1.15227758884,1.19831264019,-1.39116001129,-1.50062477589,0.0174117647059,0.0,0.0,0.0,0.0,0.0,0.0,0.0,0.0,0.0,0.0,0.0,0.0,0.0,0.0,0.0
2.066825,-1.44436395168,0.979434907436,1.89797723293,-1.15227758884,1.19831264019,-1.39116001129,-1.50062477589,0.0174117647059,0.0,0.0,0.0,0.0,0.0,0.0,0.0,0.0,0.0,0.0,0.0,0.0,0.0,0.0,0.0
2.100162,-1.44436395168,0.979434907436,1.89797723293,-1.15227758884,1.19831264019,-1.39116001129,-1.50062477589,0.0174117647059,0.0,0.0,0.0,0.0,0.0,0.0,0.0,0.0,0.0,0.0,0.0,0.0,0.0,0.0,0.0
2.133486,-1.44436395168,0.979434907436,1.89797723293,-1.15227758884,1.19831264019,-1.39116001129,-1.50062477589,0.0174117647059,0.0,0.0,0.0,0.0,0.0,0.0,0.0,0.0,0.0,0.0,0.0,0.0,0.0,0.0,0.0
2.166813,-1.44436395168,0.979434907436,1.89797723293,-1.15227758884,1.19831264019,-1.39116001129,-1.50062477589,0.0174117647059,0.0,0.0,0.0,0.0,0.0,0.0,0.0,0.0,0.0,0.0,0.0,0.0,0.0,0.0,0.0
2.200117,-1.44436395168,0.979434907436,1.89797723293,-1.15227758884,1.19831264019,-1.39116001129,-1.50062477589,0.0174117647059,0.0,0.0,0.0,0.0,0.0,0.0,0.0,0.0,0.0,0.0,0.0,0.0,0.0,0.0,0.0
2.233486,-1.44436395168,0.979434907436,1.89797723293,-1.15227758884,1.19831264019,-1.39116001129,-1.50062477589,0.0174117647059,0.0,0.0,0.0,0.0,0.0,0.0,0.0,0.0,0.0,0.0,0.0,0.0,0.0,0.0,0.0
2.266808,-1.44436395168,0.979434907436,1.89797723293,-1.15227758884,1.19831264019,-1.39116001129,-1.50062477589,0.0174117647059,0.0,0.0,0.0,0.0,0.0,0.0,0.0,0.0,0.0,0.0,0.0,0.0,0.0,0.0,0.0
2.300150,-1.44436395168,0.979434907436,1.89797723293,-1.15227758884,1.19831264019,-1.39116001129,-1.50062477589,0.0174117647059,0.0,0.0,0.0,0.0,0.0,0.0,0.0,0.0,0.0,0.0,0.0,0.0,0.0,0.0,0.0
2.333552,-1.44436395168,0.979434907436,1.89797723293,-1.15227758884,1.19831264019,-1.39116001129,-1.50062477589,0.0174117647059,0.0,0.0,0.0,0.0,0.0,0.0,0.0,0.0,0.0,0.0,0.0,0.0,0.0,0.0,0.0
2.366828,-1.44436395168,0.979434907436,1.89797723293,-1.15227758884,1.19831264019,-1.39116001129,-1.50062477589,0.0174117647059,0.0,0.0,0.0,0.0,0.0,0.0,0.0,0.0,0.0,0.0,0.0,0.0,0.0,0.0,0.0
2.400200,-1.44436395168,0.979434907436,1.89797723293,-1.15227758884,1.19831264019,-1.39116001129,-1.50062477589,0.0174117647059,0.0,0.0,0.0,0.0,0.0,0.0,0.0,0.0,0.0,0.0,0.0,0.0,0.0,0.0,0.0
2.433506,-1.44436395168,0.979434907436,1.89797723293,-1.15227758884,1.19831264019,-1.39116001129,-1.50062477589,0.0174117647059,0.0,0.0,0.0,0.0,0.0,0.0,0.0,0.0,0.0,0.0,0.0,0.0,0.0,0.0,0.0
2.466823,-1.44436395168,0.979434907436,1.89797723293,-1.15227758884,1.19831264019,-1.39116001129,-1.50062477589,0.0174117647059,0.0,0.0,0.0,0.0,0.0,0.0,0.0,0.0,0.0,0.0,0.0,0.0,0.0,0.0,0.0
2.503169,-1.44436395168,0.979434907436,1.89797723293,-1.15227758884,1.19831264019,-1.39116001129,-1.50062477589,0.0174117647059,0.0,0.0,0.0,0.0,0.0,0.0,0.0,0.0,0.0,0.0,0.0,0.0,0.0,0.0,0.0
2.533477,-1.44436395168,0.979434907436,1.89797723293,-1.15227758884,1.19831264019,-1.39116001129,-1.50062477589,0.0174117647059,0.0,0.0,0.0,0.0,0.0,0.0,0.0,0.0,0.0,0.0,0.0,0.0,0.0,0.0,0.0
2.566833,-1.44436395168,0.979434907436,1.89797723293,-1.15227758884,1.19831264019,-1.39116001129,-1.50062477589,0.0174117647059,0.0,0.0,0.0,0.0,0.0,0.0,0.0,0.0,0.0,0.0,0.0,0.0,0.0,0.0,0.0
2.600191,-1.44436395168,0.979434907436,1.89797723293,-1.15227758884,1.19831264019,-1.39116001129,-1.50062477589,0.0174117647059,0.0,0.0,0.0,0.0,0.0,0.0,0.0,0.0,0.0,0.0,0.0,0.0,0.0,0.0,0.0
2.633455,-1.44436395168,0.979434907436,1.89797723293,-1.15227758884,1.19831264019,-1.39116001129,-1.50062477589,0.0174117647059,0.0,0.0,0.0,0.0,0.0,0.0,0.0,0.0,0.0,0.0,0.0,0.0,0.0,0.0,0.0
2.666817,-1.44436395168,0.979434907436,1.89797723293,-1.15227758884,1.19831264019,-1.39116001129,-1.50062477589,0.0174117647059,0.0,0.0,0.0,0.0,0.0,0.0,0.0,0.0,0.0,0.0,0.0,0.0,0.0,0.0,0.0
2.700164,-1.44436395168,0.979434907436,1.89797723293,-1.15227758884,1.19831264019,-1.39116001129,-1.50062477589,0.0174117647059,0.0,0.0,0.0,0.0,0.0,0.0,0.0,0.0,0.0,0.0,0.0,0.0,0.0,0.0,0.0
2.733471,-1.44436395168,0.979434907436,1.89797723293,-1.15227758884,1.19831264019,-1.39116001129,-1.50062477589,0.0174117647059,0.0,0.0,0.0,0.0,0.0,0.0,0.0,0.0,0.0,0.0,0.0,0.0,0.0,0.0,0.0
2.766823,-1.44436395168,0.979434907436,1.89797723293,-1.15227758884,1.19831264019,-1.39116001129,-1.50062477589,0.0174117647059,0.0,0.0,0.0,0.0,0.0,0.0,0.0,0.0,0.0,0.0,0.0,0.0,0.0,0.0,0.0
2.800171,-1.44436395168,0.979434907436,1.89797723293,-1.15227758884,1.19831264019,-1.39116001129,-1.50062477589,0.0174117647059,0.0,0.0,0.0,0.0,0.0,0.0,0.0,0.0,0.0,0.0,0.0,0.0,0.0,0.0,0.0
2.833919,-1.44436395168,0.979434907436,1.89797723293,-1.15227758884,1.19831264019,-1.39116001129,-1.50062477589,0.0174117647059,0.0,0.0,0.0,0.0,0.0,0.0,0.0,0.0,0.0,0.0,0.0,0.0,0.0,0.0,0.0
2.866811,-1.44436395168,0.979434907436,1.89797723293,-1.15227758884,1.19831264019,-1.39116001129,-1.50062477589,0.0174117647059,0.0,0.0,0.0,0.0,0.0,0.0,0.0,0.0,0.0,0.0,0.0,0.0,0.0,0.0,0.0
2.900164,-1.44436395168,0.979434907436,1.89797723293,-1.15227758884,1.19831264019,-1.39116001129,-1.50062477589,0.0174117647059,0.0,0.0,0.0,0.0,0.0,0.0,0.0,0.0,0.0,0.0,0.0,0.0,0.0,0.0,0.0
2.933937,-1.44436395168,0.979434907436,1.89797723293,-1.15227758884,1.19831264019,-1.39116001129,-1.50062477589,0.0174117647059,0.0,0.0,0.0,0.0,0.0,0.0,0.0,0.0,0.0,0.0,0.0,0.0,0.0,0.0,0.0
2.966906,-1.44436395168,0.979434907436,1.89797723293,-1.15227758884,1.19831264019,-1.39116001129,-1.50062477589,0.0174117647059,0.0,0.0,0.0,0.0,0.0,0.0,0.0,0.0,0.0,0.0,0.0,0.0,0.0,0.0,0.0
3.000199,-1.44436395168,0.979434907436,1.89797723293,-1.15227758884,1.19831264019,-1.39116001129,-1.50062477589,0.0174117647059,0.0,0.0,0.0,0.0,0.0,0.0,0.0,0.0,0.0,0.0,0.0,0.0,0.0,0.0,0.0
3.033489,-1.44436395168,0.979434907436,1.89797723293,-1.15227758884,1.19831264019,-1.39116001129,-1.50062477589,0.0174117647059,0.0,0.0,0.0,0.0,0.0,0.0,0.0,0.0,0.0,0.0,0.0,0.0,0.0,0.0,0.0
3.066788,-1.44436395168,0.979434907436,1.89797723293,-1.15227758884,1.19831264019,-1.39116001129,-1.50062477589,0.0174117647059,0.0,0.0,0.0,0.0,0.0,0.0,0.0,0.0,0.0,0.0,0.0,0.0,0.0,0.0,0.0
3.100203,-1.44436395168,0.979434907436,1.89797723293,-1.15227758884,1.19831264019,-1.39116001129,-1.50062477589,0.0174117647059,0.0,0.0,0.0,0.0,0.0,0.0,0.0,0.0,0.0,0.0,0.0,0.0,0.0,0.0,0.0
3.133503,-1.44436395168,0.979434907436,1.89797723293,-1.15227758884,1.19831264019,-1.39116001129,-1.50062477589,0.0174117647059,0.0,0.0,0.0,0.0,0.0,0.0,0.0,0.0,0.0,0.0,0.0,0.0,0.0,0.0,0.0
3.166850,-1.44436395168,0.979434907436,1.89797723293,-1.15227758884,1.19831264019,-1.39116001129,-1.50062477589,0.0174117647059,0.0,0.0,0.0,0.0,0.0,0.0,0.0,0.0,0.0,0.0,0.0,0.0,0.0,0.0,0.0
3.200177,-1.44436395168,0.979434907436,1.89797723293,-1.15227758884,1.19831264019,-1.39116001129,-1.50062477589,0.0174117647059,0.0,0.0,0.0,0.0,0.0,0.0,0.0,0.0,0.0,0.0,0.0,0.0,0.0,0.0,0.0
3.233478,-1.44436395168,0.979434907436,1.89797723293,-1.15227758884,1.19831264019,-1.39116001129,-1.50062477589,0.0174117647059,0.0,0.0,0.0,0.0,0.0,0.0,0.0,0.0,0.0,0.0,0.0,0.0,0.0,0.0,0.0
3.266811,-1.44436395168,0.979434907436,1.89797723293,-1.15227758884,1.19831264019,-1.39116001129,-1.50062477589,0.0174117647059,0.0,0.0,0.0,0.0,0.0,0.0,0.0,0.0,0.0,0.0,0.0,0.0,0.0,0.0,0.0
3.300189,-1.44436395168,0.979434907436,1.89797723293,-1.15227758884,1.19831264019,-1.39116001129,-1.50062477589,0.0174117647059,0.0,0.0,0.0,0.0,0.0,0.0,0.0,0.0,0.0,0.0,0.0,0.0,0.0,0.0,0.0
3.333466,-1.44436395168,0.979434907436,1.89797723293,-1.15227758884,1.19831264019,-1.39116001129,-1.50062477589,0.0174117647059,0.0,0.0,0.0,0.0,0.0,0.0,0.0,0.0,0.0,0.0,0.0,0.0,0.0,0.0,0.0
3.366837,-1.44436395168,0.979434907436,1.89797723293,-1.15227758884,1.19831264019,-1.39116001129,-1.50062477589,0.0174117647059,0.0,0.0,0.0,0.0,0.0,0.0,0.0,0.0,0.0,0.0,0.0,0.0,0.0,0.0,0.0
3.400228,-1.44436395168,0.979434907436,1.89797723293,-1.15227758884,1.19831264019,-1.39116001129,-1.50062477589,0.0174117647059,0.0,0.0,0.0,0.0,0.0,0.0,0.0,0.0,0.0,0.0,0.0,0.0,0.0,0.0,0.0
3.433498,-1.44436395168,0.979434907436,1.89797723293,-1.15227758884,1.19831264019,-1.39116001129,-1.50062477589,0.0174117647059,0.0,0.0,0.0,0.0,0.0,0.0,0.0,0.0,0.0,0.0,0.0,0.0,0.0,0.0,0.0
3.466875,-1.44436395168,0.979434907436,1.89797723293,-1.15227758884,1.19831264019,-1.39116001129,-1.50062477589,0.0174117647059,0.0,0.0,0.0,0.0,0.0,0.0,0.0,0.0,0.0,0.0,0.0,0.0,0.0,0.0,0.0
3.500204,-1.44436395168,0.979434907436,1.89797723293,-1.15227758884,1.19831264019,-1.39116001129,-1.50062477589,0.0174117647059,0.0,0.0,0.0,0.0,0.0,0.0,0.0,0.0,0.0,0.0,0.0,0.0,0.0,0.0,0.0
3.533519,-1.44436395168,0.979434907436,1.89797723293,-1.15227758884,1.19831264019,-1.39116001129,-1.50062477589,0.0174117647059,0.0,0.0,0.0,0.0,0.0,0.0,0.0,0.0,0.0,0.0,0.0,0.0,0.0,0.0,0.0
3.566833,-1.44436395168,0.979434907436,1.89797723293,-1.15227758884,1.19831264019,-1.39116001129,-1.50062477589,0.0174117647059,0.0,0.0,0.0,0.0,0.0,0.0,0.0,0.0,0.0,0.0,0.0,0.0,0.0,0.0,0.0
3.600231,-1.44436395168,0.979434907436,1.89797723293,-1.15227758884,1.19831264019,-1.39116001129,-1.50062477589,0.0174117647059,0.0,0.0,0.0,0.0,0.0,0.0,0.0,0.0,0.0,0.0,0.0,0.0,0.0,0.0,0.0
3.633505,-1.44436395168,0.979434907436,1.89797723293,-1.15227758884,1.19831264019,-1.39116001129,-1.50062477589,0.0174117647059,0.0,0.0,0.0,0.0,0.0,0.0,0.0,0.0,0.0,0.0,0.0,0.0,0.0,0.0,0.0
3.666844,-1.44436395168,0.979434907436,1.89797723293,-1.15227758884,1.19831264019,-1.39116001129,-1.50062477589,0.0174117647059,0.0,0.0,0.0,0.0,0.0,0.0,0.0,0.0,0.0,0.0,0.0,0.0,0.0,0.0,0.0
3.700212,-1.44436395168,0.979434907436,1.89797723293,-1.15227758884,1.19831264019,-1.39116001129,-1.50062477589,0.0174117647059,0.0,0.0,0.0,0.0,0.0,0.0,0.0,0.0,0.0,0.0,0.0,0.0,0.0,0.0,0.0
3.733876,-1.44436395168,0.979434907436,1.89797723293,-1.15227758884,1.19831264019,-1.39116001129,-1.50062477589,0.0174117647059,0.0,0.0,0.0,0.0,0.0,0.0,0.0,0.0,0.0,0.0,0.0,0.0,0.0,0.0,0.0
3.766820,-1.44436395168,0.979434907436,1.89797723293,-1.15227758884,1.19831264019,-1.39116001129,-1.50062477589,0.0174117647059,0.0,0.0,0.0,0.0,0.0,0.0,0.0,0.0,0.0,0.0,0.0,0.0,0.0,0.0,0.0
3.800154,-1.44436395168,0.979434907436,1.89797723293,-1.15227758884,1.19831264019,-1.39116001129,-1.50062477589,0.0174117647059,0.0,0.0,0.0,0.0,0.0,0.0,0.0,0.0,0.0,0.0,0.0,0.0,0.0,0.0,0.0
3.833550,-1.44436395168,0.979434907436,1.89797723293,-1.15227758884,1.19831264019,-1.39116001129,-1.50062477589,0.0174117647059,0.0,0.0,0.0,0.0,0.0,0.0,0.0,0.0,0.0,0.0,0.0,0.0,0.0,0.0,0.0
3.866815,-1.44436395168,0.979434907436,1.89797723293,-1.15227758884,1.19831264019,-1.39116001129,-1.50062477589,0.0174117647059,0.0,0.0,0.0,0.0,0.0,0.0,0.0,0.0,0.0,0.0,0.0,0.0,0.0,0.0,0.0
3.900241,-1.44436395168,0.979434907436,1.89797723293,-1.15227758884,1.19831264019,-1.39116001129,-1.50062477589,0.0174117647059,0.0,0.0,0.0,0.0,0.0,0.0,0.0,0.0,0.0,0.0,0.0,0.0,0.0,0.0,0.0
3.933527,-1.44436395168,0.979434907436,1.89797723293,-1.15227758884,1.19831264019,-1.39116001129,-1.50062477589,0.0174117647059,0.0,0.0,0.0,0.0,0.0,0.0,0.0,0.0,0.0,0.0,0.0,0.0,0.0,0.0,0.0
3.966843,-1.44436395168,0.979434907436,1.89797723293,-1.15227758884,1.19831264019,-1.39116001129,-1.50062477589,0.0174117647059,0.0,0.0,0.0,0.0,0.0,0.0,0.0,0.0,0.0,0.0,0.0,0.0,0.0,0.0,0.0
4.000165,-1.44436395168,0.979434907436,1.89797723293,-1.15227758884,1.19831264019,-1.39116001129,-1.50062477589,0.0174117647059,0.0,0.0,0.0,0.0,0.0,0.0,0.0,0.0,0.0,0.0,0.0,0.0,0.0,0.0,0.0
4.033593,-1.44436395168,0.979434907436,1.89797723293,-1.15227758884,1.19831264019,-1.39116001129,-1.50062477589,0.0174117647059,0.0,0.0,0.0,0.0,0.0,0.0,0.0,0.0,0.0,0.0,0.0,0.0,0.0,0.0,0.0
4.066835,-1.44436395168,0.979434907436,1.89797723293,-1.15227758884,1.19831264019,-1.39116001129,-1.50062477589,0.0174117647059,0.0,0.0,0.0,0.0,0.0,0.0,0.0,0.0,0.0,0.0,0.0,0.0,0.0,0.0,0.0
4.100187,-1.44436395168,0.979434907436,1.89797723293,-1.15227758884,1.19831264019,-1.39116001129,-1.50062477589,0.0174117647059,0.0,0.0,0.0,0.0,0.0,0.0,0.0,0.0,0.0,0.0,0.0,0.0,0.0,0.0,0.0
4.133538,-1.44436395168,0.979434907436,1.89797723293,-1.15227758884,1.19831264019,-1.39116001129,-1.50062477589,0.0174117647059,0.0,0.0,0.0,0.0,0.0,0.0,0.0,0.0,0.0,0.0,0.0,0.0,0.0,0.0,0.0
4.166992,-1.44436395168,0.979434907436,1.89797723293,-1.15227758884,1.19831264019,-1.39116001129,-1.50062477589,0.0174117647059,0.0,0.0,0.0,0.0,0.0,0.0,0.0,0.0,0.0,0.0,0.0,0.0,0.0,0.0,0.0
4.200187,-1.44436395168,0.979434907436,1.89797723293,-1.15227758884,1.19831264019,-1.39116001129,-1.50062477589,0.0174117647059,0.0,0.0,0.0,0.0,0.0,0.0,0.0,0.0,0.0,0.0,0.0,0.0,0.0,0.0,0.0
4.233475,-1.44436395168,0.979434907436,1.89797723293,-1.15227758884,1.19831264019,-1.39116001129,-1.50062477589,0.0174117647059,0.0,0.0,0.0,0.0,0.0,0.0,0.0,0.0,0.0,0.0,0.0,0.0,0.0,0.0,0.0
4.266777,-1.44436395168,0.979434907436,1.89797723293,-1.15227758884,1.19831264019,-1.39116001129,-1.50062477589,0.0174117647059,0.0,0.0,0.0,0.0,0.0,0.0,0.0,0.0,0.0,0.0,0.0,0.0,0.0,0.0,0.0
4.300293,-1.44436395168,0.979434907436,1.89797723293,-1.15227758884,1.19831264019,-1.39116001129,-1.50062477589,0.0174117647059,0.0,0.0,0.0,0.0,0.0,0.0,0.0,0.0,0.0,0.0,0.0,0.0,0.0,0.0,0.0
4.333504,-1.44436395168,0.979434907436,1.89797723293,-1.15227758884,1.19831264019,-1.39116001129,-1.50062477589,0.0174117647059,0.0,0.0,0.0,0.0,0.0,0.0,0.0,0.0,0.0,0.0,0.0,0.0,0.0,0.0,0.0
4.366836,-1.44436395168,0.979434907436,1.89797723293,-1.15227758884,1.19831264019,-1.39116001129,-1.50062477589,0.0174117647059,0.0,0.0,0.0,0.0,0.0,0.0,0.0,0.0,0.0,0.0,0.0,0.0,0.0,0.0,0.0
4.400189,-1.44436395168,0.979434907436,1.89797723293,-1.15227758884,1.19831264019,-1.39116001129,-1.50062477589,0.0174117647059,0.0,0.0,0.0,0.0,0.0,0.0,0.0,0.0,0.0,0.0,0.0,0.0,0.0,0.0,0.0
4.433881,-1.44436395168,0.979434907436,1.89797723293,-1.15227758884,1.19831264019,-1.39116001129,-1.50062477589,0.0174117647059,0.0,0.0,0.0,0.0,0.0,0.0,0.0,0.0,0.0,0.0,0.0,0.0,0.0,0.0,0.0
4.466811,-1.44436395168,0.979434907436,1.89797723293,-1.15227758884,1.19831264019,-1.39116001129,-1.50062477589,0.0174117647059,0.0,0.0,0.0,0.0,0.0,0.0,0.0,0.0,0.0,0.0,0.0,0.0,0.0,0.0,0.0
4.500282,-1.44436395168,0.979434907436,1.89797723293,-1.15227758884,1.19831264019,-1.39116001129,-1.50062477589,0.0174117647059,0.0,0.0,0.0,0.0,0.0,0.0,0.0,0.0,0.0,0.0,0.0,0.0,0.0,0.0,0.0
4.533491,-1.44436395168,0.979434907436,1.89797723293,-1.15227758884,1.19831264019,-1.39116001129,-1.50062477589,0.0174117647059,0.0,0.0,0.0,0.0,0.0,0.0,0.0,0.0,0.0,0.0,0.0,0.0,0.0,0.0,0.0
4.566860,-1.44436395168,0.979434907436,1.89797723293,-1.15227758884,1.19831264019,-1.39116001129,-1.50062477589,0.0174117647059,0.0,0.0,0.0,0.0,0.0,0.0,0.0,0.0,0.0,0.0,0.0,0.0,0.0,0.0,0.0
4.600222,-1.44436395168,0.979434907436,1.89797723293,-1.15227758884,1.19831264019,-1.39116001129,-1.50062477589,0.0174117647059,0.0,0.0,0.0,0.0,0.0,0.0,0.0,0.0,0.0,0.0,0.0,0.0,0.0,0.0,0.0
4.633507,-1.44436395168,0.979434907436,1.89797723293,-1.15227758884,1.19831264019,-1.39116001129,-1.50062477589,0.0174117647059,0.0,0.0,0.0,0.0,0.0,0.0,0.0,0.0,0.0,0.0,0.0,0.0,0.0,0.0,0.0
4.666816,-1.44436395168,0.979434907436,1.89797723293,-1.15227758884,1.19831264019,-1.39116001129,-1.50062477589,0.0174117647059,0.0,0.0,0.0,0.0,0.0,0.0,0.0,0.0,0.0,0.0,0.0,0.0,0.0,0.0,0.0
4.700186,-1.44436395168,0.979434907436,1.89797723293,-1.15227758884,1.19831264019,-1.39116001129,-1.50062477589,0.0174117647059,0.0,0.0,0.0,0.0,0.0,0.0,0.0,0.0,0.0,0.0,0.0,0.0,0.0,0.0,0.0
4.733918,-1.44436395168,0.979434907436,1.89797723293,-1.15227758884,1.19831264019,-1.39116001129,-1.50062477589,0.0174117647059,0.0,0.0,0.0,0.0,0.0,0.0,0.0,0.0,0.0,0.0,0.0,0.0,0.0,0.0,0.0
4.766844,-1.44436395168,0.979434907436,1.89797723293,-1.15227758884,1.19831264019,-1.39116001129,-1.50062477589,0.0174117647059,0.0,0.0,0.0,0.0,0.0,0.0,0.0,0.0,0.0,0.0,0.0,0.0,0.0,0.0,0.0
4.800166,-1.44436395168,0.979434907436,1.89797723293,-1.15227758884,1.19831264019,-1.39116001129,-1.50062477589,0.0174117647059,0.0,0.0,0.0,0.0,0.0,0.0,0.0,0.0,0.0,0.0,0.0,0.0,0.0,0.0,0.0
4.833482,-1.44436395168,0.979434907436,1.89797723293,-1.15227758884,1.19831264019,-1.39116001129,-1.50062477589,0.0174117647059,0.0,0.0,0.0,0.0,0.0,0.0,0.0,0.0,0.0,0.0,0.0,0.0,0.0,0.0,0.0
4.866837,-1.44436395168,0.979434907436,1.89797723293,-1.15227758884,1.19831264019,-1.39116001129,-1.50062477589,0.0174117647059,0.0,0.0,0.0,0.0,0.0,0.0,0.0,0.0,0.0,0.0,0.0,0.0,0.0,0.0,0.0
4.900305,-1.44436395168,0.979434907436,1.89797723293,-1.15227758884,1.19831264019,-1.39116001129,-1.50062477589,0.0174117647059,0.0,0.0,0.0,0.0,0.0,0.0,0.0,0.0,0.0,0.0,0.0,0.0,0.0,0.0,0.0
4.933484,-1.44436395168,0.979434907436,1.89797723293,-1.15227758884,1.19831264019,-1.39116001129,-1.50062477589,0.0174117647059,0.0,0.0,0.0,0.0,0.0,0.0,0.0,0.0,0.0,0.0,0.0,0.0,0.0,0.0,0.0
4.966804,-1.44436395168,0.979434907436,1.89797723293,-1.15227758884,1.19831264019,-1.39116001129,-1.50062477589,0.0174117647059,0.0,0.0,0.0,0.0,0.0,0.0,0.0,0.0,0.0,0.0,0.0,0.0,0.0,0.0,0.0
5.000181,-1.44436395168,0.979434907436,1.89797723293,-1.15227758884,1.19831264019,-1.39116001129,-1.50062477589,0.0174117647059,0.0,0.0,0.0,0.0,0.0,0.0,0.0,0.0,0.0,0.0,0.0,0.0,0.0,0.0,0.0
5.033495,-1.44436395168,0.979434907436,1.89797723293,-1.15227758884,1.19831264019,-1.39116001129,-1.50062477589,0.0174117647059,0.0,0.0,0.0,0.0,0.0,0.0,0.0,0.0,0.0,0.0,0.0,0.0,0.0,0.0,0.0
5.066871,-1.44436395168,0.979434907436,1.89797723293,-1.15227758884,1.19831264019,-1.39116001129,-1.50062477589,0.0174117647059,0.0,0.0,0.0,0.0,0.0,0.0,0.0,0.0,0.0,0.0,0.0,0.0,0.0,0.0,0.0
5.100120,-1.44436395168,0.979434907436,1.89797723293,-1.15227758884,1.19831264019,-1.39116001129,-1.50062477589,0.0174117647059,0.0,0.0,0.0,0.0,0.0,0.0,0.0,0.0,0.0,0.0,0.0,0.0,0.0,0.0,0.0
5.133486,-1.44436395168,0.979434907436,1.89797723293,-1.15227758884,1.19831264019,-1.39116001129,-1.50062477589,0.0174117647059,0.0,0.0,0.0,0.0,0.0,0.0,0.0,0.0,0.0,0.0,0.0,0.0,0.0,0.0,0.0
5.166847,-1.44436395168,0.979434907436,1.89797723293,-1.15227758884,1.19831264019,-1.39116001129,-1.50062477589,0.0174117647059,0.0,0.0,0.0,0.0,0.0,0.0,0.0,0.0,0.0,0.0,0.0,0.0,0.0,0.0,0.0
5.200105,-1.44436395168,0.979434907436,1.89797723293,-1.15227758884,1.19831264019,-1.39116001129,-1.50062477589,0.0174117647059,0.0,0.0,0.0,0.0,0.0,0.0,0.0,0.0,0.0,0.0,0.0,0.0,0.0,0.0,0.0
5.233494,-1.44436395168,0.979434907436,1.89797723293,-1.15227758884,1.19831264019,-1.39116001129,-1.50062477589,0.0174117647059,0.0,0.0,0.0,0.0,0.0,0.0,0.0,0.0,0.0,0.0,0.0,0.0,0.0,0.0,0.0
5.266903,-1.44436395168,0.979434907436,1.89797723293,-1.15227758884,1.19831264019,-1.39116001129,-1.50062477589,0.0174117647059,0.0,0.0,0.0,0.0,0.0,0.0,0.0,0.0,0.0,0.0,0.0,0.0,0.0,0.0,0.0
5.300285,-1.44436395168,0.979434907436,1.89797723293,-1.15227758884,1.19831264019,-1.39116001129,-1.50062477589,0.0174117647059,0.0,0.0,0.0,0.0,0.0,0.0,0.0,0.0,0.0,0.0,0.0,0.0,0.0,0.0,0.0
5.333493,-1.44436395168,0.979434907436,1.89797723293,-1.15227758884,1.19831264019,-1.39116001129,-1.50062477589,0.0174117647059,0.0,0.0,0.0,0.0,0.0,0.0,0.0,0.0,0.0,0.0,0.0,0.0,0.0,0.0,0.0
5.366824,-1.44436395168,0.979434907436,1.89797723293,-1.15227758884,1.19831264019,-1.39116001129,-1.50062477589,0.0174117647059,0.0,0.0,0.0,0.0,0.0,0.0,0.0,0.0,0.0,0.0,0.0,0.0,0.0,0.0,0.0
5.400181,-1.44436395168,0.979434907436,1.89797723293,-1.15227758884,1.19831264019,-1.39116001129,-1.50062477589,0.0174117647059,0.0,0.0,0.0,0.0,0.0,0.0,0.0,0.0,0.0,0.0,0.0,0.0,0.0,0.0,0.0
5.433475,-1.44436395168,0.979434907436,1.89797723293,-1.15227758884,1.19831264019,-1.39116001129,-1.50062477589,0.0174117647059,0.0,0.0,0.0,0.0,0.0,0.0,0.0,0.0,0.0,0.0,0.0,0.0,0.0,0.0,0.0
5.466863,-1.44436395168,0.979434907436,1.89797723293,-1.15227758884,1.19831264019,-1.39116001129,-1.50062477589,0.0174117647059,0.0,0.0,0.0,0.0,0.0,0.0,0.0,0.0,0.0,0.0,0.0,0.0,0.0,0.0,0.0
5.500151,-1.44436395168,0.979434907436,1.89797723293,-1.15227758884,1.19831264019,-1.39116001129,-1.50062477589,0.0174117647059,0.0,0.0,0.0,0.0,0.0,0.0,0.0,0.0,0.0,0.0,0.0,0.0,0.0,0.0,0.0
5.533496,-1.44436395168,0.979434907436,1.89797723293,-1.15227758884,1.19831264019,-1.39116001129,-1.50062477589,0.0174117647059,0.0,0.0,0.0,0.0,0.0,0.0,0.0,0.0,0.0,0.0,0.0,0.0,0.0,0.0,0.0
5.566811,-1.44436395168,0.979434907436,1.89797723293,-1.15227758884,1.19831264019,-1.39116001129,-1.50062477589,0.0174117647059,0.0,0.0,0.0,0.0,0.0,0.0,0.0,0.0,0.0,0.0,0.0,0.0,0.0,0.0,0.0
5.600341,-1.44436395168,0.979434907436,1.89797723293,-1.15227758884,1.19831264019,-1.39116001129,-1.50062477589,0.0174117647059,0.0,0.0,0.0,0.0,0.0,0.0,0.0,0.0,0.0,0.0,0.0,0.0,0.0,0.0,0.0
5.633598,-1.44436395168,0.979434907436,1.89797723293,-1.15227758884,1.19831264019,-1.39116001129,-1.50062477589,0.0174117647059,0.0,0.0,0.0,0.0,0.0,0.0,0.0,0.0,0.0,0.0,0.0,0.0,0.0,0.0,0.0
5.666831,-1.44436395168,0.979434907436,1.89797723293,-1.15227758884,1.19831264019,-1.39116001129,-1.50062477589,0.0174117647059,0.0,0.0,0.0,0.0,0.0,0.0,0.0,0.0,0.0,0.0,0.0,0.0,0.0,0.0,0.0
5.700171,-1.44436395168,0.979434907436,1.89797723293,-1.15227758884,1.19831264019,-1.39116001129,-1.50062477589,0.0174117647059,0.0,0.0,0.0,0.0,0.0,0.0,0.0,0.0,0.0,0.0,0.0,0.0,0.0,0.0,0.0
5.733471,-1.44436395168,0.979434907436,1.89797723293,-1.15227758884,1.19831264019,-1.39116001129,-1.50062477589,0.0174117647059,0.0,0.0,0.0,0.0,0.0,0.0,0.0,0.0,0.0,0.0,0.0,0.0,0.0,0.0,0.0
5.766851,-1.44436395168,0.979434907436,1.89797723293,-1.15227758884,1.19831264019,-1.39116001129,-1.50062477589,0.0174117647059,0.0,0.0,0.0,0.0,0.0,0.0,0.0,0.0,0.0,0.0,0.0,0.0,0.0,0.0,0.0
5.800147,-1.44436395168,0.979434907436,1.89797723293,-1.15227758884,1.19831264019,-1.39116001129,-1.50062477589,0.0174117647059,0.0,0.0,0.0,0.0,0.0,0.0,0.0,0.0,0.0,0.0,0.0,0.0,0.0,0.0,0.0
5.833483,-1.44436395168,0.979434907436,1.89797723293,-1.15227758884,1.19831264019,-1.39116001129,-1.50062477589,0.0174117647059,0.0,0.0,0.0,0.0,0.0,0.0,0.0,0.0,0.0,0.0,0.0,0.0,0.0,0.0,0.0
5.866855,-1.44436395168,0.979434907436,1.89797723293,-1.15227758884,1.19831264019,-1.39116001129,-1.50062477589,0.0174117647059,0.0,0.0,0.0,0.0,0.0,0.0,0.0,0.0,0.0,0.0,0.0,0.0,0.0,0.0,0.0
5.900287,-1.44436395168,0.979434907436,1.89797723293,-1.15227758884,1.19831264019,-1.39116001129,-1.50062477589,0.0174117647059,0.0,0.0,0.0,0.0,0.0,0.0,0.0,0.0,0.0,0.0,0.0,0.0,0.0,0.0,0.0
5.933488,-1.44436395168,0.979434907436,1.89797723293,-1.15227758884,1.19831264019,-1.39116001129,-1.50062477589,0.0174117647059,0.0,0.0,0.0,0.0,0.0,0.0,0.0,0.0,0.0,0.0,0.0,0.0,0.0,0.0,0.0
5.966835,-1.44436395168,0.979434907436,1.89797723293,-1.15227758884,1.19831264019,-1.39116001129,-1.50062477589,0.0174117647059,0.0,0.0,0.0,0.0,0.0,0.0,0.0,0.0,0.0,0.0,0.0,0.0,0.0,0.0,0.0
6.000190,-1.44436395168,0.979434907436,1.89797723293,-1.15227758884,1.19831264019,-1.39116001129,-1.50062477589,0.0174117647059,0.0,0.0,0.0,0.0,0.0,0.0,0.0,0.0,0.0,0.0,0.0,0.0,0.0,0.0,0.0
6.033500,-1.44436395168,0.979434907436,1.89797723293,-1.15227758884,1.19831264019,-1.39116001129,-1.50062477589,0.0174117647059,0.0,0.0,0.0,0.0,0.0,0.0,0.0,0.0,0.0,0.0,0.0,0.0,0.0,0.0,0.0
6.066805,-1.44436395168,0.979434907436,1.89797723293,-1.15227758884,1.19831264019,-1.39116001129,-1.50062477589,0.0174117647059,0.0,0.0,0.0,0.0,0.0,0.0,0.0,0.0,0.0,0.0,0.0,0.0,0.0,0.0,0.0
6.100235,-1.44436395168,0.979434907436,1.89797723293,-1.15227758884,1.19831264019,-1.39116001129,-1.50062477589,0.0174117647059,0.0,0.0,0.0,0.0,0.0,0.0,0.0,0.0,0.0,0.0,0.0,0.0,0.0,0.0,0.0
6.133524,-1.44436395168,0.979434907436,1.89797723293,-1.15227758884,1.19831264019,-1.39116001129,-1.50062477589,0.0174117647059,0.0,0.0,0.0,0.0,0.0,0.0,0.0,0.0,0.0,0.0,0.0,0.0,0.0,0.0,0.0
6.166843,-1.44436395168,0.979434907436,1.89797723293,-1.15227758884,1.19831264019,-1.39116001129,-1.50062477589,0.0174117647059,0.0,0.0,0.0,0.0,0.0,0.0,0.0,0.0,0.0,0.0,0.0,0.0,0.0,0.0,0.0
6.200210,-1.44436395168,0.979434907436,1.89797723293,-1.15227758884,1.19831264019,-1.39116001129,-1.50062477589,0.0174117647059,0.0,0.0,0.0,0.0,0.0,0.0,0.0,0.0,0.0,0.0,0.0,0.0,0.0,0.0,0.0
6.233474,-1.44436395168,0.979434907436,1.89797723293,-1.15227758884,1.19831264019,-1.39116001129,-1.50062477589,0.0174117647059,0.0,0.0,0.0,0.0,0.0,0.0,0.0,0.0,0.0,0.0,0.0,0.0,0.0,0.0,0.0
6.266815,-1.44436395168,0.979434907436,1.89797723293,-1.15227758884,1.19831264019,-1.39116001129,-1.50062477589,0.0174117647059,0.0,0.0,0.0,0.0,0.0,0.0,0.0,0.0,0.0,0.0,0.0,0.0,0.0,0.0,0.0
6.300198,-1.44436395168,0.979434907436,1.89797723293,-1.15227758884,1.19831264019,-1.39116001129,-1.50062477589,0.0174117647059,0.0,0.0,0.0,0.0,0.0,0.0,0.0,0.0,0.0,0.0,0.0,0.0,0.0,0.0,0.0
6.333486,-1.44436395168,0.979434907436,1.89797723293,-1.15227758884,1.19831264019,-1.39116001129,-1.50062477589,0.0174117647059,0.0,0.0,0.0,0.0,0.0,0.0,0.0,0.0,0.0,0.0,0.0,0.0,0.0,0.0,0.0
6.366830,-1.44436395168,0.979434907436,1.89797723293,-1.15227758884,1.19831264019,-1.39116001129,-1.50062477589,0.0174117647059,0.0,0.0,0.0,0.0,0.0,0.0,0.0,0.0,0.0,0.0,0.0,0.0,0.0,0.0,0.0
6.400155,-1.44436395168,0.979434907436,1.89797723293,-1.15227758884,1.19831264019,-1.39116001129,-1.50062477589,0.0174117647059,0.0,0.0,0.0,0.0,0.0,0.0,0.0,0.0,0.0,0.0,0.0,0.0,0.0,0.0,0.0
6.434205,-1.44436395168,0.979434907436,1.89797723293,-1.15227758884,1.19831264019,-1.39116001129,-1.50062477589,0.0174117647059,0.0,0.0,0.0,0.0,0.0,0.0,0.0,0.0,0.0,0.0,0.0,0.0,0.0,0.0,0.0
6.466930,-1.44436395168,0.979434907436,1.89797723293,-1.15227758884,1.19831264019,-1.39116001129,-1.50062477589,0.0174117647059,0.0,0.0,0.0,0.0,0.0,0.0,0.0,0.0,0.0,0.0,0.0,0.0,0.0,0.0,0.0
6.500215,-1.44436395168,0.979434907436,1.89797723293,-1.15227758884,1.19831264019,-1.39116001129,-1.50062477589,0.0174117647059,0.0,0.0,0.0,0.0,0.0,0.0,0.0,0.0,0.0,0.0,0.0,0.0,0.0,0.0,0.0
6.533490,-1.44436395168,0.979434907436,1.89797723293,-1.15227758884,1.19831264019,-1.39116001129,-1.50062477589,0.0174117647059,0.0,0.0,0.0,0.0,0.0,0.0,0.0,0.0,0.0,0.0,0.0,0.0,0.0,0.0,0.0
6.566819,-1.44436395168,0.979434907436,1.89797723293,-1.15227758884,1.19831264019,-1.39116001129,-1.50062477589,0.0174117647059,0.0,0.0,0.0,0.0,0.0,0.0,0.0,0.0,0.0,0.0,0.0,0.0,0.0,0.0,0.0
6.600166,-1.44436395168,0.979434907436,1.89797723293,-1.15227758884,1.19831264019,-1.39116001129,-1.50062477589,0.0174117647059,0.0,0.0,0.0,0.0,0.0,0.0,0.0,0.0,0.0,0.0,0.0,0.0,0.0,0.0,0.0
6.633499,-1.44436395168,0.979434907436,1.89797723293,-1.15227758884,1.19831264019,-1.39116001129,-1.50062477589,0.0174117647059,0.0,0.0,0.0,0.0,0.0,0.0,0.0,0.0,0.0,0.0,0.0,0.0,0.0,0.0,0.0
6.666817,-1.44436395168,0.979434907436,1.89797723293,-1.15227758884,1.19831264019,-1.39116001129,-1.50062477589,0.0174117647059,0.0,0.0,0.0,0.0,0.0,0.0,0.0,0.0,0.0,0.0,0.0,0.0,0.0,0.0,0.0
6.700129,-1.44436395168,0.979434907436,1.89797723293,-1.15227758884,1.19831264019,-1.39116001129,-1.50062477589,0.0174117647059,0.0,0.0,0.0,0.0,0.0,0.0,0.0,0.0,0.0,0.0,0.0,0.0,0.0,0.0,0.0
6.733518,-1.44436395168,0.979434907436,1.89797723293,-1.15227758884,1.19831264019,-1.39116001129,-1.50062477589,0.0174117647059,0.0,0.0,0.0,0.0,0.0,0.0,0.0,0.0,0.0,0.0,0.0,0.0,0.0,0.0,0.0
6.766877,-1.44436395168,0.979434907436,1.89797723293,-1.15227758884,1.19831264019,-1.39116001129,-1.50062477589,0.0174117647059,0.0,0.0,0.0,0.0,0.0,0.0,0.0,0.0,0.0,0.0,0.0,0.0,0.0,0.0,0.0
6.800201,-1.44436395168,0.979434907436,1.89797723293,-1.15227758884,1.19831264019,-1.39116001129,-1.50062477589,0.0174117647059,0.0,0.0,0.0,0.0,0.0,0.0,0.0,0.0,0.0,0.0,0.0,0.0,0.0,0.0,0.0
6.833495,-1.44436395168,0.979434907436,1.89797723293,-1.15227758884,1.19831264019,-1.39116001129,-1.50062477589,0.0174117647059,0.0,0.0,0.0,0.0,0.0,0.0,0.0,0.0,0.0,0.0,0.0,0.0,0.0,0.0,0.0
6.866914,-1.44436395168,0.979434907436,1.89797723293,-1.15227758884,1.19831264019,-1.39116001129,-1.50062477589,0.0174117647059,0.0,0.0,0.0,0.0,0.0,0.0,0.0,0.0,0.0,0.0,0.0,0.0,0.0,0.0,0.0
6.900184,-1.44436395168,0.979434907436,1.89797723293,-1.15227758884,1.19831264019,-1.39116001129,-1.50062477589,0.0174117647059,0.0,0.0,0.0,0.0,0.0,0.0,0.0,0.0,0.0,0.0,0.0,0.0,0.0,0.0,0.0
6.933500,-1.44436395168,0.979434907436,1.89797723293,-1.15227758884,1.19831264019,-1.39116001129,-1.50062477589,0.0174117647059,0.0,0.0,0.0,0.0,0.0,0.0,0.0,0.0,0.0,0.0,0.0,0.0,0.0,0.0,0.0
6.968173,-1.44436395168,0.979434907436,1.89797723293,-1.15227758884,1.19831264019,-1.39116001129,-1.50062477589,0.0174117647059,0.0,0.0,0.0,0.0,0.0,0.0,0.0,0.0,0.0,0.0,0.0,0.0,0.0,0.0,0.0
7.000392,-1.44437932968,0.97955518961,1.89798498154,-1.15223932266,1.19849669933,-1.39114129543,-1.50061643124,0.0174117647059,0.0,0.0,0.0,0.0,0.0,0.0,0.0,0.0,0.0,0.0,0.0,0.0,0.0,0.0,0.0
7.033503,-1.44438576698,0.979736685753,1.89798867702,-1.15217161179,1.19908773899,-1.39110898972,-1.50061643124,0.0174117647059,0.0,0.0,0.0,0.0,0.0,0.0,0.0,0.0,0.0,0.0,0.0,0.0,0.0,0.0,0.0
7.066806,-1.44438827038,0.980288863182,1.89798867702,-1.15211260319,1.20024728775,-1.39107644558,-1.50061643124,0.0174117647059,0.0,0.0,0.0,0.0,0.0,0.0,0.0,0.0,0.0,0.0,0.0,0.0,0.0,0.0,0.0
7.100200,-1.44438827038,0.980917870998,1.89798867702,-1.15211260319,1.20121276379,-1.39104247093,-1.50061643124,0.0174117647059,0.0,0.0,0.0,0.0,0.0,0.0,0.0,0.0,0.0,0.0,0.0,0.0,0.0,0.0,0.0
7.133571,-1.44438946247,0.981679737568,1.89798998833,-1.15211260319,1.20213520527,-1.39101195335,-1.50061643124,0.0174117647059,0.0,0.0,0.0,0.0,0.0,0.0,0.0,0.0,0.0,0.0,0.0,0.0,0.0,0.0,0.0
7.166817,-1.44438946247,0.982882618904,1.89798998833,-1.1521075964,1.20361804962,-1.39093351364,-1.50061643124,0.0174117647059,0.0,0.0,0.0,0.0,0.0,0.0,0.0,0.0,0.0,0.0,0.0,0.0,0.0,0.0,0.0
7.200191,-1.44439089298,0.983947396278,1.89798998833,-1.15191090107,1.20440757275,-1.39079368114,-1.50061643124,0.0174117647059,0.0,0.0,0.0,0.0,0.0,0.0,0.0,0.0,0.0,0.0,0.0,0.0,0.0,0.0,0.0
7.233503,-1.44439089298,0.985072314739,1.89799118042,-1.15137267113,1.20457518101,-1.39071190357,-1.50061643124,0.0174117647059,0.0,0.0,0.0,0.0,0.0,0.0,0.0,0.0,0.0,0.0,0.0,0.0,0.0,0.0,0.0
7.266807,-1.44439220428,0.986841499805,1.89799118042,-1.15027070045,1.20461404324,-1.39070665836,-1.5006146431,0.0174117647059,0.0,0.0,0.0,0.0,0.0,0.0,0.0,0.0,0.0,0.0,0.0,0.0,0.0,0.0,0.0
7.300461,-1.44439220428,0.988545536995,1.89799118042,-1.14963150024,1.20461404324,-1.39069974422,-1.5006146431,0.0174117647059,0.0,0.0,0.0,0.0,0.0,0.0,0.0,0.0,0.0,0.0,0.0,0.0,0.0,0.0,0.0
7.333536,-1.44439339638,0.990377426147,1.89798998833,-1.14896559715,1.20461010933,-1.39069974422,-1.50061643124,0.0174117647059,0.0,0.0,0.0,0.0,0.0,0.0,0.0,0.0,0.0,0.0,0.0,0.0,0.0,0.0,0.0
7.366834,-1.44439601898,0.992678284645,1.89798867702,-1.14757072926,1.20455467701,-1.3906981945,-1.50061643124,0.0174117647059,0.0,0.0,0.0,0.0,0.0,0.0,0.0,0.0,0.0,0.0,0.0,0.0,0.0,0.0,0.0
7.400188,-1.44439601898,0.994581758976,1.89796447754,-1.14698410034,1.20444047451,-1.39069974422,-1.50061643124,0.0174117647059,0.0,0.0,0.0,0.0,0.0,0.0,0.0,0.0,0.0,0.0,0.0,0.0,0.0,0.0,0.0
7.433493,-1.44439601898,0.996674358845,1.89796447754,-1.14704930782,1.20369565487,-1.39069974422,-1.50061643124,0.0174117647059,0.0,0.0,0.0,0.0,0.0,0.0,0.0,0.0,0.0,0.0,0.0,0.0,0.0,0.0,0.0
7.466768,-1.44439709187,0.999406039715,1.89787364006,-1.14861273766,1.20261394978,-1.39069974422,-1.50061643124,0.0174117647059,0.0,0.0,0.0,0.0,0.0,0.0,0.0,0.0,0.0,0.0,0.0,0.0,0.0,0.0,0.0
7.500150,-1.44439709187,1.00159585476,1.89767944813,-1.15045464039,1.20182025433,-1.39069974422,-1.50061798096,0.0174117647059,0.0,0.0,0.0,0.0,0.0,0.0,0.0,0.0,0.0,0.0,0.0,0.0,0.0,0.0,0.0
7.533485,-1.44437801838,1.00400161743,1.89704525471,-1.15222394466,1.20113289356,-1.39069974422,-1.5006300211,0.0174117647059,0.0,0.0,0.0,0.0,0.0,0.0,0.0,0.0,0.0,0.0,0.0,0.0,0.0,0.0,0.0
7.566862,-1.44439089298,1.00724351406,1.89535796642,-1.15524721146,1.19802618027,-1.39069974422,-1.5009059906,0.0174117647059,0.0,0.0,0.0,0.0,0.0,0.0,0.0,0.0,0.0,0.0,0.0,0.0,0.0,0.0,0.0
7.600169,-1.44438827038,1.00942802429,1.89337921143,-1.15837776661,1.19280040264,-1.39069974422,-1.50266003609,0.0174117647059,0.0,0.0,0.0,0.0,0.0,0.0,0.0,0.0,0.0,0.0,0.0,0.0,0.0,0.0,0.0
7.633488,-1.44438946247,1.01172780991,1.89071118832,-1.16217935085,1.18539845943,-1.39069974422,-1.50357186794,0.0174117647059,0.0,0.0,0.0,0.0,0.0,0.0,0.0,0.0,0.0,0.0,0.0,0.0,0.0,0.0,0.0
7.666832,-1.44439339638,1.01483535767,1.88601350784,-1.16747045517,1.17185246944,-1.39070165157,-1.50356316566,0.0174117647059,0.0,0.0,0.0,0.0,0.0,0.0,0.0,0.0,0.0,0.0,0.0,0.0,0.0,0.0,0.0
7.700280,-1.44439339638,1.01707112789,1.88157129288,-1.17195343971,1.15826952457,-1.39070165157,-1.50355660915,0.0174117647059,0.0,0.0,0.0,0.0,0.0,0.0,0.0,0.0,0.0,0.0,0.0,0.0,0.0,0.0,0.0
7.733505,-1.44439470768,1.01935553551,1.8765232563,-1.17674207687,1.14235913754,-1.39070320129,-1.50355660915,0.0174117647059,0.0,0.0,0.0,0.0,0.0,0.0,0.0,0.0,0.0,0.0,0.0,0.0,0.0,0.0,0.0
7.766908,-1.44439601898,1.02250146866,1.86873710155,-1.18324100971,1.11785411835,-1.39070320129,-1.50355315208,0.0174117647059,0.0,0.0,0.0,0.0,0.0,0.0,0.0,0.0,0.0,0.0,0.0,0.0,0.0,0.0,0.0
7.800189,-1.44442021847,1.0250389576,1.86249387264,-1.18765115738,1.09852004051,-1.39070320129,-1.50355148315,0.0174117647059,0.0,0.0,0.0,0.0,0.0,0.0,0.0,0.0,0.0,0.0,0.0,0.0,0.0,0.0,0.0
7.833519,-1.44441890717,1.02787029743,1.8559281826,-1.19149756432,1.07855367661,-1.39070320129,-1.50355148315,0.0174117647059,0.0,0.0,0.0,0.0,0.0,0.0,0.0,0.0,0.0,0.0,0.0,0.0,0.0,0.0,0.0
7.866822,-1.44441652298,1.03222179413,1.8466771841,-1.19628238678,1.05177652836,-1.39070320129,-1.50354957581,0.0174117647059,0.0,0.0,0.0,0.0,0.0,0.0,0.0,0.0,0.0,0.0,0.0,0.0,0.0,0.0,0.0
7.902043,-1.44441652298,1.03467488289,1.84199464321,-1.19843244553,1.03902602196,-1.39070320129,-1.50354957581,0.0174117647059,0.0,0.0,0.0,0.0,0.0,0.0,0.0,0.0,0.0,0.0,0.0,0.0,0.0,0.0,0.0
7.933497,-1.44441390038,1.04029691219,1.8324072361,-1.20291173458,1.01508176327,-1.39070320129,-1.50354790688,0.0174117647059,0.0,0.0,0.0,0.0,0.0,0.0,0.0,0.0,0.0,0.0,0.0,0.0,0.0,0.0,0.0
7.966819,-1.44447779655,1.04680228233,1.82330703735,-1.20706510544,0.994460880756,-1.39070665836,-1.50351560116,0.0174117647059,0.0,0.0,0.0,0.0,0.0,0.0,0.0,0.0,0.0,0.0,0.0,0.0,0.0,0.0,0.0
8.000213,-1.44456219673,1.05253171921,1.81732034683,-1.20928168297,0.982669830322,-1.39070665836,-1.50350868702,0.0174117647059,0.0,0.0,0.0,0.0,0.0,0.0,0.0,0.0,0.0,0.0,0.0,0.0,0.0,0.0,0.0
8.033493,-1.44469130039,1.05899477005,1.81220972538,-1.21044492722,0.973020017147,-1.39070665836,-1.50351047516,0.0174117647059,0.0,0.0,0.0,0.0,0.0,0.0,0.0,0.0,0.0,0.0,0.0,0.0,0.0,0.0,0.0
8.066836,-1.44483959675,1.06794810295,1.8078430891,-1.21050620079,0.961335241795,-1.39070665836,-1.50350868702,0.0174117647059,0.0,0.0,0.0,0.0,0.0,0.0,0.0,0.0,0.0,0.0,0.0,0.0,0.0,0.0,0.0
8.100194,-1.44515013695,1.07490599155,1.80669510365,-1.21049070358,0.952440142632,-1.39070665836,-1.50350701809,0.0174117647059,0.0,0.0,0.0,0.0,0.0,0.0,0.0,0.0,0.0,0.0,0.0,0.0,0.0,0.0,0.0
8.133485,-1.44537520409,1.08194065094,1.80670666695,-1.21058046818,0.943534910679,-1.39070665836,-1.50351047516,0.0174117647059,0.0,0.0,0.0,0.0,0.0,0.0,0.0,0.0,0.0,0.0,0.0,0.0,0.0,0.0,0.0
8.166842,-1.44530618191,1.09068179131,1.80670666695,-1.21135246754,0.931690454483,-1.39070665836,-1.50351047516,0.0174117647059,0.0,0.0,0.0,0.0,0.0,0.0,0.0,0.0,0.0,0.0,0.0,0.0,0.0,0.0,0.0
8.200182,-1.44527173042,1.09704899788,1.80670666695,-1.21253478527,0.922973394394,-1.39070665836,-1.50351047516,0.0174117647059,0.0,0.0,0.0,0.0,0.0,0.0,0.0,0.0,0.0,0.0,0.0,0.0,0.0,0.0,0.0
8.233501,-1.44526004791,1.10319900513,1.80670166016,-1.21422886848,0.914192974567,-1.39070665836,-1.5035122633,0.0174117647059,0.0,0.0,0.0,0.0,0.0,0.0,0.0,0.0,0.0,0.0,0.0,0.0,0.0,0.0,0.0
8.266812,-1.44518470764,1.11092126369,1.80669629574,-1.21791672707,0.901781976223,-1.39070665836,-1.50351047516,0.0174117647059,0.0,0.0,0.0,0.0,0.0,0.0,0.0,0.0,0.0,0.0,0.0,0.0,0.0,0.0,0.0
8.300191,-1.44519114494,1.1165715456,1.80669260025,-1.22196388245,0.891565680504,-1.39071190357,-1.50351047516,0.0174117647059,0.0,0.0,0.0,0.0,0.0,0.0,0.0,0.0,0.0,0.0,0.0,0.0,0.0,0.0,0.0
8.333496,-1.44519364834,1.12211155891,1.80669140816,-1.22679698467,0.880195856094,-1.39071190357,-1.50350868702,0.0174117647059,0.0,0.0,0.0,0.0,0.0,0.0,0.0,0.0,0.0,0.0,0.0,0.0,0.0,0.0,0.0
8.366784,-1.44523453712,1.12928938866,1.80668485165,-1.23419606686,0.86360424757,-1.39071857929,-1.50344741344,0.0174117647059,0.0,0.0,0.0,0.0,0.0,0.0,0.0,0.0,0.0,0.0,0.0,0.0,0.0,0.0,0.0
8.400139,-1.44527554512,1.13476455212,1.80668234825,-1.24016582966,0.850405931473,-1.390797019,-1.50303673744,0.0174117647059,0.0,0.0,0.0,0.0,0.0,0.0,0.0,0.0,0.0,0.0,0.0,0.0,0.0,0.0,0.0
8.433491,-1.4452804327,1.14033401012,1.80668234825,-1.24659693241,0.837115526199,-1.39092135429,-1.50237178802,0.0174117647059,0.0,0.0,0.0,0.0,0.0,0.0,0.0,0.0,0.0,0.0,0.0,0.0,0.0,0.0,0.0
8.466808,-1.44538283348,1.14793610573,1.80668234825,-1.25539040565,0.819319307804,-1.39100670815,-1.50009834766,0.0174117647059,0.0,0.0,0.0,0.0,0.0,0.0,0.0,0.0,0.0,0.0,0.0,0.0,0.0,0.0,0.0
8.500174,-1.44554269314,1.1540389061,1.80668115616,-1.2622218132,0.806065618992,-1.39106619358,-1.49859654903,0.0174117647059,0.0,0.0,0.0,0.0,0.0,0.0,0.0,0.0,0.0,0.0,0.0,0.0,0.0,0.0,0.0
8.533493,-1.44578170776,1.16028094292,1.80668485165,-1.26933825016,0.792583048344,-1.39134764671,-1.49710702896,0.0174117647059,0.0,0.0,0.0,0.0,0.0,0.0,0.0,0.0,0.0,0.0,0.0,0.0,0.0,0.0,0.0
8.566841,-1.44613707066,1.16866922379,1.80668485165,-1.27846908569,0.774835824966,-1.392126441,-1.49046814442,0.0174117647059,0.0,0.0,0.0,0.0,0.0,0.0,0.0,0.0,0.0,0.0,0.0,0.0,0.0,0.0,0.0
8.600200,-1.44642078876,1.17539322376,1.80667996407,-1.28501808643,0.762656092644,-1.39274191856,-1.48382771015,0.0174117647059,0.0,0.0,0.0,0.0,0.0,0.0,0.0,0.0,0.0,0.0,0.0,0.0,0.0,0.0,0.0
8.633506,-1.44672238827,1.18252372742,1.80667853355,-1.29185581207,0.750282049179,-1.39341330528,-1.47618854046,0.0174117647059,0.0,0.0,0.0,0.0,0.0,0.0,0.0,0.0,0.0,0.0,0.0,0.0,0.0,0.0,0.0
8.666879,-1.44712781906,1.19259667397,1.80667459965,-1.30135214329,0.733371376991,-1.39363837242,-1.46821010113,0.0174117647059,0.0,0.0,0.0,0.0,0.0,0.0,0.0,0.0,0.0,0.0,0.0,0.0,0.0,0.0,0.0
8.700176,-1.44738328457,1.20038163662,1.80667459965,-1.30855429173,0.719608426094,-1.39364004135,-1.46455073357,0.0174117647059,0.0,0.0,0.0,0.0,0.0,0.0,0.0,0.0,0.0,0.0,0.0,0.0,0.0,0.0,0.0
8.733510,-1.44755971432,1.20836484432,1.80667209625,-1.31589317322,0.705074548721,-1.39367079735,-1.46178948879,0.0174117647059,0.0,0.0,0.0,0.0,0.0,0.0,0.0,0.0,0.0,0.0,0.0,0.0,0.0,0.0,0.0
8.767011,-1.44779634476,1.21959745884,1.80667209625,-1.32612609863,0.683840155602,-1.39409506321,-1.45828700066,0.0174117647059,0.0,0.0,0.0,0.0,0.0,0.0,0.0,0.0,0.0,0.0,0.0,0.0,0.0,0.0,0.0
8.800218,-1.44803774357,1.22820937634,1.80666959286,-1.33378589153,0.666984796524,-1.39444112778,-1.45558381081,0.0174117647059,0.0,0.0,0.0,0.0,0.0,0.0,0.0,0.0,0.0,0.0,0.0,0.0,0.0,0.0,0.0
8.833484,-1.4482575655,1.23733019829,1.80667090416,-1.34128952026,0.649278521538,-1.39488756657,-1.45138072968,0.0174117647059,0.0,0.0,0.0,0.0,0.0,0.0,0.0,0.0,0.0,0.0,0.0,0.0,0.0,0.0,0.0
8.866825,-1.44848787785,1.24965953827,1.80667090416,-1.3507771492,0.624581515789,-1.39523541927,-1.44569802284,0.0174117647059,0.0,0.0,0.0,0.0,0.0,0.0,0.0,0.0,0.0,0.0,0.0,0.0,0.0,0.0,0.0
8.900294,-1.44860172272,1.25932490826,1.80667710304,-1.35750246048,0.605347454548,-1.3956938982,-1.44198572636,0.0174117647059,0.0,0.0,0.0,0.0,0.0,0.0,0.0,0.0,0.0,0.0,0.0,0.0,0.0,0.0,0.0
8.933490,-1.44869625568,1.26888549328,1.80667328835,-1.3637367487,0.585280835629,-1.39637386799,-1.43921267986,0.0174117647059,0.0,0.0,0.0,0.0,0.0,0.0,0.0,0.0,0.0,0.0,0.0,0.0,0.0,0.0,0.0
8.966806,-1.44874858856,1.28225159645,1.80668604374,-1.37142324448,0.558495640755,-1.39847207069,-1.43405854702,0.0174117647059,0.0,0.0,0.0,0.0,0.0,0.0,0.0,0.0,0.0,0.0,0.0,0.0,0.0,0.0,0.0
9.000191,-1.44876658916,1.29249465466,1.80668234825,-1.3766913414,0.53840047121,-1.4011054039,-1.43061053753,0.0174117647059,0.0,0.0,0.0,0.0,0.0,0.0,0.0,0.0,0.0,0.0,0.0,0.0,0.0,0.0,0.0
9.033524,-1.44876384735,1.30276477337,1.80668485165,-1.3819899559,0.518158078194,-1.4052760601,-1.42805731297,0.0174117647059,0.0,0.0,0.0,0.0,0.0,0.0,0.0,0.0,0.0,0.0,0.0,0.0,0.0,0.0,0.0
9.066834,-1.44883298874,1.31690275669,1.80668604374,-1.38844168186,0.491775661707,-1.41231548786,-1.42755460739,0.0174117647059,0.0,0.0,0.0,0.0,0.0,0.0,0.0,0.0,0.0,0.0,0.0,0.0,0.0,0.0,0.0
9.100186,-1.44883179665,1.32756781578,1.80668234825,-1.39307665825,0.472103834152,-1.41834044456,-1.42756485939,0.0174117647059,0.0,0.0,0.0,0.0,0.0,0.0,0.0,0.0,0.0,0.0,0.0,0.0,0.0,0.0,0.0
9.133463,-1.44882154465,1.33854615688,1.80668604374,-1.39779865742,0.452628463507,-1.42550766468,-1.42757320404,0.0174117647059,0.0,0.0,0.0,0.0,0.0,0.0,0.0,0.0,0.0,0.0,0.0,0.0,0.0,0.0,0.0
9.166845,-1.44881916046,1.35320985317,1.80668365955,-1.40394759178,0.426896452904,-1.43486845493,-1.42758011818,0.0174117647059,0.0,0.0,0.0,0.0,0.0,0.0,0.0,0.0,0.0,0.0,0.0,0.0,0.0,0.0,0.0
9.200183,-1.44881629944,1.36407661438,1.80670022964,-1.40822219849,0.407328993082,-1.44128012657,-1.42758524418,0.0174117647059,0.0,0.0,0.0,0.0,0.0,0.0,0.0,0.0,0.0,0.0,0.0,0.0,0.0,0.0,0.0
9.233490,-1.44881498814,1.37505614758,1.80670285225,-1.41238307953,0.387784004211,-1.44670557976,-1.42758691311,0.0174117647059,0.0,0.0,0.0,0.0,0.0,0.0,0.0,0.0,0.0,0.0,0.0,0.0,0.0,0.0,0.0
9.266802,-1.44881498814,1.38909959793,1.80670285225,-1.41753983498,0.361043721437,-1.45019435883,-1.42758882046,0.0174117647059,0.0,0.0,0.0,0.0,0.0,0.0,0.0,0.0,0.0,0.0,0.0,0.0,0.0,0.0,0.0
9.300196,-1.44877040386,1.39942085743,1.80671942234,-1.42105400562,0.340320646763,-1.45002400875,-1.42759037018,0.0174117647059,0.0,0.0,0.0,0.0,0.0,0.0,0.0,0.0,0.0,0.0,0.0,0.0,0.0,0.0,0.0
9.333504,-1.44850182533,1.40958869457,1.80667459965,-1.42468702793,0.319736659527,-1.44993710518,-1.42759215832,0.0174117647059,0.0,0.0,0.0,0.0,0.0,0.0,0.0,0.0,0.0,0.0,0.0,0.0,0.0,0.0,0.0
9.366851,-1.44818878174,1.41951465607,1.80668604374,-1.42811667919,0.299340903759,-1.4499335289,-1.42759215832,0.0174117647059,0.0,0.0,0.0,0.0,0.0,0.0,0.0,0.0,0.0,0.0,0.0,0.0,0.0,0.0,0.0
9.400186,-1.44777703285,1.43260717392,1.80668234825,-1.43249607086,0.272864371538,-1.44988584518,-1.42759370804,0.0174117647059,0.0,0.0,0.0,0.0,0.0,0.0,0.0,0.0,0.0,0.0,0.0,0.0,0.0,0.0,0.0
9.433481,-1.44739234447,1.44221889973,1.80668234825,-1.43570482731,0.253687560558,-1.44986379147,-1.42759370804,0.0174117647059,0.0,0.0,0.0,0.0,0.0,0.0,0.0,0.0,0.0,0.0,0.0,0.0,0.0,0.0,0.0
9.466861,-1.44692075253,1.45510554314,1.80668365955,-1.4396699667,0.229154139757,-1.44980597496,-1.42759549618,0.0174117647059,0.0,0.0,0.0,0.0,0.0,0.0,0.0,0.0,0.0,0.0,0.0,0.0,0.0,0.0,0.0
9.500714,-1.44643497467,1.46443355083,1.80667853355,-1.44242095947,0.211126789451,-1.44978690147,-1.42759549618,0.0174117647059,0.0,0.0,0.0,0.0,0.0,0.0,0.0,0.0,0.0,0.0,0.0,0.0,0.0,0.0,0.0
9.533507,-1.44599509239,1.47073948383,1.80668604374,-1.44410467148,0.199613764882,-1.44972074032,-1.42759549618,0.0174117647059,0.0,0.0,0.0,0.0,0.0,0.0,0.0,0.0,0.0,0.0,0.0,0.0,0.0,0.0,0.0
9.567006,-1.44475519657,1.48556411266,1.80667710304,-1.44750738144,0.170382231474,-1.44961345196,-1.4275970459,0.0174117647059,0.0,0.0,0.0,0.0,0.0,0.0,0.0,0.0,0.0,0.0,0.0,0.0,0.0,0.0,0.0
9.600203,-1.44373250008,1.49411594868,1.80667996407,-1.44922423363,0.15248580277,-1.44957232475,-1.42759883404,0.0174117647059,0.0,0.0,0.0,0.0,0.0,0.0,0.0,0.0,0.0,0.0,0.0,0.0,0.0,0.0,0.0
9.633498,-1.44236218929,1.50215017796,1.80667996407,-1.4506636858,0.134540274739,-1.44948720932,-1.42759883404,0.0174117647059,0.0,0.0,0.0,0.0,0.0,0.0,0.0,0.0,0.0,0.0,0.0,0.0,0.0,0.0,0.0
9.666846,-1.44007015228,1.51221311092,1.80667853355,-1.45185887814,0.110514037311,-1.44947171211,-1.42760038376,0.0174117647059,0.0,0.0,0.0,0.0,0.0,0.0,0.0,0.0,0.0,0.0,0.0,0.0,0.0,0.0,0.0
9.700176,-1.43794810772,1.51913893223,1.80668485165,-1.4523639679,0.0924539789557,-1.44942235947,-1.42760038376,0.0174117647059,0.0,0.0,0.0,0.0,0.0,0.0,0.0,0.0,0.0,0.0,0.0,0.0,0.0,0.0,0.0
9.733514,-1.43550920486,1.52570700645,1.80668115616,-1.45239579678,0.074614815414,-1.44940030575,-1.42760229111,0.0174117647059,0.0,0.0,0.0,0.0,0.0,0.0,0.0,0.0,0.0,0.0,0.0,0.0,0.0,0.0,0.0
9.766896,-1.43197965622,1.53386902809,1.80668115616,-1.45238685608,0.0515785291791,-1.4493932724,-1.42760229111,0.0174117647059,0.0,0.0,0.0,0.0,0.0,0.0,0.0,0.0,0.0,0.0,0.0,0.0,0.0,0.0,0.0
9.800185,-1.42912650108,1.53955888748,1.80668234825,-1.45231020451,0.0360628291965,-1.4493200779,-1.42760229111,0.0174117647059,0.0,0.0,0.0,0.0,0.0,0.0,0.0,0.0,0.0,0.0,0.0,0.0,0.0,0.0,0.0
9.833579,-1.42606854439,1.54504680634,1.80667996407,-1.4522960186,0.0222324747592,-1.44931161404,-1.42760229111,0.0174117647059,0.0,0.0,0.0,0.0,0.0,0.0,0.0,0.0,0.0,0.0,0.0,0.0,0.0,0.0,0.0
9.866857,-1.42166626453,1.55205440521,1.80668759346,-1.45223081112,0.00856572668999,-1.44910871983,-1.42760229111,0.0174117647059,0.0,0.0,0.0,0.0,0.0,0.0,0.0,0.0,0.0,0.0,0.0,0.0,0.0,0.0,0.0
9.900187,-1.41835153103,1.55681490898,1.80668604374,-1.45199048519,0.00180189532693,-1.4489979744,-1.42760229111,0.0174117647059,0.0,0.0,0.0,0.0,0.0,0.0,0.0,0.0,0.0,0.0,0.0,0.0,0.0,0.0,0.0
9.933571,-1.41503798962,1.56123137474,1.80668878555,-1.45157647133,-0.00213734759018,-1.44877123833,-1.42760229111,0.0174117647059,0.0,0.0,0.0,0.0,0.0,0.0,0.0,0.0,0.0,0.0,0.0,0.0,0.0,0.0,0.0
9.966848,-1.41056919098,1.56649053097,1.80667710304,-1.45104455948,-0.00401698006317,-1.44838607311,-1.42760229111,0.0174117647059,0.0,0.0,0.0,0.0,0.0,0.0,0.0,0.0,0.0,0.0,0.0,0.0,0.0,0.0,0.0
10.000180,-1.40697193146,1.57025122643,1.80667996407,-1.45075964928,-0.00403539324179,-1.44824135303,-1.42760229111,0.0174117647059,0.0,0.0,0.0,0.0,0.0,0.0,0.0,0.0,0.0,0.0,0.0,0.0,0.0,0.0,0.0
10.033492,-1.40331602097,1.57349061966,1.80668878555,-1.45045018196,-0.00422765873373,-1.44823598862,-1.42760229111,0.0174117647059,0.0,0.0,0.0,0.0,0.0,0.0,0.0,0.0,0.0,0.0,0.0,0.0,0.0,0.0,0.0
10.066914,-1.39869236946,1.57698047161,1.80668878555,-1.44998729229,-0.00566755514592,-1.44823789597,-1.42760229111,0.0174117647059,0.0,0.0,0.0,0.0,0.0,0.0,0.0,0.0,0.0,0.0,0.0,0.0,0.0,0.0,0.0
10.100205,-1.39560127258,1.57894003391,1.80669021606,-1.44945681095,-0.00754514569417,-1.44823789597,-1.42760229111,0.0174117647059,0.0,0.0,0.0,0.0,0.0,0.0,0.0,0.0,0.0,0.0,0.0,0.0,0.0,0.0,0.0
10.133500,-1.39280951023,1.58038318157,1.80668878555,-1.44851088524,-0.00982770510018,-1.44823789597,-1.42760229111,0.0174117647059,0.0,0.0,0.0,0.0,0.0,0.0,0.0,0.0,0.0,0.0,0.0,0.0,0.0,0.0,0.0
10.166812,-1.38933897018,1.5819132328,1.80667996407,-1.44708693027,-0.0138999065384,-1.4482395649,-1.42760229111,0.0174117647059,0.0,0.0,0.0,0.0,0.0,0.0,0.0,0.0,0.0,0.0,0.0,0.0,0.0,0.0,0.0
10.200173,-1.38683474064,1.58272898197,1.80667459965,-1.44570505619,-0.0171192195266,-1.4482395649,-1.42760229111,0.0174117647059,0.0,0.0,0.0,0.0,0.0,0.0,0.0,0.0,0.0,0.0,0.0,0.0,0.0,0.0,0.0
10.233506,-1.38436889648,1.58360958099,1.80661582947,-1.44410586357,-0.0202853679657,-1.4482395649,-1.42760229111,0.0174117647059,0.0,0.0,0.0,0.0,0.0,0.0,0.0,0.0,0.0,0.0,0.0,0.0,0.0,0.0,0.0
10.266813,-1.38116657734,1.58526647091,1.80626451969,-1.44153892994,-0.0241018980742,-1.4482395649,-1.42760229111,0.0174117647059,0.0,0.0,0.0,0.0,0.0,0.0,0.0,0.0,0.0,0.0,0.0,0.0,0.0,0.0,0.0
10.300233,-1.3789601326,1.58684766293,1.80591285229,-1.43905651569,-0.0268242098391,-1.4482395649,-1.42760229111,0.0174117647059,0.0,0.0,0.0,0.0,0.0,0.0,0.0,0.0,0.0,0.0,0.0,0.0,0.0,0.0,0.0
10.333504,-1.37682282925,1.58873057365,1.80518555641,-1.43616127968,-0.0301171392202,-1.4482395649,-1.42760229111,0.0174117647059,0.0,0.0,0.0,0.0,0.0,0.0,0.0,0.0,0.0,0.0,0.0,0.0,0.0,0.0,0.0
10.366917,-1.37412035465,1.59164273739,1.80372941494,-1.43152844906,-0.0356394834816,-1.4482395649,-1.42760229111,0.0174117647059,0.0,0.0,0.0,0.0,0.0,0.0,0.0,0.0,0.0,0.0,0.0,0.0,0.0,0.0,0.0
10.400413,-1.37203299999,1.59407544136,1.80213940144,-1.42750191689,-0.0411597676575,-1.4482395649,-1.42760229111,0.0174117647059,0.0,0.0,0.0,0.0,0.0,0.0,0.0,0.0,0.0,0.0,0.0,0.0,0.0,0.0,0.0
10.433491,-1.36992263794,1.59692215919,1.80001342297,-1.42310941219,-0.0480524413288,-1.44824135303,-1.42760229111,0.0174117647059,0.0,0.0,0.0,0.0,0.0,0.0,0.0,0.0,0.0,0.0,0.0,0.0,0.0,0.0,0.0
10.466773,-1.3673377037,1.60110855103,1.79798841476,-1.41667973995,-0.0588925741613,-1.4482395649,-1.42760229111,0.0174117647059,0.0,0.0,0.0,0.0,0.0,0.0,0.0,0.0,0.0,0.0,0.0,0.0,0.0,0.0,0.0
10.500210,-1.36549305916,1.60451412201,1.79687643051,-1.41167867184,-0.0686630159616,-1.4482395649,-1.42760229111,0.0174117647059,0.0,0.0,0.0,0.0,0.0,0.0,0.0,0.0,0.0,0.0,0.0,0.0,0.0,0.0,0.0
10.533494,-1.36362671852,1.60821998119,1.79595994949,-1.40687227249,-0.0796176791191,-1.4482395649,-1.42760229111,0.0174117647059,0.0,0.0,0.0,0.0,0.0,0.0,0.0,0.0,0.0,0.0,0.0,0.0,0.0,0.0,0.0
10.566806,-1.36129772663,1.61325776577,1.79571437836,-1.40100479126,-0.0962582975626,-1.4482395649,-1.42760229111,0.0174117647059,0.0,0.0,0.0,0.0,0.0,0.0,0.0,0.0,0.0,0.0,0.0,0.0,0.0,0.0,0.0
10.600207,-1.35949158669,1.61730992794,1.79571568966,-1.3969014883,-0.108712159097,-1.44823789597,-1.42760229111,0.0174117647059,0.0,0.0,0.0,0.0,0.0,0.0,0.0,0.0,0.0,0.0,0.0,0.0,0.0,0.0,0.0
10.633471,-1.3577631712,1.62153995037,1.79571688175,-1.39315605164,-0.121319442987,-1.44823789597,-1.42760229111,0.0174117647059,0.0,0.0,0.0,0.0,0.0,0.0,0.0,0.0,0.0,0.0,0.0,0.0,0.0,0.0,0.0
10.666902,-1.35565006733,1.62723600864,1.79572081566,-1.38912284374,-0.138033688068,-1.44823789597,-1.42760229111,0.0174117647059,0.0,0.0,0.0,0.0,0.0,0.0,0.0,0.0,0.0,0.0,0.0,0.0,0.0,0.0,0.0
10.700176,-1.35427975655,1.63148903847,1.79572343826,-1.38655078411,-0.14940559864,-1.44823789597,-1.42760229111,0.0174117647059,0.0,0.0,0.0,0.0,0.0,0.0,0.0,0.0,0.0,0.0,0.0,0.0,0.0,0.0,0.0
10.733500,-1.35299885273,1.6357023716,1.79572343826,-1.3845872879,-0.15962189436,-1.44823789597,-1.42760229111,0.0174117647059,0.0,0.0,0.0,0.0,0.0,0.0,0.0,0.0,0.0,0.0,0.0,0.0,0.0,0.0,0.0
10.766792,-1.35150325298,1.64129257202,1.79572343826,-1.38276433945,-0.171085849404,-1.44823598862,-1.42760229111,0.0174117647059,0.0,0.0,0.0,0.0,0.0,0.0,0.0,0.0,0.0,0.0,0.0,0.0,0.0,0.0,0.0
10.800309,-1.35041034222,1.64551210403,1.79572463036,-1.38188898563,-0.177659466863,-1.4482344389,-1.42760229111,0.0174117647059,0.0,0.0,0.0,0.0,0.0,0.0,0.0,0.0,0.0,0.0,0.0,0.0,0.0,0.0,0.0
10.833527,-1.34952557087,1.64945077896,1.79572725296,-1.3816576004,-0.183091789484,-1.44823276997,-1.42760229111,0.0174117647059,0.0,0.0,0.0,0.0,0.0,0.0,0.0,0.0,0.0,0.0,0.0,0.0,0.0,0.0,0.0
10.866857,-1.34841609001,1.65413200855,1.79572582245,-1.38179314137,-0.190084710717,-1.44822072983,-1.42760229111,0.0174117647059,0.0,0.0,0.0,0.0,0.0,0.0,0.0,0.0,0.0,0.0,0.0,0.0,0.0,0.0,0.0
10.900181,-1.3474316597,1.65717029572,1.79572725296,-1.38181614876,-0.195848375559,-1.44818663597,-1.42760229111,0.0174117647059,0.0,0.0,0.0,0.0,0.0,0.0,0.0,0.0,0.0,0.0,0.0,0.0,0.0,0.0,0.0
10.933499,-1.34648454189,1.65977311134,1.79572832584,-1.38181471825,-0.202158138156,-1.44810819626,-1.42760229111,0.0174117647059,0.0,0.0,0.0,0.0,0.0,0.0,0.0,0.0,0.0,0.0,0.0,0.0,0.0,0.0,0.0
10.966817,-1.34521794319,1.66237330437,1.79572725296,-1.38181233406,-0.211110457778,-1.44780492783,-1.42760229111,0.0174117647059,0.0,0.0,0.0,0.0,0.0,0.0,0.0,0.0,0.0,0.0,0.0,0.0,0.0,0.0,0.0
11.000292,-1.344160676,1.66386759281,1.79572725296,-1.38181340694,-0.218295618892,-1.44744694233,-1.42760229111,0.0174117647059,0.0,0.0,0.0,0.0,0.0,0.0,0.0,0.0,0.0,0.0,0.0,0.0,0.0,0.0,0.0
11.033711,-1.34300243855,1.66500139236,1.79572725296,-1.38172650337,-0.225261956453,-1.44651281834,-1.42760229111,0.0174117647059,0.0,0.0,0.0,0.0,0.0,0.0,0.0,0.0,0.0,0.0,0.0,0.0,0.0,0.0,0.0
11.066800,-1.3411847353,1.66630017757,1.79572582245,-1.38143134117,-0.232712998986,-1.4441640377,-1.42760229111,0.0174117647059,0.0,0.0,0.0,0.0,0.0,0.0,0.0,0.0,0.0,0.0,0.0,0.0,0.0,0.0,0.0
11.100186,-1.33958423138,1.66715276241,1.79572582245,-1.38105404377,-0.236132755876,-1.44307684898,-1.42760229111,0.0174117647059,0.0,0.0,0.0,0.0,0.0,0.0,0.0,0.0,0.0,0.0,0.0,0.0,0.0,0.0,0.0
11.133466,-1.3378585577,1.66774070263,1.79572582245,-1.38024365902,-0.237533777952,-1.44202852249,-1.42760229111,0.0174117647059,0.0,0.0,0.0,0.0,0.0,0.0,0.0,0.0,0.0,0.0,0.0,0.0,0.0,0.0,0.0
11.166819,-1.33534908295,1.66803479195,1.79572725296,-1.37883496284,-0.237584918737,-1.44164848328,-1.42760229111,0.0174117647059,0.0,0.0,0.0,0.0,0.0,0.0,0.0,0.0,0.0,0.0,0.0,0.0,0.0,0.0,0.0
11.200215,-1.33339083195,1.66804242134,1.79572975636,-1.37751579285,-0.237586960196,-1.44164848328,-1.42760229111,0.0174117647059,0.0,0.0,0.0,0.0,0.0,0.0,0.0,0.0,0.0,0.0,0.0,0.0,0.0,0.0,0.0
11.233498,-1.33139526844,1.66803097725,1.79577052593,-1.37603294849,-0.237605348229,-1.44164848328,-1.42760038376,0.0174117647059,0.0,0.0,0.0,0.0,0.0,0.0,0.0,0.0,0.0,0.0,0.0,0.0,0.0,0.0,0.0
11.266845,-1.32853579521,1.66796326637,1.79584336281,-1.37383949757,-0.237807869911,-1.44161939621,-1.42760229111,0.0174117647059,0.0,0.0,0.0,0.0,0.0,0.0,0.0,0.0,0.0,0.0,0.0,0.0,0.0,0.0,0.0
11.300183,-1.32615673542,1.66796588898,1.79584228992,-1.37212765217,-0.238051235676,-1.44160246849,-1.42760229111,0.0174117647059,0.0,0.0,0.0,0.0,0.0,0.0,0.0,0.0,0.0,0.0,0.0,0.0,0.0,0.0,0.0
11.333478,-1.32352590561,1.66794419289,1.7959138155,-1.37015771866,-0.238075792789,-1.4414986372,-1.42760229111,0.0174117647059,0.0,0.0,0.0,0.0,0.0,0.0,0.0,0.0,0.0,0.0,0.0,0.0,0.0,0.0,0.0
11.366808,-1.32010376453,1.66793525219,1.79620528221,-1.3670746088,-0.238077819347,-1.4414935112,-1.42760229111,0.0174117647059,0.0,0.0,0.0,0.0,0.0,0.0,0.0,0.0,0.0,0.0,0.0,0.0,0.0,0.0,0.0
11.400142,-1.31757032871,1.6679340601,1.79657709599,-1.36424553394,-0.238083958626,-1.44147622585,-1.42760229111,0.0174117647059,0.0,0.0,0.0,0.0,0.0,0.0,0.0,0.0,0.0,0.0,0.0,0.0,0.0,0.0,0.0
11.433480,-1.31502628326,1.66786599159,1.79700815678,-1.36099338531,-0.238290548325,-1.44146597385,-1.42760229111,0.0174117647059,0.0,0.0,0.0,0.0,0.0,0.0,0.0,0.0,0.0,0.0,0.0,0.0,0.0,0.0,0.0
11.466843,-1.31247365475,1.6678353548,1.79731214046,-1.35741305351,-0.238848894835,-1.44145917892,-1.42760229111,0.0174117647059,0.0,0.0,0.0,0.0,0.0,0.0,0.0,0.0,0.0,0.0,0.0,0.0,0.0,0.0,0.0
11.500106,-1.30900943279,1.66778171062,1.79763567448,-1.35181772709,-0.239857241511,-1.44125640392,-1.42760038376,0.0174117647059,0.0,0.0,0.0,0.0,0.0,0.0,0.0,0.0,0.0,0.0,0.0,0.0,0.0,0.0,0.0
11.533487,-1.3063211441,1.66779720783,1.79770469666,-1.34694743156,-0.240436092019,-1.44089519978,-1.42760038376,0.0174117647059,0.0,0.0,0.0,0.0,0.0,0.0,0.0,0.0,0.0,0.0,0.0,0.0,0.0,0.0,0.0
11.566807,-1.30260121822,1.66775619984,1.79793477058,-1.3398963213,-0.240800142288,-1.44006001949,-1.42760038376,0.0174117647059,0.0,0.0,0.0,0.0,0.0,0.0,0.0,0.0,0.0,0.0,0.0,0.0,0.0,0.0,0.0
11.600156,-1.29983365536,1.66773700714,1.79800140858,-1.33436119556,-0.24132579565,-1.4393491745,-1.42760038376,0.0174117647059,0.0,0.0,0.0,0.0,0.0,0.0,0.0,0.0,0.0,0.0,0.0,0.0,0.0,0.0,0.0
11.634773,-1.29627215862,1.66774332523,1.79801011086,-1.32711935043,-0.242734998465,-1.43809652328,-1.4275970459,0.0174117647059,0.0,0.0,0.0,0.0,0.0,0.0,0.0,0.0,0.0,0.0,0.0,0.0,0.0,0.0,0.0
11.666858,-1.29377305508,1.66774213314,1.79804086685,-1.32214534283,-0.244264885783,-1.43742322922,-1.4275970459,0.0174117647059,0.0,0.0,0.0,0.0,0.0,0.0,0.0,0.0,0.0,0.0,0.0,0.0,0.0,0.0,0.0
11.700399,-1.29126000404,1.66774857044,1.79804086685,-1.31758701801,-0.245665937662,-1.43700563908,-1.4275970459,0.0174117647059,0.0,0.0,0.0,0.0,0.0,0.0,0.0,0.0,0.0,0.0,0.0,0.0,0.0,0.0,0.0
11.733526,-1.28864455223,1.66774976254,1.79805123806,-1.31352448463,-0.247013807297,-1.43656420708,-1.4275970459,0.0174117647059,0.0,0.0,0.0,0.0,0.0,0.0,0.0,0.0,0.0,0.0,0.0,0.0,0.0,0.0,0.0
11.766796,-1.28614544868,1.66774475574,1.79807293415,-1.31012427807,-0.248817756772,-1.43638527393,-1.4275970459,0.0174117647059,0.0,0.0,0.0,0.0,0.0,0.0,0.0,0.0,0.0,0.0,0.0,0.0,0.0,0.0,0.0
11.800185,-1.2831094265,1.66774606705,1.79813563824,-1.30642223358,-0.251214832067,-1.4363732338,-1.42758882046,0.0174117647059,0.0,0.0,0.0,0.0,0.0,0.0,0.0,0.0,0.0,0.0,0.0,0.0,0.0,0.0,0.0
11.833506,-1.28114461899,1.66775488853,1.79813814163,-1.30415165424,-0.252051353455,-1.43637657166,-1.42755806446,0.0174117647059,0.0,0.0,0.0,0.0,0.0,0.0,0.0,0.0,0.0,0.0,0.0,0.0,0.0,0.0,0.0
11.866911,-1.27881681919,1.66791343689,1.79813683033,-1.30185842514,-0.252047270536,-1.43638181686,-1.42739272118,0.0174117647059,0.0,0.0,0.0,0.0,0.0,0.0,0.0,0.0,0.0,0.0,0.0,0.0,0.0,0.0,0.0
11.900212,-1.27734422684,1.66812062263,1.79813683033,-1.30030810833,-0.252049326897,-1.43639218807,-1.4262046814,0.0174117647059,0.0,0.0,0.0,0.0,0.0,0.0,0.0,0.0,0.0,0.0,0.0,0.0,0.0,0.0,0.0
11.933499,-1.27657210827,1.66825842857,1.79813683033,-1.29932367802,-0.252049326897,-1.43640053272,-1.4237537384,0.0174117647059,0.0,0.0,0.0,0.0,0.0,0.0,0.0,0.0,0.0,0.0,0.0,0.0,0.0,0.0,0.0
11.966826,-1.27540111542,1.66882228851,1.79813170433,-1.2976911068,-0.252055466175,-1.43640387058,-1.41401469707,0.0174117647059,0.0,0.0,0.0,0.0,0.0,0.0,0.0,0.0,0.0,0.0,0.0,0.0,0.0,0.0,0.0
12.000158,-1.27501010895,1.6692481041,1.79812920094,-1.29723751545,-0.252057492733,-1.43640732765,-1.40798258781,0.0174117647059,0.0,0.0,0.0,0.0,0.0,0.0,0.0,0.0,0.0,0.0,0.0,0.0,0.0,0.0,0.0
12.033940,-1.27483987808,1.66975164413,1.79812920094,-1.29716062546,-0.252061575651,-1.43640911579,-1.40333807468,0.0174117647059,0.0,0.0,0.0,0.0,0.0,0.0,0.0,0.0,0.0,0.0,0.0,0.0,0.0,0.0,0.0
12.066836,-1.2747708559,1.67034614086,1.79810988903,-1.29716062546,-0.25206771493,-1.43640911579,-1.39992082119,0.0174117647059,0.0,0.0,0.0,0.0,0.0,0.0,0.0,0.0,0.0,0.0,0.0,0.0,0.0,0.0,0.0
12.100215,-1.27467632294,1.67098152637,1.79809200764,-1.29716062546,-0.252161830664,-1.43640911579,-1.39953052998,0.0174117647059,0.0,0.0,0.0,0.0,0.0,0.0,0.0,0.0,0.0,0.0,0.0,0.0,0.0,0.0,0.0
12.133481,-1.27457678318,1.67157948017,1.79809200764,-1.29716062546,-0.25253406167,-1.43640911579,-1.39953899384,0.0174117647059,0.0,0.0,0.0,0.0,0.0,0.0,0.0,0.0,0.0,0.0,0.0,0.0,0.0,0.0,0.0
12.166798,-1.27448225021,1.67222249508,1.79809355736,-1.29716062546,-0.252881765366,-1.43640911579,-1.39954924583,0.0174117647059,0.0,0.0,0.0,0.0,0.0,0.0,0.0,0.0,0.0,0.0,0.0,0.0,0.0,0.0,0.0
12.200110,-1.2744590044,1.67240417004,1.79809463024,-1.29716062546,-0.253108799458,-1.43640911579,-1.3995474577,0.0174117647059,0.0,0.0,0.0,0.0,0.0,0.0,0.0,0.0,0.0,0.0,0.0,0.0,0.0,0.0,0.0
12.233496,-1.27446174622,1.67241191864,1.79810225964,-1.29716062546,-0.253119021654,-1.43641066551,-1.39951169491,0.0174117647059,0.0,0.0,0.0,0.0,0.0,0.0,0.0,0.0,0.0,0.0,0.0,0.0,0.0,0.0,0.0
12.266820,-1.27451407909,1.67240655422,1.79812920094,-1.29716062546,-0.253121078014,-1.43642103672,-1.39853680134,0.0174117647059,0.0,0.0,0.0,0.0,0.0,0.0,0.0,0.0,0.0,0.0,0.0,0.0,0.0,0.0,0.0
12.300411,-1.27456128597,1.67239654064,1.79817652702,-1.29716062546,-0.253274470568,-1.43642616272,-1.39680695534,0.0174117647059,0.0,0.0,0.0,0.0,0.0,0.0,0.0,0.0,0.0,0.0,0.0,0.0,0.0,0.0,0.0
12.333500,-1.27458691597,1.67239773273,1.79818272591,-1.29716193676,-0.253783762455,-1.43643641472,-1.394775033,0.0174117647059,0.0,0.0,0.0,0.0,0.0,0.0,0.0,0.0,0.0,0.0,0.0,0.0,0.0,0.0,0.0
12.366815,-1.27457284927,1.67239654064,1.79818797112,-1.29716348648,-0.254554837942,-1.43643975258,-1.39147531986,0.0174117647059,0.0,0.0,0.0,0.0,0.0,0.0,0.0,0.0,0.0,0.0,0.0,0.0,0.0,0.0,0.0
12.400129,-1.27457284927,1.67239773273,1.79818940163,-1.29716348648,-0.254636645317,-1.43643975258,-1.39085507393,0.0174117647059,0.0,0.0,0.0,0.0,0.0,0.0,0.0,0.0,0.0,0.0,0.0,0.0,0.0,0.0,0.0
12.433490,-1.27456772327,1.67239892483,1.79818940163,-1.29716348648,-0.254626393318,-1.43643975258,-1.39085662365,0.0174117647059,0.0,0.0,0.0,0.0,0.0,0.0,0.0,0.0,0.0,0.0,0.0,0.0,0.0,0.0,0.0
12.466826,-1.27456128597,1.67240047455,1.79818797112,-1.29716348648,-0.254616171122,-1.43643796444,-1.39085662365,0.0174117647059,0.0,0.0,0.0,0.0,0.0,0.0,0.0,0.0,0.0,0.0,0.0,0.0,0.0,0.0,0.0
12.500180,-1.27455997467,1.67240166664,1.79818797112,-1.29716348648,-0.254610061646,-1.43643796444,-1.39085662365,0.0174117647059,0.0,0.0,0.0,0.0,0.0,0.0,0.0,0.0,0.0,0.0,0.0,0.0,0.0,0.0,0.0
12.533489,-1.27455997467,1.67240285873,1.79818677902,-1.29716348648,-0.254597783089,-1.43643796444,-1.39085662365,0.0174117647059,0.0,0.0,0.0,0.0,0.0,0.0,0.0,0.0,0.0,0.0,0.0,0.0,0.0,0.0,0.0
12.566807,-1.27455878258,1.67246162891,1.79818558693,-1.29716348648,-0.254575282335,-1.43643796444,-1.39085662365,0.0174117647059,0.0,0.0,0.0,0.0,0.0,0.0,0.0,0.0,0.0,0.0,0.0,0.0,0.0,0.0,0.0
12.600192,-1.27455878258,1.67246556282,1.79818558693,-1.29716348648,-0.254560977221,-1.43643796444,-1.39085662365,0.0174117647059,0.0,0.0,0.0,0.0,0.0,0.0,0.0,0.0,0.0,0.0,0.0,0.0,0.0,0.0,0.0
12.633497,-1.2744961977,1.67246925831,1.79817378521,-1.29716467857,-0.254558891058,-1.43639373779,-1.39086532593,0.0174117647059,0.0,0.0,0.0,0.0,0.0,0.0,0.0,0.0,0.0,0.0,0.0,0.0,0.0,0.0,0.0
12.666816,-1.2744961977,1.67246925831,1.79817378521,-1.29716467857,-0.254558891058,-1.43639373779,-1.39086532593,0.0174117647059,0.0,0.0,0.0,0.0,0.0,0.0,0.0,0.0,0.0,0.0,0.0,0.0,0.0,0.0,0.0
12.700162,-1.2744961977,1.67246925831,1.79817378521,-1.29716467857,-0.254558891058,-1.43639373779,-1.39086532593,0.0174117647059,0.0,0.0,0.0,0.0,0.0,0.0,0.0,0.0,0.0,0.0,0.0,0.0,0.0,0.0,0.0
12.733632,-1.2744961977,1.67246925831,1.79817378521,-1.29716467857,-0.254558891058,-1.43639373779,-1.39086532593,0.0174117647059,0.0,0.0,0.0,0.0,0.0,0.0,0.0,0.0,0.0,0.0,0.0,0.0,0.0,0.0,0.0
12.766832,-1.2744961977,1.67246925831,1.79817378521,-1.29716467857,-0.254558891058,-1.43639373779,-1.39086532593,0.0174117647059,0.0,0.0,0.0,0.0,0.0,0.0,0.0,0.0,0.0,0.0,0.0,0.0,0.0,0.0,0.0
12.800177,-1.2744961977,1.67246925831,1.79817378521,-1.29716467857,-0.254558891058,-1.43639373779,-1.39086532593,0.0174117647059,0.0,0.0,0.0,0.0,0.0,0.0,0.0,0.0,0.0,0.0,0.0,0.0,0.0,0.0,0.0
12.833477,-1.2744961977,1.67246925831,1.79817378521,-1.29716467857,-0.254558891058,-1.43639373779,-1.39086532593,0.0174117647059,0.0,0.0,0.0,0.0,0.0,0.0,0.0,0.0,0.0,0.0,0.0,0.0,0.0,0.0,0.0
12.866839,-1.2744961977,1.67246925831,1.79817378521,-1.29716467857,-0.254558891058,-1.43639373779,-1.39086532593,0.0174117647059,0.0,0.0,0.0,0.0,0.0,0.0,0.0,0.0,0.0,0.0,0.0,0.0,0.0,0.0,0.0
12.900182,-1.2744961977,1.67246925831,1.79817378521,-1.29716467857,-0.254558891058,-1.43639373779,-1.39086532593,0.0174117647059,0.0,0.0,0.0,0.0,0.0,0.0,0.0,0.0,0.0,0.0,0.0,0.0,0.0,0.0,0.0
12.933778,-1.2744961977,1.67246925831,1.79817378521,-1.29716467857,-0.254558891058,-1.43639373779,-1.39086532593,0.0174117647059,0.0,0.0,0.0,0.0,0.0,0.0,0.0,0.0,0.0,0.0,0.0,0.0,0.0,0.0,0.0
12.966833,-1.2744961977,1.67246925831,1.79817378521,-1.29716467857,-0.254558891058,-1.43639373779,-1.39086532593,0.0174117647059,0.0,0.0,0.0,0.0,0.0,0.0,0.0,0.0,0.0,0.0,0.0,0.0,0.0,0.0,0.0
13.000218,-1.2744961977,1.67246925831,1.79817378521,-1.29716467857,-0.254558891058,-1.43639373779,-1.39086532593,0.0174117647059,0.0,0.0,0.0,0.0,0.0,0.0,0.0,0.0,0.0,0.0,0.0,0.0,0.0,0.0,0.0
13.033489,-1.2744961977,1.67246925831,1.79817378521,-1.29716467857,-0.254558891058,-1.43639373779,-1.39086532593,0.0174117647059,0.0,0.0,0.0,0.0,0.0,0.0,0.0,0.0,0.0,0.0,0.0,0.0,0.0,0.0,0.0
13.066808,-1.2744961977,1.67246925831,1.79817378521,-1.29716467857,-0.254558891058,-1.43639373779,-1.39086532593,0.0174117647059,0.0,0.0,0.0,0.0,0.0,0.0,0.0,0.0,0.0,0.0,0.0,0.0,0.0,0.0,0.0
13.100119,-1.2744961977,1.67246925831,1.79817378521,-1.29716467857,-0.254558891058,-1.43639373779,-1.39086532593,0.0174117647059,0.0,0.0,0.0,0.0,0.0,0.0,0.0,0.0,0.0,0.0,0.0,0.0,0.0,0.0,0.0
13.133493,-1.2744961977,1.67246925831,1.79817378521,-1.29716467857,-0.254558891058,-1.43639373779,-1.39086532593,0.0174117647059,0.0,0.0,0.0,0.0,0.0,0.0,0.0,0.0,0.0,0.0,0.0,0.0,0.0,0.0,0.0
13.166818,-1.2744961977,1.67246925831,1.79817378521,-1.29716467857,-0.254558891058,-1.43639373779,-1.39086532593,0.0174117647059,0.0,0.0,0.0,0.0,0.0,0.0,0.0,0.0,0.0,0.0,0.0,0.0,0.0,0.0,0.0
13.200106,-1.2744961977,1.67246925831,1.79817378521,-1.29716467857,-0.254558891058,-1.43639373779,-1.39086532593,0.0174117647059,0.0,0.0,0.0,0.0,0.0,0.0,0.0,0.0,0.0,0.0,0.0,0.0,0.0,0.0,0.0
13.233495,-1.2744961977,1.67246925831,1.79817378521,-1.29716467857,-0.254558891058,-1.43639373779,-1.39086532593,0.0174117647059,0.0,0.0,0.0,0.0,0.0,0.0,0.0,0.0,0.0,0.0,0.0,0.0,0.0,0.0,0.0
13.266835,-1.2744961977,1.67246925831,1.79817378521,-1.29716467857,-0.254558891058,-1.43639373779,-1.39086532593,0.0174117647059,0.0,0.0,0.0,0.0,0.0,0.0,0.0,0.0,0.0,0.0,0.0,0.0,0.0,0.0,0.0
13.300186,-1.2744961977,1.67246925831,1.79817378521,-1.29716467857,-0.254558891058,-1.43639373779,-1.39086532593,0.0174117647059,0.0,0.0,0.0,0.0,0.0,0.0,0.0,0.0,0.0,0.0,0.0,0.0,0.0,0.0,0.0
13.333764,-1.2744961977,1.67246925831,1.79817378521,-1.29716467857,-0.254558891058,-1.43639373779,-1.39086532593,0.0174117647059,0.0,0.0,0.0,0.0,0.0,0.0,0.0,0.0,0.0,0.0,0.0,0.0,0.0,0.0,0.0
13.366800,-1.2744961977,1.67246925831,1.79817378521,-1.29716467857,-0.254558891058,-1.43639373779,-1.39086532593,0.0174117647059,0.0,0.0,0.0,0.0,0.0,0.0,0.0,0.0,0.0,0.0,0.0,0.0,0.0,0.0,0.0
13.400136,-1.2744961977,1.67246925831,1.79817378521,-1.29716467857,-0.254558891058,-1.43639373779,-1.39086532593,0.0174117647059,0.0,0.0,0.0,0.0,0.0,0.0,0.0,0.0,0.0,0.0,0.0,0.0,0.0,0.0,0.0
13.433478,-1.2744961977,1.67246925831,1.79817378521,-1.29716467857,-0.254558891058,-1.43639373779,-1.39086532593,0.0174117647059,0.0,0.0,0.0,0.0,0.0,0.0,0.0,0.0,0.0,0.0,0.0,0.0,0.0,0.0,0.0
13.466796,-1.2744961977,1.67246925831,1.79817378521,-1.29716467857,-0.254558891058,-1.43639373779,-1.39086532593,0.0174117647059,0.0,0.0,0.0,0.0,0.0,0.0,0.0,0.0,0.0,0.0,0.0,0.0,0.0,0.0,0.0
13.500148,-1.2744961977,1.67246925831,1.79817378521,-1.29716467857,-0.254558891058,-1.43639373779,-1.39086532593,0.0174117647059,0.0,0.0,0.0,0.0,0.0,0.0,0.0,0.0,0.0,0.0,0.0,0.0,0.0,0.0,0.0
13.533512,-1.2744961977,1.67246925831,1.79817378521,-1.29716467857,-0.254558891058,-1.43639373779,-1.39086532593,0.0174117647059,0.0,0.0,0.0,0.0,0.0,0.0,0.0,0.0,0.0,0.0,0.0,0.0,0.0,0.0,0.0
13.566838,-1.2744961977,1.67246925831,1.79817378521,-1.29716467857,-0.254558891058,-1.43639373779,-1.39086532593,0.0174117647059,0.0,0.0,0.0,0.0,0.0,0.0,0.0,0.0,0.0,0.0,0.0,0.0,0.0,0.0,0.0
13.600240,-1.2744961977,1.67246925831,1.79817378521,-1.29716467857,-0.254558891058,-1.43639373779,-1.39086532593,0.0174117647059,0.0,0.0,0.0,0.0,0.0,0.0,0.0,0.0,0.0,0.0,0.0,0.0,0.0,0.0,0.0
13.633822,-1.2744961977,1.67246925831,1.79817378521,-1.29716467857,-0.254558891058,-1.43639373779,-1.39086532593,0.0174117647059,0.0,0.0,0.0,0.0,0.0,0.0,0.0,0.0,0.0,0.0,0.0,0.0,0.0,0.0,0.0
13.666821,-1.2744961977,1.67246925831,1.79817378521,-1.29716467857,-0.254558891058,-1.43639373779,-1.39086532593,0.0174117647059,0.0,0.0,0.0,0.0,0.0,0.0,0.0,0.0,0.0,0.0,0.0,0.0,0.0,0.0,0.0
13.700252,-1.2744961977,1.67246925831,1.79817378521,-1.29716467857,-0.254558891058,-1.43639373779,-1.39086532593,0.0174117647059,0.0,0.0,0.0,0.0,0.0,0.0,0.0,0.0,0.0,0.0,0.0,0.0,0.0,0.0,0.0
13.733461,-1.2744961977,1.67246925831,1.79817378521,-1.29716467857,-0.254558891058,-1.43639373779,-1.39086532593,0.0174117647059,0.0,0.0,0.0,0.0,0.0,0.0,0.0,0.0,0.0,0.0,0.0,0.0,0.0,0.0,0.0
13.766782,-1.2744961977,1.67246925831,1.79817378521,-1.29716467857,-0.254558891058,-1.43639373779,-1.39086532593,0.0174117647059,0.0,0.0,0.0,0.0,0.0,0.0,0.0,0.0,0.0,0.0,0.0,0.0,0.0,0.0,0.0
13.800155,-1.2744961977,1.67246925831,1.79817378521,-1.29716467857,-0.254558891058,-1.43639373779,-1.39086532593,0.0174117647059,0.0,0.0,0.0,0.0,0.0,0.0,0.0,0.0,0.0,0.0,0.0,0.0,0.0,0.0,0.0
13.833463,-1.2744961977,1.67246925831,1.79817378521,-1.29716467857,-0.254558891058,-1.43639373779,-1.39086532593,0.0174117647059,0.0,0.0,0.0,0.0,0.0,0.0,0.0,0.0,0.0,0.0,0.0,0.0,0.0,0.0,0.0
13.866826,-1.2744961977,1.67246925831,1.79817378521,-1.29716467857,-0.254558891058,-1.43639373779,-1.39086532593,0.0174117647059,0.0,0.0,0.0,0.0,0.0,0.0,0.0,0.0,0.0,0.0,0.0,0.0,0.0,0.0,0.0
13.900182,-1.2744961977,1.67246925831,1.79817378521,-1.29716467857,-0.254558891058,-1.43639373779,-1.39086532593,0.0174117647059,0.0,0.0,0.0,0.0,0.0,0.0,0.0,0.0,0.0,0.0,0.0,0.0,0.0,0.0,0.0
13.933508,-1.2744961977,1.67246925831,1.79817378521,-1.29716467857,-0.254558891058,-1.43639373779,-1.39086532593,0.0174117647059,0.0,0.0,0.0,0.0,0.0,0.0,0.0,0.0,0.0,0.0,0.0,0.0,0.0,0.0,0.0
13.966812,-1.2744961977,1.67246925831,1.79817378521,-1.29716467857,-0.254558891058,-1.43639373779,-1.39086532593,0.0174117647059,0.0,0.0,0.0,0.0,0.0,0.0,0.0,0.0,0.0,0.0,0.0,0.0,0.0,0.0,0.0
14.000194,-1.2744961977,1.67246925831,1.79817378521,-1.29716467857,-0.254558891058,-1.43639373779,-1.39086532593,0.0174117647059,0.0,0.0,0.0,0.0,0.0,0.0,0.0,0.0,0.0,0.0,0.0,0.0,0.0,0.0,0.0
14.033495,-1.2744961977,1.67246925831,1.79817378521,-1.29716467857,-0.254558891058,-1.43639373779,-1.39086532593,0.0174117647059,0.0,0.0,0.0,0.0,0.0,0.0,0.0,0.0,0.0,0.0,0.0,0.0,0.0,0.0,0.0
14.066825,-1.2744961977,1.67246925831,1.79817378521,-1.29716467857,-0.254558891058,-1.43639373779,-1.39086532593,0.0174117647059,0.0,0.0,0.0,0.0,0.0,0.0,0.0,0.0,0.0,0.0,0.0,0.0,0.0,0.0,0.0
14.100149,-1.2744961977,1.67246925831,1.79817378521,-1.29716467857,-0.254558891058,-1.43639373779,-1.39086532593,0.0174117647059,0.0,0.0,0.0,0.0,0.0,0.0,0.0,0.0,0.0,0.0,0.0,0.0,0.0,0.0,0.0
14.133491,-1.2744961977,1.67246925831,1.79817378521,-1.29716467857,-0.254558891058,-1.43639373779,-1.39086532593,0.0174117647059,0.0,0.0,0.0,0.0,0.0,0.0,0.0,0.0,0.0,0.0,0.0,0.0,0.0,0.0,0.0
14.166835,-1.2744961977,1.67246925831,1.79817378521,-1.29716467857,-0.254558891058,-1.43639373779,-1.39086532593,0.0174117647059,0.0,0.0,0.0,0.0,0.0,0.0,0.0,0.0,0.0,0.0,0.0,0.0,0.0,0.0,0.0
14.200149,-1.2744961977,1.67246925831,1.79817378521,-1.29716467857,-0.254558891058,-1.43639373779,-1.39086532593,0.0174117647059,0.0,0.0,0.0,0.0,0.0,0.0,0.0,0.0,0.0,0.0,0.0,0.0,0.0,0.0,0.0
14.233505,-1.2744961977,1.67246925831,1.79817378521,-1.29716467857,-0.254558891058,-1.43639373779,-1.39086532593,0.0174117647059,0.0,0.0,0.0,0.0,0.0,0.0,0.0,0.0,0.0,0.0,0.0,0.0,0.0,0.0,0.0
14.266809,-1.2744961977,1.67246925831,1.79817378521,-1.29716467857,-0.254558891058,-1.43639373779,-1.39086532593,0.0174117647059,0.0,0.0,0.0,0.0,0.0,0.0,0.0,0.0,0.0,0.0,0.0,0.0,0.0,0.0,0.0
14.300157,-1.2744961977,1.67246925831,1.79817378521,-1.29716467857,-0.254558891058,-1.43639373779,-1.39086532593,0.0174117647059,0.0,0.0,0.0,0.0,0.0,0.0,0.0,0.0,0.0,0.0,0.0,0.0,0.0,0.0,0.0
14.333485,-1.2744961977,1.67246925831,1.79817378521,-1.29716467857,-0.254558891058,-1.43639373779,-1.39086532593,0.0174117647059,0.0,0.0,0.0,0.0,0.0,0.0,0.0,0.0,0.0,0.0,0.0,0.0,0.0,0.0,0.0
14.366802,-1.2744961977,1.67246925831,1.79817378521,-1.29716467857,-0.254558891058,-1.43639373779,-1.39086532593,0.0174117647059,0.0,0.0,0.0,0.0,0.0,0.0,0.0,0.0,0.0,0.0,0.0,0.0,0.0,0.0,0.0
14.400104,-1.2744961977,1.67246925831,1.79817378521,-1.29716467857,-0.254558891058,-1.43639373779,-1.39086532593,0.0174117647059,0.0,0.0,0.0,0.0,0.0,0.0,0.0,0.0,0.0,0.0,0.0,0.0,0.0,0.0,0.0
14.433465,-1.2744961977,1.67246925831,1.79817378521,-1.29716467857,-0.254558891058,-1.43639373779,-1.39086532593,0.0174117647059,0.0,0.0,0.0,0.0,0.0,0.0,0.0,0.0,0.0,0.0,0.0,0.0,0.0,0.0,0.0
14.466807,-1.2744961977,1.67246925831,1.79817378521,-1.29716467857,-0.254558891058,-1.43639373779,-1.39086532593,0.0174117647059,0.0,0.0,0.0,0.0,0.0,0.0,0.0,0.0,0.0,0.0,0.0,0.0,0.0,0.0,0.0
14.500136,-1.2744961977,1.67246925831,1.79817378521,-1.29716467857,-0.254558891058,-1.43639373779,-1.39086532593,0.0174117647059,0.0,0.0,0.0,0.0,0.0,0.0,0.0,0.0,0.0,0.0,0.0,0.0,0.0,0.0,0.0
14.533934,-1.2744961977,1.67246925831,1.79817378521,-1.29716467857,-0.254558891058,-1.43639373779,-1.39086532593,0.0174117647059,0.0,0.0,0.0,0.0,0.0,0.0,0.0,0.0,0.0,0.0,0.0,0.0,0.0,0.0,0.0
14.566795,-1.2744961977,1.67246925831,1.79817378521,-1.29716467857,-0.254558891058,-1.43639373779,-1.39086532593,0.0174117647059,0.0,0.0,0.0,0.0,0.0,0.0,0.0,0.0,0.0,0.0,0.0,0.0,0.0,0.0,0.0
14.600169,-1.2744961977,1.67246925831,1.79817378521,-1.29716467857,-0.254558891058,-1.43639373779,-1.39086532593,0.0174117647059,0.0,0.0,0.0,0.0,0.0,0.0,0.0,0.0,0.0,0.0,0.0,0.0,0.0,0.0,0.0
14.633477,-1.2744961977,1.67246925831,1.79817378521,-1.29716467857,-0.254558891058,-1.43639373779,-1.39086532593,0.0174117647059,0.0,0.0,0.0,0.0,0.0,0.0,0.0,0.0,0.0,0.0,0.0,0.0,0.0,0.0,0.0
14.666802,-1.2744961977,1.67246925831,1.79817378521,-1.29716467857,-0.254558891058,-1.43639373779,-1.39086532593,0.0174117647059,0.0,0.0,0.0,0.0,0.0,0.0,0.0,0.0,0.0,0.0,0.0,0.0,0.0,0.0,0.0
14.700149,-1.2744961977,1.67246925831,1.79817378521,-1.29716467857,-0.254558891058,-1.43639373779,-1.39086532593,0.0174117647059,0.0,0.0,0.0,0.0,0.0,0.0,0.0,0.0,0.0,0.0,0.0,0.0,0.0,0.0,0.0
14.734138,-1.2744961977,1.67246925831,1.79817378521,-1.29716467857,-0.254558891058,-1.43639373779,-1.39086532593,0.0174117647059,0.0,0.0,0.0,0.0,0.0,0.0,0.0,0.0,0.0,0.0,0.0,0.0,0.0,0.0,0.0
14.766873,-1.2744961977,1.67246925831,1.79817378521,-1.29716467857,-0.254558891058,-1.43639373779,-1.39086532593,0.0174117647059,0.0,0.0,0.0,0.0,0.0,0.0,0.0,0.0,0.0,0.0,0.0,0.0,0.0,0.0,0.0
14.800176,-1.2744961977,1.67246925831,1.79817378521,-1.29716467857,-0.254558891058,-1.43639373779,-1.39086532593,0.0174117647059,0.0,0.0,0.0,0.0,0.0,0.0,0.0,0.0,0.0,0.0,0.0,0.0,0.0,0.0,0.0
14.833875,-1.2744961977,1.67246925831,1.79817378521,-1.29716467857,-0.254558891058,-1.43639373779,-1.39086532593,0.0174117647059,0.0,0.0,0.0,0.0,0.0,0.0,0.0,0.0,0.0,0.0,0.0,0.0,0.0,0.0,0.0
14.866885,-1.2744961977,1.67246925831,1.79817378521,-1.29716467857,-0.254558891058,-1.43639373779,-1.39086532593,0.0224705882353,0.0,0.0,0.0,0.0,0.0,0.0,0.0,0.0,0.0,0.0,0.0,0.0,0.0,0.0,0.0
14.900179,-1.2744961977,1.67246925831,1.79817378521,-1.29716467857,-0.254558891058,-1.43639373779,-1.39086532593,0.0462352941176,0.0,0.0,0.0,0.0,0.0,0.0,0.0,0.0,0.0,0.0,0.0,0.0,0.0,0.0,0.0
14.933460,-1.2744961977,1.67246925831,1.79817378521,-1.29716467857,-0.254558891058,-1.43639373779,-1.39086532593,0.0641176470588,0.0,0.0,0.0,0.0,0.0,0.0,0.0,0.0,0.0,0.0,0.0,0.0,0.0,0.0,0.0
14.966842,-1.2744961977,1.67246925831,1.79817378521,-1.29716467857,-0.254558891058,-1.43639373779,-1.39086532593,0.0817647058824,0.0,0.0,0.0,0.0,0.0,0.0,0.0,0.0,0.0,0.0,0.0,0.0,0.0,0.0,0.0
15.000236,-1.2744961977,1.67246925831,1.79817378521,-1.29716467857,-0.254558891058,-1.43639373779,-1.39086532593,0.105882352941,0.0,0.0,0.0,0.0,0.0,0.0,0.0,0.0,0.0,0.0,0.0,0.0,0.0,0.0,0.0
15.033513,-1.2744961977,1.67246925831,1.79817378521,-1.29716467857,-0.254558891058,-1.43639373779,-1.39086532593,0.124235294118,0.0,0.0,0.0,0.0,0.0,0.0,0.0,0.0,0.0,0.0,0.0,0.0,0.0,0.0,0.0
15.066833,-1.2744961977,1.67246925831,1.79817378521,-1.29716467857,-0.254558891058,-1.43639373779,-1.39086532593,0.149647058824,0.0,0.0,0.0,0.0,0.0,0.0,0.0,0.0,0.0,0.0,0.0,0.0,0.0,0.0,0.0
15.100214,-1.2744961977,1.67246925831,1.79817378521,-1.29716467857,-0.254558891058,-1.43639373779,-1.39086532593,0.166823529412,0.0,0.0,0.0,0.0,0.0,0.0,0.0,0.0,0.0,0.0,0.0,0.0,0.0,0.0,0.0
15.133555,-1.2744961977,1.67246925831,1.79817378521,-1.29716467857,-0.254558891058,-1.43639373779,-1.39086532593,0.184705882353,0.0,0.0,0.0,0.0,0.0,0.0,0.0,0.0,0.0,0.0,0.0,0.0,0.0,0.0,0.0
15.166843,-1.2744961977,1.67246925831,1.79817378521,-1.29716467857,-0.254558891058,-1.43639373779,-1.39086532593,0.194705882353,0.0,0.0,0.0,0.0,0.0,0.0,0.0,0.0,0.0,0.0,0.0,0.0,0.0,0.0,0.0
15.200132,-1.2744961977,1.67246925831,1.79817378521,-1.29716467857,-0.254558891058,-1.43639373779,-1.39086532593,0.226,0.0,0.0,0.0,0.0,0.0,0.0,0.0,0.0,0.0,0.0,0.0,0.0,0.0,0.0,0.0
15.233476,-1.2744961977,1.67246925831,1.79817378521,-1.29716467857,-0.254558891058,-1.43639373779,-1.39086532593,0.244588235294,0.0,0.0,0.0,0.0,0.0,0.0,0.0,0.0,0.0,0.0,0.0,0.0,0.0,0.0,0.0
15.266789,-1.2744961977,1.67246925831,1.79817378521,-1.29716467857,-0.254558891058,-1.43639373779,-1.39086532593,0.266235294118,0.0,0.0,0.0,0.0,0.0,0.0,0.0,0.0,0.0,0.0,0.0,0.0,0.0,0.0,0.0
15.300246,-1.2744961977,1.67246925831,1.79817378521,-1.29716467857,-0.254558891058,-1.43639373779,-1.39086532593,0.283882352941,0.0,0.0,0.0,0.0,0.0,0.0,0.0,0.0,0.0,0.0,0.0,0.0,0.0,0.0,0.0
15.333495,-1.2744961977,1.67246925831,1.79817378521,-1.29716467857,-0.254558891058,-1.43639373779,-1.39086532593,0.300823529412,0.0,0.0,0.0,0.0,0.0,0.0,0.0,0.0,0.0,0.0,0.0,0.0,0.0,0.0,0.0
15.366803,-1.2744961977,1.67246925831,1.79817378521,-1.29716467857,-0.254558891058,-1.43639373779,-1.39086532593,0.324705882353,0.0,0.0,0.0,0.0,0.0,0.0,0.0,0.0,0.0,0.0,0.0,0.0,0.0,0.0,0.0
15.400130,-1.2744961977,1.67246925831,1.79817378521,-1.29716467857,-0.254558891058,-1.43639373779,-1.39086532593,0.342117647059,0.0,0.0,0.0,0.0,0.0,0.0,0.0,0.0,0.0,0.0,0.0,0.0,0.0,0.0,0.0
15.433497,-1.2744961977,1.67246925831,1.79817378521,-1.29716467857,-0.254558891058,-1.43639373779,-1.39086532593,0.360470588235,0.0,0.0,0.0,0.0,0.0,0.0,0.0,0.0,0.0,0.0,0.0,0.0,0.0,0.0,0.0
15.466821,-1.2744961977,1.67246925831,1.79817378521,-1.29716467857,-0.254558891058,-1.43639373779,-1.39086532593,0.382235294118,0.0,0.0,0.0,0.0,0.0,0.0,0.0,0.0,0.0,0.0,0.0,0.0,0.0,0.0,0.0
15.500130,-1.2744961977,1.67246925831,1.79817378521,-1.29716467857,-0.254558891058,-1.43639373779,-1.39086532593,0.398470588235,0.0,0.0,0.0,0.0,0.0,0.0,0.0,0.0,0.0,0.0,0.0,0.0,0.0,0.0,0.0
15.533490,-1.2744961977,1.67246925831,1.79817378521,-1.29716467857,-0.254558891058,-1.43639373779,-1.39086532593,0.415058823529,0.0,0.0,0.0,0.0,0.0,0.0,0.0,0.0,0.0,0.0,0.0,0.0,0.0,0.0,0.0
15.566862,-1.2744961977,1.67246925831,1.79817378521,-1.29716467857,-0.254558891058,-1.43639373779,-1.39086532593,0.439294117647,0.0,0.0,0.0,0.0,0.0,0.0,0.0,0.0,0.0,0.0,0.0,0.0,0.0,0.0,0.0
15.600179,-1.2744961977,1.67246925831,1.79817378521,-1.29716467857,-0.254558891058,-1.43639373779,-1.39086532593,0.455882352941,0.0,0.0,0.0,0.0,0.0,0.0,0.0,0.0,0.0,0.0,0.0,0.0,0.0,0.0,0.0
15.633484,-1.2744961977,1.67246925831,1.79817378521,-1.29716467857,-0.254558891058,-1.43639373779,-1.39086532593,0.472588235294,0.0,0.0,0.0,0.0,0.0,0.0,0.0,0.0,0.0,0.0,0.0,0.0,0.0,0.0,0.0
15.666815,-1.2744961977,1.67246925831,1.79817378521,-1.29716467857,-0.254558891058,-1.43639373779,-1.39086532593,0.492823529412,0.0,0.0,0.0,0.0,0.0,0.0,0.0,0.0,0.0,0.0,0.0,0.0,0.0,0.0,0.0
15.700173,-1.2744961977,1.67246925831,1.79817378521,-1.29716467857,-0.254558891058,-1.43639373779,-1.39086532593,0.508941176471,0.0,0.0,0.0,0.0,0.0,0.0,0.0,0.0,0.0,0.0,0.0,0.0,0.0,0.0,0.0
15.733547,-1.2744961977,1.67246925831,1.79817378521,-1.29716467857,-0.254558891058,-1.43639373779,-1.39086532593,0.525058823529,0.0,0.0,0.0,0.0,0.0,0.0,0.0,0.0,0.0,0.0,0.0,0.0,0.0,0.0,0.0
15.766824,-1.2744961977,1.67246925831,1.79817378521,-1.29716467857,-0.254558891058,-1.43639373779,-1.39086532593,0.547647058824,0.0,0.0,0.0,0.0,0.0,0.0,0.0,0.0,0.0,0.0,0.0,0.0,0.0,0.0,0.0
15.800181,-1.2744961977,1.67246925831,1.79817378521,-1.29716467857,-0.254558891058,-1.43639373779,-1.39086532593,0.563294117647,0.0,0.0,0.0,0.0,0.0,0.0,0.0,0.0,0.0,0.0,0.0,0.0,0.0,0.0,0.0
15.833525,-1.2744961977,1.67246925831,1.79817378521,-1.29716467857,-0.254558891058,-1.43639373779,-1.39086532593,0.578352941176,0.0,0.0,0.0,0.0,0.0,0.0,0.0,0.0,0.0,0.0,0.0,0.0,0.0,0.0,0.0
15.866862,-1.2744961977,1.67246925831,1.79817378521,-1.29716467857,-0.254558891058,-1.43639373779,-1.39086532593,0.598588235294,0.0,0.0,0.0,0.0,0.0,0.0,0.0,0.0,0.0,0.0,0.0,0.0,0.0,0.0,0.0
15.900252,-1.2744961977,1.67246925831,1.79817378521,-1.29716467857,-0.254558891058,-1.43639373779,-1.39086532593,0.612705882353,0.0,0.0,0.0,0.0,0.0,0.0,0.0,0.0,0.0,0.0,0.0,0.0,0.0,0.0,0.0
15.933503,-1.2744961977,1.67246925831,1.79817378521,-1.29716467857,-0.254558891058,-1.43639373779,-1.39086532593,0.627647058824,0.0,0.0,0.0,0.0,0.0,0.0,0.0,0.0,0.0,0.0,0.0,0.0,0.0,0.0,0.0
15.966847,-1.2744961977,1.67246925831,1.79817378521,-1.29716467857,-0.254558891058,-1.43639373779,-1.39086532593,0.648470588235,0.0,0.0,0.0,0.0,0.0,0.0,0.0,0.0,0.0,0.0,0.0,0.0,0.0,0.0,0.0
16.000254,-1.2744961977,1.67246925831,1.79817378521,-1.29716467857,-0.254558891058,-1.43639373779,-1.39086532593,0.663529411765,0.0,0.0,0.0,0.0,0.0,0.0,0.0,0.0,0.0,0.0,0.0,0.0,0.0,0.0,0.0
16.033501,-1.2744961977,1.67246925831,1.79817378521,-1.29716467857,-0.254558891058,-1.43639373779,-1.39086532593,0.677764705882,0.0,0.0,0.0,0.0,0.0,0.0,0.0,0.0,0.0,0.0,0.0,0.0,0.0,0.0,0.0
16.066912,-1.2744961977,1.67246925831,1.79817378521,-1.29716467857,-0.254558891058,-1.43639373779,-1.39086532593,0.696,0.0,0.0,0.0,0.0,0.0,0.0,0.0,0.0,0.0,0.0,0.0,0.0,0.0,0.0,0.0
16.100186,-1.2744961977,1.67246925831,1.79817378521,-1.29716467857,-0.254558891058,-1.43639373779,-1.39086532593,0.708823529412,0.0,0.0,0.0,0.0,0.0,0.0,0.0,0.0,0.0,0.0,0.0,0.0,0.0,0.0,0.0
16.133525,-1.2744961977,1.67246925831,1.79817378521,-1.29716467857,-0.254558891058,-1.43639373779,-1.39086532593,0.723294117647,0.0,0.0,0.0,0.0,0.0,0.0,0.0,0.0,0.0,0.0,0.0,0.0,0.0,0.0,0.0
16.166860,-1.2744961977,1.67246925831,1.79817378521,-1.29716467857,-0.254558891058,-1.43639373779,-1.39086532593,0.739764705882,0.0,0.0,0.0,0.0,0.0,0.0,0.0,0.0,0.0,0.0,0.0,0.0,0.0,0.0,0.0
16.200255,-1.2744961977,1.67246925831,1.79817378521,-1.29716467857,-0.254558891058,-1.43639373779,-1.39086532593,0.752470588235,0.0,0.0,0.0,0.0,0.0,0.0,0.0,0.0,0.0,0.0,0.0,0.0,0.0,0.0,0.0
16.233504,-1.2744961977,1.67246925831,1.79817378521,-1.29716467857,-0.254558891058,-1.43639373779,-1.39086532593,0.763882352941,0.0,0.0,0.0,0.0,0.0,0.0,0.0,0.0,0.0,0.0,0.0,0.0,0.0,0.0,0.0
16.266840,-1.2744961977,1.67246925831,1.79817378521,-1.29716467857,-0.254558891058,-1.43639373779,-1.39086532593,0.778941176471,0.0,0.0,0.0,0.0,0.0,0.0,0.0,0.0,0.0,0.0,0.0,0.0,0.0,0.0,0.0
16.300189,-1.2744961977,1.67246925831,1.79817378521,-1.29716467857,-0.254558891058,-1.43639373779,-1.39086532593,0.789176470588,0.0,0.0,0.0,0.0,0.0,0.0,0.0,0.0,0.0,0.0,0.0,0.0,0.0,0.0,0.0
16.334546,-1.2744961977,1.67246925831,1.79817378521,-1.29716467857,-0.254558891058,-1.43639373779,-1.39086532593,0.803411764706,0.0,0.0,0.0,0.0,0.0,0.0,0.0,0.0,0.0,0.0,0.0,0.0,0.0,0.0,0.0
16.366852,-1.2744961977,1.67246925831,1.79817378521,-1.29716467857,-0.254558891058,-1.43639373779,-1.39086532593,0.812588235294,0.0,0.0,0.0,0.0,0.0,0.0,0.0,0.0,0.0,0.0,0.0,0.0,0.0,0.0,0.0
16.400178,-1.2744961977,1.67246925831,1.79817378521,-1.29716467857,-0.254558891058,-1.43639373779,-1.39086532593,0.820705882353,0.0,0.0,0.0,0.0,0.0,0.0,0.0,0.0,0.0,0.0,0.0,0.0,0.0,0.0,0.0
16.433568,-1.2744961977,1.67246925831,1.79817378521,-1.29716467857,-0.254558891058,-1.43639373779,-1.39086532593,0.828,0.0,0.0,0.0,0.0,0.0,0.0,0.0,0.0,0.0,0.0,0.0,0.0,0.0,0.0,0.0
16.466831,-1.2744961977,1.67246925831,1.79817378521,-1.29716467857,-0.254558891058,-1.43639373779,-1.39086532593,0.837647058824,0.0,0.0,0.0,0.0,0.0,0.0,0.0,0.0,0.0,0.0,0.0,0.0,0.0,0.0,0.0
16.500200,-1.2744961977,1.67246925831,1.79817378521,-1.29716467857,-0.254558891058,-1.43639373779,-1.39086532593,0.842941176471,0.0,0.0,0.0,0.0,0.0,0.0,0.0,0.0,0.0,0.0,0.0,0.0,0.0,0.0,0.0
16.533498,-1.2744961977,1.67246925831,1.79817378521,-1.29716467857,-0.254558891058,-1.43639373779,-1.39086532593,0.846117647059,0.0,0.0,0.0,0.0,0.0,0.0,0.0,0.0,0.0,0.0,0.0,0.0,0.0,0.0,0.0
16.566806,-1.2744961977,1.67246925831,1.79817378521,-1.29716467857,-0.254558891058,-1.43639373779,-1.39086532593,0.847294117647,0.0,0.0,0.0,0.0,0.0,0.0,0.0,0.0,0.0,0.0,0.0,0.0,0.0,0.0,0.0
16.600196,-1.2744961977,1.67246925831,1.79817378521,-1.29716467857,-0.254558891058,-1.43639373779,-1.39086532593,0.847294117647,0.0,0.0,0.0,0.0,0.0,0.0,0.0,0.0,0.0,0.0,0.0,0.0,0.0,0.0,0.0
16.633533,-1.2744961977,1.67246925831,1.79817378521,-1.29716467857,-0.254558891058,-1.43639373779,-1.39086532593,0.847294117647,0.0,0.0,0.0,0.0,0.0,0.0,0.0,0.0,0.0,0.0,0.0,0.0,0.0,0.0,0.0
16.666831,-1.2744961977,1.67246925831,1.79817378521,-1.29716467857,-0.254558891058,-1.43639373779,-1.39086532593,0.847294117647,0.0,0.0,0.0,0.0,0.0,0.0,0.0,0.0,0.0,0.0,0.0,0.0,0.0,0.0,0.0
16.700148,-1.2744961977,1.67246925831,1.79817378521,-1.29716467857,-0.254558891058,-1.43639373779,-1.39086532593,0.847294117647,0.0,0.0,0.0,0.0,0.0,0.0,0.0,0.0,0.0,0.0,0.0,0.0,0.0,0.0,0.0
16.733486,-1.2744961977,1.67246925831,1.79817378521,-1.29716467857,-0.254558891058,-1.43639373779,-1.39086532593,0.847294117647,0.0,0.0,0.0,0.0,0.0,0.0,0.0,0.0,0.0,0.0,0.0,0.0,0.0,0.0,0.0
16.767025,-1.2744961977,1.67246925831,1.79817378521,-1.29716467857,-0.254558891058,-1.43639373779,-1.39086532593,0.847294117647,0.0,0.0,0.0,0.0,0.0,0.0,0.0,0.0,0.0,0.0,0.0,0.0,0.0,0.0,0.0
16.800164,-1.2744961977,1.67246925831,1.79817378521,-1.29716467857,-0.254558891058,-1.43639373779,-1.39086532593,0.847294117647,0.0,0.0,0.0,0.0,0.0,0.0,0.0,0.0,0.0,0.0,0.0,0.0,0.0,0.0,0.0
16.833476,-1.2744961977,1.67246925831,1.79817378521,-1.29716467857,-0.254558891058,-1.43639373779,-1.39086532593,0.847411764706,0.0,0.0,0.0,0.0,0.0,0.0,0.0,0.0,0.0,0.0,0.0,0.0,0.0,0.0,0.0
16.866797,-1.2744961977,1.67246925831,1.79817378521,-1.29716467857,-0.254558891058,-1.43639373779,-1.39086532593,0.847294117647,0.0,0.0,0.0,0.0,0.0,0.0,0.0,0.0,0.0,0.0,0.0,0.0,0.0,0.0,0.0
16.900112,-1.2744961977,1.67246925831,1.79817378521,-1.29716467857,-0.254558891058,-1.43639373779,-1.39086532593,0.847294117647,0.0,0.0,0.0,0.0,0.0,0.0,0.0,0.0,0.0,0.0,0.0,0.0,0.0,0.0,0.0
16.933486,-1.2744961977,1.67246925831,1.79817378521,-1.29716467857,-0.254558891058,-1.43639373779,-1.39086532593,0.847411764706,0.0,0.0,0.0,0.0,0.0,0.0,0.0,0.0,0.0,0.0,0.0,0.0,0.0,0.0,0.0
16.966837,-1.2744961977,1.67246925831,1.79817378521,-1.29716467857,-0.254558891058,-1.43639373779,-1.39086532593,0.847411764706,0.0,0.0,0.0,0.0,0.0,0.0,0.0,0.0,0.0,0.0,0.0,0.0,0.0,0.0,0.0
17.000179,-1.2744961977,1.67246925831,1.79817378521,-1.29716467857,-0.254558891058,-1.43639373779,-1.39086532593,0.847411764706,0.0,0.0,0.0,0.0,0.0,0.0,0.0,0.0,0.0,0.0,0.0,0.0,0.0,0.0,0.0
17.033488,-1.2744961977,1.67246925831,1.79817378521,-1.29716467857,-0.254558891058,-1.43639373779,-1.39086532593,0.847411764706,0.0,0.0,0.0,0.0,0.0,0.0,0.0,0.0,0.0,0.0,0.0,0.0,0.0,0.0,0.0
17.066817,-1.2744961977,1.67246925831,1.79817378521,-1.29716467857,-0.254558891058,-1.43639373779,-1.39086532593,0.847411764706,0.0,0.0,0.0,0.0,0.0,0.0,0.0,0.0,0.0,0.0,0.0,0.0,0.0,0.0,0.0
17.100155,-1.2744961977,1.67246925831,1.79817378521,-1.29716467857,-0.254558891058,-1.43639373779,-1.39086532593,0.847411764706,0.0,0.0,0.0,0.0,0.0,0.0,0.0,0.0,0.0,0.0,0.0,0.0,0.0,0.0,0.0
17.133477,-1.2744961977,1.67246925831,1.79817378521,-1.29716467857,-0.254558891058,-1.43639373779,-1.39086532593,0.847411764706,0.0,0.0,0.0,0.0,0.0,0.0,0.0,0.0,0.0,0.0,0.0,0.0,0.0,0.0,0.0
17.166835,-1.2744961977,1.67246925831,1.79817378521,-1.29716467857,-0.254558891058,-1.43639373779,-1.39086532593,0.847411764706,0.0,0.0,0.0,0.0,0.0,0.0,0.0,0.0,0.0,0.0,0.0,0.0,0.0,0.0,0.0
17.200237,-1.2744961977,1.67246925831,1.79817378521,-1.29716467857,-0.254558891058,-1.43639373779,-1.39086532593,0.847411764706,0.0,0.0,0.0,0.0,0.0,0.0,0.0,0.0,0.0,0.0,0.0,0.0,0.0,0.0,0.0
17.233493,-1.2744961977,1.67246925831,1.79817378521,-1.29716467857,-0.254558891058,-1.43639373779,-1.39086532593,0.847411764706,0.0,0.0,0.0,0.0,0.0,0.0,0.0,0.0,0.0,0.0,0.0,0.0,0.0,0.0,0.0
17.266811,-1.2744961977,1.67246925831,1.79817378521,-1.29716467857,-0.254558891058,-1.43639373779,-1.39086532593,0.847411764706,0.0,0.0,0.0,0.0,0.0,0.0,0.0,0.0,0.0,0.0,0.0,0.0,0.0,0.0,0.0
17.300157,-1.2744961977,1.67246925831,1.79817378521,-1.29716467857,-0.254558891058,-1.43639373779,-1.39086532593,0.847411764706,0.0,0.0,0.0,0.0,0.0,0.0,0.0,0.0,0.0,0.0,0.0,0.0,0.0,0.0,0.0
17.333488,-1.2744961977,1.67246925831,1.79817378521,-1.29716467857,-0.254558891058,-1.43639373779,-1.39086532593,0.847411764706,0.0,0.0,0.0,0.0,0.0,0.0,0.0,0.0,0.0,0.0,0.0,0.0,0.0,0.0,0.0
17.366854,-1.2744961977,1.67246925831,1.79817378521,-1.29716467857,-0.254558891058,-1.43639373779,-1.39086532593,0.847411764706,0.0,0.0,0.0,0.0,0.0,0.0,0.0,0.0,0.0,0.0,0.0,0.0,0.0,0.0,0.0
17.400160,-1.2744961977,1.67246925831,1.79817378521,-1.29716467857,-0.254558891058,-1.43639373779,-1.39086532593,0.847411764706,0.0,0.0,0.0,0.0,0.0,0.0,0.0,0.0,0.0,0.0,0.0,0.0,0.0,0.0,0.0
17.433916,-1.2744961977,1.67246925831,1.79817378521,-1.29716467857,-0.254558891058,-1.43639373779,-1.39086532593,0.847411764706,0.0,0.0,0.0,0.0,0.0,0.0,0.0,0.0,0.0,0.0,0.0,0.0,0.0,0.0,0.0
17.466855,-1.2744961977,1.67246925831,1.79817378521,-1.29716467857,-0.254558891058,-1.43639373779,-1.39086532593,0.847411764706,0.0,0.0,0.0,0.0,0.0,0.0,0.0,0.0,0.0,0.0,0.0,0.0,0.0,0.0,0.0
17.500175,-1.2744961977,1.67246925831,1.79817378521,-1.29716467857,-0.254558891058,-1.43639373779,-1.39086532593,0.847411764706,0.0,0.0,0.0,0.0,0.0,0.0,0.0,0.0,0.0,0.0,0.0,0.0,0.0,0.0,0.0
17.533477,-1.2744961977,1.67246925831,1.79817378521,-1.29716467857,-0.254558891058,-1.43639373779,-1.39086532593,0.847529411765,0.0,0.0,0.0,0.0,0.0,0.0,0.0,0.0,0.0,0.0,0.0,0.0,0.0,0.0,0.0
17.566838,-1.2744961977,1.67246925831,1.79817378521,-1.29716467857,-0.254558891058,-1.43639373779,-1.39086532593,0.847411764706,0.0,0.0,0.0,0.0,0.0,0.0,0.0,0.0,0.0,0.0,0.0,0.0,0.0,0.0,0.0
