IRLabUoB/boris-robot/boris_tools/scripts/contact_trajectories/saucepan_trajectory02.csv
time,left_arm_0_joint,left_arm_1_joint,left_arm_2_joint,left_arm_3_joint,left_arm_4_joint,left_arm_5_joint,left_arm_6_joint,left_hand_synergy_joint,right_arm_0_joint,right_arm_1_joint,right_arm_2_joint,right_arm_3_joint,right_arm_4_joint,right_arm_5_joint,right_arm_6_joint,right_hand_synergy_joint,head_neck_pitch_joint,head_neck_roll_joint,head_neck_yaw_joint,head_head_tilt_joint,head_eyes_tilt_joint,head_left_eye_joint,head_right_eye_joint
0.000356,-1.48358285427,0.88875246048,2.01579475403,-0.81428027153,2.00787973404,-1.15531051159,-2.88240909576,0.0176470588235,0.0,0.0,0.0,0.0,0.0,0.0,0.0,0.0,0.0,0.0,0.0,0.0,0.0,0.0,0.0
0.033495,-1.48358285427,0.88875246048,2.01579475403,-0.81428027153,2.00787973404,-1.15531051159,-2.88240909576,0.0176470588235,0.0,0.0,0.0,0.0,0.0,0.0,0.0,0.0,0.0,0.0,0.0,0.0,0.0,0.0,0.0
0.066867,-1.48358285427,0.88875246048,2.01579475403,-0.81428027153,2.00787973404,-1.15531051159,-2.88240909576,0.0176470588235,0.0,0.0,0.0,0.0,0.0,0.0,0.0,0.0,0.0,0.0,0.0,0.0,0.0,0.0,0.0
0.100182,-1.48358285427,0.88875246048,2.01579475403,-0.81428027153,2.00787973404,-1.15531051159,-2.88240909576,0.0176470588235,0.0,0.0,0.0,0.0,0.0,0.0,0.0,0.0,0.0,0.0,0.0,0.0,0.0,0.0,0.0
0.133485,-1.48358285427,0.88875246048,2.01579475403,-0.81428027153,2.00787973404,-1.15531051159,-2.88240909576,0.0176470588235,0.0,0.0,0.0,0.0,0.0,0.0,0.0,0.0,0.0,0.0,0.0,0.0,0.0,0.0,0.0
0.166955,-1.48358285427,0.88875246048,2.01579475403,-0.81428027153,2.00787973404,-1.15531051159,-2.88240909576,0.0176470588235,0.0,0.0,0.0,0.0,0.0,0.0,0.0,0.0,0.0,0.0,0.0,0.0,0.0,0.0,0.0
0.200110,-1.48358285427,0.88875246048,2.01579475403,-0.81428027153,2.00787973404,-1.15531051159,-2.88240909576,0.0176470588235,0.0,0.0,0.0,0.0,0.0,0.0,0.0,0.0,0.0,0.0,0.0,0.0,0.0,0.0,0.0
0.234886,-1.48358285427,0.88875246048,2.01579475403,-0.81428027153,2.00787973404,-1.15531051159,-2.88240909576,0.0176470588235,0.0,0.0,0.0,0.0,0.0,0.0,0.0,0.0,0.0,0.0,0.0,0.0,0.0,0.0,0.0
0.266838,-1.48358285427,0.88875246048,2.01579475403,-0.81428027153,2.00787973404,-1.15531051159,-2.88240909576,0.0176470588235,0.0,0.0,0.0,0.0,0.0,0.0,0.0,0.0,0.0,0.0,0.0,0.0,0.0,0.0,0.0
0.300160,-1.48358285427,0.88875246048,2.01579475403,-0.81428027153,2.00787973404,-1.15531051159,-2.88240909576,0.0176470588235,0.0,0.0,0.0,0.0,0.0,0.0,0.0,0.0,0.0,0.0,0.0,0.0,0.0,0.0,0.0
0.333442,-1.48358285427,0.88875246048,2.01579475403,-0.81428027153,2.00787973404,-1.15531051159,-2.88240909576,0.0176470588235,0.0,0.0,0.0,0.0,0.0,0.0,0.0,0.0,0.0,0.0,0.0,0.0,0.0,0.0,0.0
0.366818,-1.48358285427,0.88875246048,2.01579475403,-0.81428027153,2.00787973404,-1.15531051159,-2.88240909576,0.0176470588235,0.0,0.0,0.0,0.0,0.0,0.0,0.0,0.0,0.0,0.0,0.0,0.0,0.0,0.0,0.0
0.400165,-1.48358285427,0.88875246048,2.01579475403,-0.81428027153,2.00787973404,-1.15531051159,-2.88240909576,0.0176470588235,0.0,0.0,0.0,0.0,0.0,0.0,0.0,0.0,0.0,0.0,0.0,0.0,0.0,0.0,0.0
0.433481,-1.48358285427,0.88875246048,2.01579475403,-0.81428027153,2.00787973404,-1.15531051159,-2.88240909576,0.0176470588235,0.0,0.0,0.0,0.0,0.0,0.0,0.0,0.0,0.0,0.0,0.0,0.0,0.0,0.0,0.0
0.466833,-1.48358285427,0.88875246048,2.01579475403,-0.81428027153,2.00787973404,-1.15531051159,-2.88240909576,0.0176470588235,0.0,0.0,0.0,0.0,0.0,0.0,0.0,0.0,0.0,0.0,0.0,0.0,0.0,0.0,0.0
0.500118,-1.48358285427,0.88875246048,2.01579475403,-0.81428027153,2.00787973404,-1.15531051159,-2.88240909576,0.0176470588235,0.0,0.0,0.0,0.0,0.0,0.0,0.0,0.0,0.0,0.0,0.0,0.0,0.0,0.0,0.0
0.533524,-1.48358285427,0.88875246048,2.01579475403,-0.81428027153,2.00787973404,-1.15531051159,-2.88240909576,0.0176470588235,0.0,0.0,0.0,0.0,0.0,0.0,0.0,0.0,0.0,0.0,0.0,0.0,0.0,0.0,0.0
0.566793,-1.48358285427,0.88875246048,2.01579475403,-0.81428027153,2.00787973404,-1.15531051159,-2.88240909576,0.0176470588235,0.0,0.0,0.0,0.0,0.0,0.0,0.0,0.0,0.0,0.0,0.0,0.0,0.0,0.0,0.0
0.600104,-1.48358285427,0.88875246048,2.01579475403,-0.81428027153,2.00787973404,-1.15531051159,-2.88240909576,0.0176470588235,0.0,0.0,0.0,0.0,0.0,0.0,0.0,0.0,0.0,0.0,0.0,0.0,0.0,0.0,0.0
0.633500,-1.48358285427,0.88875246048,2.01579475403,-0.81428027153,2.00787973404,-1.15531051159,-2.88240909576,0.0176470588235,0.0,0.0,0.0,0.0,0.0,0.0,0.0,0.0,0.0,0.0,0.0,0.0,0.0,0.0,0.0
0.666832,-1.48358285427,0.88875246048,2.01579475403,-0.81428027153,2.00787973404,-1.15531051159,-2.88240909576,0.0176470588235,0.0,0.0,0.0,0.0,0.0,0.0,0.0,0.0,0.0,0.0,0.0,0.0,0.0,0.0,0.0
0.700157,-1.48358285427,0.88875246048,2.01579475403,-0.81428027153,2.00787973404,-1.15531051159,-2.88240909576,0.0176470588235,0.0,0.0,0.0,0.0,0.0,0.0,0.0,0.0,0.0,0.0,0.0,0.0,0.0,0.0,0.0
0.733480,-1.48358285427,0.88875246048,2.01579475403,-0.81428027153,2.00787973404,-1.15531051159,-2.88240909576,0.0176470588235,0.0,0.0,0.0,0.0,0.0,0.0,0.0,0.0,0.0,0.0,0.0,0.0,0.0,0.0,0.0
0.766804,-1.48358285427,0.88875246048,2.01579475403,-0.81428027153,2.00787973404,-1.15531051159,-2.88240909576,0.0176470588235,0.0,0.0,0.0,0.0,0.0,0.0,0.0,0.0,0.0,0.0,0.0,0.0,0.0,0.0,0.0
0.800127,-1.48358285427,0.88875246048,2.01579475403,-0.81428027153,2.00787973404,-1.15531051159,-2.88240909576,0.0176470588235,0.0,0.0,0.0,0.0,0.0,0.0,0.0,0.0,0.0,0.0,0.0,0.0,0.0,0.0,0.0
0.833499,-1.48358285427,0.88875246048,2.01579475403,-0.81428027153,2.00787973404,-1.15531051159,-2.88240909576,0.0176470588235,0.0,0.0,0.0,0.0,0.0,0.0,0.0,0.0,0.0,0.0,0.0,0.0,0.0,0.0,0.0
0.866823,-1.48358285427,0.88875246048,2.01579594612,-0.81428027153,2.00787973404,-1.15531051159,-2.88240909576,0.0176470588235,0.0,0.0,0.0,0.0,0.0,0.0,0.0,0.0,0.0,0.0,0.0,0.0,0.0,0.0,0.0
0.900117,-1.48358285427,0.88875246048,2.01579475403,-0.81428027153,2.00787973404,-1.15531051159,-2.88240909576,0.0176470588235,0.0,0.0,0.0,0.0,0.0,0.0,0.0,0.0,0.0,0.0,0.0,0.0,0.0,0.0,0.0
0.933495,-1.48358285427,0.88875246048,2.01579475403,-0.81428027153,2.00787973404,-1.15531051159,-2.88240909576,0.0176470588235,0.0,0.0,0.0,0.0,0.0,0.0,0.0,0.0,0.0,0.0,0.0,0.0,0.0,0.0,0.0
0.966779,-1.48358285427,0.88875246048,2.01579475403,-0.81428027153,2.00787973404,-1.15531051159,-2.88240909576,0.0176470588235,0.0,0.0,0.0,0.0,0.0,0.0,0.0,0.0,0.0,0.0,0.0,0.0,0.0,0.0,0.0
1.000215,-1.48358285427,0.88875246048,2.01579475403,-0.81428027153,2.00787973404,-1.15531051159,-2.88240909576,0.0176470588235,0.0,0.0,0.0,0.0,0.0,0.0,0.0,0.0,0.0,0.0,0.0,0.0,0.0,0.0,0.0
1.033505,-1.48358285427,0.88875246048,2.01579475403,-0.81428027153,2.00787973404,-1.15531051159,-2.88240909576,0.0176470588235,0.0,0.0,0.0,0.0,0.0,0.0,0.0,0.0,0.0,0.0,0.0,0.0,0.0,0.0,0.0
1.067085,-1.48358285427,0.88875246048,2.01579475403,-0.81428027153,2.00787973404,-1.15531051159,-2.88240909576,0.0176470588235,0.0,0.0,0.0,0.0,0.0,0.0,0.0,0.0,0.0,0.0,0.0,0.0,0.0,0.0,0.0
1.100135,-1.48358285427,0.88875246048,2.01579475403,-0.81428027153,2.00787973404,-1.15531051159,-2.88240909576,0.0176470588235,0.0,0.0,0.0,0.0,0.0,0.0,0.0,0.0,0.0,0.0,0.0,0.0,0.0,0.0,0.0
1.133502,-1.48358285427,0.88875246048,2.01579475403,-0.81428027153,2.00787973404,-1.15531051159,-2.88240909576,0.0176470588235,0.0,0.0,0.0,0.0,0.0,0.0,0.0,0.0,0.0,0.0,0.0,0.0,0.0,0.0,0.0
1.166803,-1.48358285427,0.88875246048,2.01579475403,-0.81428027153,2.00787973404,-1.15531051159,-2.88240909576,0.0176470588235,0.0,0.0,0.0,0.0,0.0,0.0,0.0,0.0,0.0,0.0,0.0,0.0,0.0,0.0,0.0
1.200126,-1.48358285427,0.88875246048,2.01579475403,-0.81428027153,2.00787973404,-1.15531051159,-2.88240909576,0.0176470588235,0.0,0.0,0.0,0.0,0.0,0.0,0.0,0.0,0.0,0.0,0.0,0.0,0.0,0.0,0.0
1.233496,-1.48358285427,0.88875246048,2.01579475403,-0.81428027153,2.00787973404,-1.15531051159,-2.88240909576,0.0176470588235,0.0,0.0,0.0,0.0,0.0,0.0,0.0,0.0,0.0,0.0,0.0,0.0,0.0,0.0,0.0
1.266885,-1.48358285427,0.88875246048,2.01579475403,-0.81428027153,2.00787973404,-1.15531051159,-2.88240909576,0.0176470588235,0.0,0.0,0.0,0.0,0.0,0.0,0.0,0.0,0.0,0.0,0.0,0.0,0.0,0.0,0.0
1.300193,-1.48358285427,0.88875246048,2.01579594612,-0.81428027153,2.00787973404,-1.15531051159,-2.88240909576,0.0176470588235,0.0,0.0,0.0,0.0,0.0,0.0,0.0,0.0,0.0,0.0,0.0,0.0,0.0,0.0,0.0
1.333507,-1.48358285427,0.88875246048,2.01579475403,-0.81428027153,2.00787973404,-1.15531051159,-2.88240909576,0.0176470588235,0.0,0.0,0.0,0.0,0.0,0.0,0.0,0.0,0.0,0.0,0.0,0.0,0.0,0.0,0.0
1.366795,-1.48358285427,0.88875246048,2.01579475403,-0.81428027153,2.00787973404,-1.15531051159,-2.88240909576,0.0176470588235,0.0,0.0,0.0,0.0,0.0,0.0,0.0,0.0,0.0,0.0,0.0,0.0,0.0,0.0,0.0
1.400109,-1.48358285427,0.88875246048,2.01579475403,-0.81428027153,2.00787973404,-1.15531051159,-2.88240909576,0.0176470588235,0.0,0.0,0.0,0.0,0.0,0.0,0.0,0.0,0.0,0.0,0.0,0.0,0.0,0.0,0.0
1.433515,-1.48358285427,0.88875246048,2.01579594612,-0.81428027153,2.00787973404,-1.15531051159,-2.88240909576,0.0176470588235,0.0,0.0,0.0,0.0,0.0,0.0,0.0,0.0,0.0,0.0,0.0,0.0,0.0,0.0,0.0
1.466822,-1.48358285427,0.88875246048,2.01579475403,-0.81428027153,2.00787973404,-1.15531051159,-2.88240909576,0.0176470588235,0.0,0.0,0.0,0.0,0.0,0.0,0.0,0.0,0.0,0.0,0.0,0.0,0.0,0.0,0.0
1.500150,-1.48358285427,0.88875246048,2.01579475403,-0.81428027153,2.00787973404,-1.15531051159,-2.88240909576,0.0176470588235,0.0,0.0,0.0,0.0,0.0,0.0,0.0,0.0,0.0,0.0,0.0,0.0,0.0,0.0,0.0
1.533522,-1.48358285427,0.88875246048,2.01579475403,-0.81428027153,2.00787973404,-1.15531051159,-2.88240909576,0.0176470588235,0.0,0.0,0.0,0.0,0.0,0.0,0.0,0.0,0.0,0.0,0.0,0.0,0.0,0.0,0.0
1.566809,-1.48358285427,0.88875246048,2.01579475403,-0.81428027153,2.00787973404,-1.15531051159,-2.88240909576,0.0176470588235,0.0,0.0,0.0,0.0,0.0,0.0,0.0,0.0,0.0,0.0,0.0,0.0,0.0,0.0,0.0
1.600134,-1.48358285427,0.88875246048,2.01579594612,-0.81428027153,2.00787973404,-1.15531051159,-2.88240909576,0.0176470588235,0.0,0.0,0.0,0.0,0.0,0.0,0.0,0.0,0.0,0.0,0.0,0.0,0.0,0.0,0.0
1.634513,-1.48358285427,0.88875246048,2.01579475403,-0.81428027153,2.00787973404,-1.15531051159,-2.88240909576,0.0176470588235,0.0,0.0,0.0,0.0,0.0,0.0,0.0,0.0,0.0,0.0,0.0,0.0,0.0,0.0,0.0
1.666826,-1.48358285427,0.88875246048,2.01579475403,-0.81428027153,2.00787973404,-1.15531051159,-2.88240909576,0.0176470588235,0.0,0.0,0.0,0.0,0.0,0.0,0.0,0.0,0.0,0.0,0.0,0.0,0.0,0.0,0.0
1.700153,-1.48358285427,0.88875246048,2.01579475403,-0.81428027153,2.00787973404,-1.15531051159,-2.88240909576,0.0176470588235,0.0,0.0,0.0,0.0,0.0,0.0,0.0,0.0,0.0,0.0,0.0,0.0,0.0,0.0,0.0
1.733445,-1.48358285427,0.88875246048,2.01579475403,-0.81428027153,2.00787973404,-1.15531051159,-2.88240909576,0.0176470588235,0.0,0.0,0.0,0.0,0.0,0.0,0.0,0.0,0.0,0.0,0.0,0.0,0.0,0.0,0.0
1.767738,-1.48358285427,0.88875246048,2.01579475403,-0.81428027153,2.00787973404,-1.15531051159,-2.88240909576,0.0176470588235,0.0,0.0,0.0,0.0,0.0,0.0,0.0,0.0,0.0,0.0,0.0,0.0,0.0,0.0,0.0
1.800178,-1.48358285427,0.88875246048,2.01579475403,-0.81428027153,2.00787973404,-1.15531051159,-2.88240909576,0.0176470588235,0.0,0.0,0.0,0.0,0.0,0.0,0.0,0.0,0.0,0.0,0.0,0.0,0.0,0.0,0.0
1.833552,-1.48358285427,0.88875246048,2.01579475403,-0.81428027153,2.00787973404,-1.15531051159,-2.88240909576,0.0176470588235,0.0,0.0,0.0,0.0,0.0,0.0,0.0,0.0,0.0,0.0,0.0,0.0,0.0,0.0,0.0
1.866901,-1.48358285427,0.88875246048,2.01579475403,-0.81428027153,2.00787973404,-1.15531051159,-2.88240909576,0.0175294117647,0.0,0.0,0.0,0.0,0.0,0.0,0.0,0.0,0.0,0.0,0.0,0.0,0.0,0.0,0.0
1.900179,-1.48358285427,0.88875246048,2.01579475403,-0.81428027153,2.00787973404,-1.15531051159,-2.88240909576,0.0175294117647,0.0,0.0,0.0,0.0,0.0,0.0,0.0,0.0,0.0,0.0,0.0,0.0,0.0,0.0,0.0
1.933487,-1.48358285427,0.88875246048,2.01579475403,-0.81428027153,2.00787973404,-1.15531051159,-2.88240909576,0.0175294117647,0.0,0.0,0.0,0.0,0.0,0.0,0.0,0.0,0.0,0.0,0.0,0.0,0.0,0.0,0.0
1.966855,-1.48358285427,0.88875246048,2.01579475403,-0.81428027153,2.00787973404,-1.15531051159,-2.88240909576,0.0176470588235,0.0,0.0,0.0,0.0,0.0,0.0,0.0,0.0,0.0,0.0,0.0,0.0,0.0,0.0,0.0
2.000123,-1.48358285427,0.88875246048,2.01579475403,-0.81428027153,2.00787973404,-1.15531051159,-2.88240909576,0.0175294117647,0.0,0.0,0.0,0.0,0.0,0.0,0.0,0.0,0.0,0.0,0.0,0.0,0.0,0.0,0.0
2.033476,-1.48358285427,0.88875246048,2.01579475403,-0.81428027153,2.00787973404,-1.15531051159,-2.88240909576,0.0175294117647,0.0,0.0,0.0,0.0,0.0,0.0,0.0,0.0,0.0,0.0,0.0,0.0,0.0,0.0,0.0
2.066810,-1.48358285427,0.88875246048,2.01579475403,-0.81428027153,2.00787973404,-1.15531051159,-2.88240909576,0.0175294117647,0.0,0.0,0.0,0.0,0.0,0.0,0.0,0.0,0.0,0.0,0.0,0.0,0.0,0.0,0.0
2.100133,-1.48358285427,0.88875246048,2.01579475403,-0.81428027153,2.00787973404,-1.15531051159,-2.88240909576,0.0175294117647,0.0,0.0,0.0,0.0,0.0,0.0,0.0,0.0,0.0,0.0,0.0,0.0,0.0,0.0,0.0
2.133507,-1.48358285427,0.88875246048,2.01579475403,-0.81428027153,2.00787973404,-1.15531051159,-2.88240909576,0.0176470588235,0.0,0.0,0.0,0.0,0.0,0.0,0.0,0.0,0.0,0.0,0.0,0.0,0.0,0.0,0.0
2.166786,-1.48358285427,0.88875246048,2.01579475403,-0.81428027153,2.00787973404,-1.15531051159,-2.88240909576,0.0175294117647,0.0,0.0,0.0,0.0,0.0,0.0,0.0,0.0,0.0,0.0,0.0,0.0,0.0,0.0,0.0
2.200149,-1.48358285427,0.88875246048,2.01579475403,-0.81428027153,2.00787973404,-1.15531051159,-2.88240909576,0.0175294117647,0.0,0.0,0.0,0.0,0.0,0.0,0.0,0.0,0.0,0.0,0.0,0.0,0.0,0.0,0.0
2.233442,-1.48358285427,0.88875246048,2.01579594612,-0.81428027153,2.00787973404,-1.15531051159,-2.88240909576,0.0175294117647,0.0,0.0,0.0,0.0,0.0,0.0,0.0,0.0,0.0,0.0,0.0,0.0,0.0,0.0,0.0
2.266818,-1.48358285427,0.88875246048,2.01579594612,-0.81428027153,2.00787973404,-1.15531051159,-2.88240909576,0.0175294117647,0.0,0.0,0.0,0.0,0.0,0.0,0.0,0.0,0.0,0.0,0.0,0.0,0.0,0.0,0.0
2.303027,-1.48358285427,0.88875246048,2.01579475403,-0.81428027153,2.00787973404,-1.15531051159,-2.88240909576,0.0175294117647,0.0,0.0,0.0,0.0,0.0,0.0,0.0,0.0,0.0,0.0,0.0,0.0,0.0,0.0,0.0
2.333505,-1.48358285427,0.88875246048,2.01579475403,-0.81428027153,2.00787973404,-1.15531051159,-2.88240909576,0.0175294117647,0.0,0.0,0.0,0.0,0.0,0.0,0.0,0.0,0.0,0.0,0.0,0.0,0.0,0.0,0.0
2.366839,-1.48358285427,0.88875246048,2.01579475403,-0.81428027153,2.00787973404,-1.15531051159,-2.88240909576,0.0175294117647,0.0,0.0,0.0,0.0,0.0,0.0,0.0,0.0,0.0,0.0,0.0,0.0,0.0,0.0,0.0
2.400153,-1.48358285427,0.88875246048,2.01579475403,-0.81428027153,2.00787973404,-1.15531051159,-2.88240909576,0.0175294117647,0.0,0.0,0.0,0.0,0.0,0.0,0.0,0.0,0.0,0.0,0.0,0.0,0.0,0.0,0.0
2.433489,-1.48358285427,0.88875246048,2.01579475403,-0.81428027153,2.00787973404,-1.15531051159,-2.88240909576,0.0175294117647,0.0,0.0,0.0,0.0,0.0,0.0,0.0,0.0,0.0,0.0,0.0,0.0,0.0,0.0,0.0
2.466820,-1.48358285427,0.88875246048,2.01579475403,-0.81428027153,2.00787973404,-1.15531051159,-2.88240909576,0.0175294117647,0.0,0.0,0.0,0.0,0.0,0.0,0.0,0.0,0.0,0.0,0.0,0.0,0.0,0.0,0.0
2.500127,-1.48358285427,0.88875246048,2.01579475403,-0.81428027153,2.00787973404,-1.15531051159,-2.88240909576,0.0175294117647,0.0,0.0,0.0,0.0,0.0,0.0,0.0,0.0,0.0,0.0,0.0,0.0,0.0,0.0,0.0
2.533488,-1.48358285427,0.88875246048,2.01579594612,-0.81428027153,2.00787973404,-1.15531051159,-2.88240909576,0.0175294117647,0.0,0.0,0.0,0.0,0.0,0.0,0.0,0.0,0.0,0.0,0.0,0.0,0.0,0.0,0.0
2.566846,-1.48358285427,0.88875246048,2.01579475403,-0.81428027153,2.00787973404,-1.15531051159,-2.88240909576,0.0175294117647,0.0,0.0,0.0,0.0,0.0,0.0,0.0,0.0,0.0,0.0,0.0,0.0,0.0,0.0,0.0
2.600140,-1.48358285427,0.88875246048,2.01579475403,-0.81428027153,2.00787973404,-1.15531051159,-2.88240909576,0.0175294117647,0.0,0.0,0.0,0.0,0.0,0.0,0.0,0.0,0.0,0.0,0.0,0.0,0.0,0.0,0.0
2.633522,-1.48358285427,0.88875246048,2.01579475403,-0.81428027153,2.00787973404,-1.15531051159,-2.88240909576,0.0175294117647,0.0,0.0,0.0,0.0,0.0,0.0,0.0,0.0,0.0,0.0,0.0,0.0,0.0,0.0,0.0
2.666798,-1.48358285427,0.88875246048,2.01579475403,-0.81428027153,2.00787973404,-1.15531051159,-2.88240909576,0.0175294117647,0.0,0.0,0.0,0.0,0.0,0.0,0.0,0.0,0.0,0.0,0.0,0.0,0.0,0.0,0.0
2.700105,-1.48358285427,0.88875246048,2.01579475403,-0.81428027153,2.00787973404,-1.15531051159,-2.88240909576,0.0175294117647,0.0,0.0,0.0,0.0,0.0,0.0,0.0,0.0,0.0,0.0,0.0,0.0,0.0,0.0,0.0
2.733489,-1.48358285427,0.88875246048,2.01579475403,-0.81428027153,2.00787973404,-1.15531051159,-2.88240909576,0.0175294117647,0.0,0.0,0.0,0.0,0.0,0.0,0.0,0.0,0.0,0.0,0.0,0.0,0.0,0.0,0.0
2.766807,-1.48358285427,0.88875246048,2.01579475403,-0.81428027153,2.00787973404,-1.15531051159,-2.88240909576,0.0175294117647,0.0,0.0,0.0,0.0,0.0,0.0,0.0,0.0,0.0,0.0,0.0,0.0,0.0,0.0,0.0
2.800122,-1.48358285427,0.88875246048,2.01579475403,-0.81428027153,2.00787973404,-1.15531051159,-2.88240909576,0.0174117647059,0.0,0.0,0.0,0.0,0.0,0.0,0.0,0.0,0.0,0.0,0.0,0.0,0.0,0.0,0.0
2.833491,-1.48358285427,0.88875246048,2.01579475403,-0.81428027153,2.00787973404,-1.15531051159,-2.88240909576,0.0175294117647,0.0,0.0,0.0,0.0,0.0,0.0,0.0,0.0,0.0,0.0,0.0,0.0,0.0,0.0,0.0
2.866799,-1.48358285427,0.88875246048,2.01579475403,-0.81428027153,2.00787973404,-1.15531051159,-2.88240909576,0.0174117647059,0.0,0.0,0.0,0.0,0.0,0.0,0.0,0.0,0.0,0.0,0.0,0.0,0.0,0.0,0.0
2.900234,-1.48358285427,0.88875246048,2.01579475403,-0.81428027153,2.00787973404,-1.15531051159,-2.88240909576,0.0174117647059,0.0,0.0,0.0,0.0,0.0,0.0,0.0,0.0,0.0,0.0,0.0,0.0,0.0,0.0,0.0
2.933465,-1.48358285427,0.88875246048,2.01579475403,-0.81428027153,2.00787973404,-1.15531051159,-2.88240909576,0.0174117647059,0.0,0.0,0.0,0.0,0.0,0.0,0.0,0.0,0.0,0.0,0.0,0.0,0.0,0.0,0.0
2.966817,-1.48358285427,0.88875246048,2.01579475403,-0.81428027153,2.00787973404,-1.15531051159,-2.88240909576,0.0174117647059,0.0,0.0,0.0,0.0,0.0,0.0,0.0,0.0,0.0,0.0,0.0,0.0,0.0,0.0,0.0
3.000208,-1.48358285427,0.88875246048,2.01579475403,-0.81428027153,2.00787973404,-1.15531051159,-2.88240909576,0.0174117647059,0.0,0.0,0.0,0.0,0.0,0.0,0.0,0.0,0.0,0.0,0.0,0.0,0.0,0.0,0.0
3.034388,-1.48358285427,0.88875246048,2.01579475403,-0.81428027153,2.00787973404,-1.15531051159,-2.88240909576,0.0174117647059,0.0,0.0,0.0,0.0,0.0,0.0,0.0,0.0,0.0,0.0,0.0,0.0,0.0,0.0,0.0
3.066901,-1.48358285427,0.88875246048,2.01579475403,-0.81428027153,2.00787973404,-1.15531051159,-2.88240909576,0.0174117647059,0.0,0.0,0.0,0.0,0.0,0.0,0.0,0.0,0.0,0.0,0.0,0.0,0.0,0.0,0.0
3.100184,-1.48358285427,0.88875246048,2.01579475403,-0.81428027153,2.00787973404,-1.15531051159,-2.88240909576,0.0174117647059,0.0,0.0,0.0,0.0,0.0,0.0,0.0,0.0,0.0,0.0,0.0,0.0,0.0,0.0,0.0
3.133486,-1.48358285427,0.88875246048,2.01579475403,-0.81428027153,2.00787973404,-1.15531051159,-2.88240909576,0.0174117647059,0.0,0.0,0.0,0.0,0.0,0.0,0.0,0.0,0.0,0.0,0.0,0.0,0.0,0.0,0.0
3.166850,-1.48358285427,0.88875246048,2.01579475403,-0.81428027153,2.00787973404,-1.15531051159,-2.88240909576,0.0174117647059,0.0,0.0,0.0,0.0,0.0,0.0,0.0,0.0,0.0,0.0,0.0,0.0,0.0,0.0,0.0
3.200134,-1.48358285427,0.88875246048,2.01579475403,-0.81428027153,2.00787973404,-1.15531051159,-2.88240909576,0.0174117647059,0.0,0.0,0.0,0.0,0.0,0.0,0.0,0.0,0.0,0.0,0.0,0.0,0.0,0.0,0.0
3.233505,-1.48358285427,0.88875246048,2.01579475403,-0.81428027153,2.00787973404,-1.15531051159,-2.88240909576,0.0174117647059,0.0,0.0,0.0,0.0,0.0,0.0,0.0,0.0,0.0,0.0,0.0,0.0,0.0,0.0,0.0
3.266857,-1.48358285427,0.88875246048,2.01579475403,-0.81428027153,2.00787973404,-1.15531051159,-2.88240909576,0.0174117647059,0.0,0.0,0.0,0.0,0.0,0.0,0.0,0.0,0.0,0.0,0.0,0.0,0.0,0.0,0.0
3.300173,-1.48358285427,0.88875246048,2.01579475403,-0.81428027153,2.00787973404,-1.15531051159,-2.88240909576,0.0174117647059,0.0,0.0,0.0,0.0,0.0,0.0,0.0,0.0,0.0,0.0,0.0,0.0,0.0,0.0,0.0
3.333487,-1.48358285427,0.88875246048,2.01579475403,-0.81428027153,2.00787973404,-1.15531051159,-2.88240909576,0.0174117647059,0.0,0.0,0.0,0.0,0.0,0.0,0.0,0.0,0.0,0.0,0.0,0.0,0.0,0.0,0.0
3.366810,-1.48358285427,0.88875246048,2.01579475403,-0.81428027153,2.00787973404,-1.15531051159,-2.88240909576,0.0174117647059,0.0,0.0,0.0,0.0,0.0,0.0,0.0,0.0,0.0,0.0,0.0,0.0,0.0,0.0,0.0
3.400157,-1.48358285427,0.88875246048,2.01579475403,-0.81428027153,2.00787973404,-1.15531051159,-2.88240909576,0.0174117647059,0.0,0.0,0.0,0.0,0.0,0.0,0.0,0.0,0.0,0.0,0.0,0.0,0.0,0.0,0.0
3.433509,-1.48358285427,0.88875246048,2.01579475403,-0.81428027153,2.00787973404,-1.15531051159,-2.88240909576,0.0174117647059,0.0,0.0,0.0,0.0,0.0,0.0,0.0,0.0,0.0,0.0,0.0,0.0,0.0,0.0,0.0
3.466826,-1.48358285427,0.88875246048,2.01579475403,-0.81428027153,2.00787973404,-1.15531051159,-2.88240909576,0.0174117647059,0.0,0.0,0.0,0.0,0.0,0.0,0.0,0.0,0.0,0.0,0.0,0.0,0.0,0.0,0.0
3.500270,-1.48358285427,0.88875246048,2.01579475403,-0.81428027153,2.00787973404,-1.15531051159,-2.88240909576,0.0174117647059,0.0,0.0,0.0,0.0,0.0,0.0,0.0,0.0,0.0,0.0,0.0,0.0,0.0,0.0,0.0
3.533528,-1.48358285427,0.88875246048,2.01579475403,-0.81428027153,2.00787973404,-1.15531051159,-2.88240909576,0.0174117647059,0.0,0.0,0.0,0.0,0.0,0.0,0.0,0.0,0.0,0.0,0.0,0.0,0.0,0.0,0.0
3.566817,-1.48358285427,0.88875246048,2.01579475403,-0.81428027153,2.00787973404,-1.15531051159,-2.88240909576,0.0174117647059,0.0,0.0,0.0,0.0,0.0,0.0,0.0,0.0,0.0,0.0,0.0,0.0,0.0,0.0,0.0
3.600159,-1.48358285427,0.88875246048,2.01579475403,-0.81428027153,2.00787973404,-1.15531051159,-2.88240909576,0.0174117647059,0.0,0.0,0.0,0.0,0.0,0.0,0.0,0.0,0.0,0.0,0.0,0.0,0.0,0.0,0.0
3.633527,-1.48358285427,0.88875246048,2.01579475403,-0.81428027153,2.00787973404,-1.15531051159,-2.88240909576,0.0174117647059,0.0,0.0,0.0,0.0,0.0,0.0,0.0,0.0,0.0,0.0,0.0,0.0,0.0,0.0,0.0
3.666852,-1.48358285427,0.88875246048,2.01579475403,-0.81428027153,2.00787973404,-1.15531051159,-2.88240909576,0.0174117647059,0.0,0.0,0.0,0.0,0.0,0.0,0.0,0.0,0.0,0.0,0.0,0.0,0.0,0.0,0.0
3.700143,-1.48358285427,0.88875246048,2.01579475403,-0.81428027153,2.00787973404,-1.15531051159,-2.88240909576,0.0174117647059,0.0,0.0,0.0,0.0,0.0,0.0,0.0,0.0,0.0,0.0,0.0,0.0,0.0,0.0,0.0
3.733481,-1.48358285427,0.88875246048,2.01579475403,-0.81428027153,2.00787973404,-1.15531051159,-2.88240909576,0.0174117647059,0.0,0.0,0.0,0.0,0.0,0.0,0.0,0.0,0.0,0.0,0.0,0.0,0.0,0.0,0.0
3.766815,-1.48358285427,0.88875246048,2.01579475403,-0.81428027153,2.00787973404,-1.15531051159,-2.88240909576,0.0174117647059,0.0,0.0,0.0,0.0,0.0,0.0,0.0,0.0,0.0,0.0,0.0,0.0,0.0,0.0,0.0
3.800166,-1.48358285427,0.88875246048,2.01579475403,-0.81428027153,2.00787973404,-1.15531051159,-2.88240909576,0.0174117647059,0.0,0.0,0.0,0.0,0.0,0.0,0.0,0.0,0.0,0.0,0.0,0.0,0.0,0.0,0.0
3.833514,-1.48358285427,0.88875246048,2.01579475403,-0.81428027153,2.00787973404,-1.15531051159,-2.88240909576,0.0174117647059,0.0,0.0,0.0,0.0,0.0,0.0,0.0,0.0,0.0,0.0,0.0,0.0,0.0,0.0,0.0
3.866830,-1.48358285427,0.88875246048,2.01579475403,-0.81428027153,2.00787973404,-1.15531051159,-2.88240909576,0.0174117647059,0.0,0.0,0.0,0.0,0.0,0.0,0.0,0.0,0.0,0.0,0.0,0.0,0.0,0.0,0.0
3.900186,-1.48358285427,0.88875246048,2.01579475403,-0.81428027153,2.00787973404,-1.15531051159,-2.88240909576,0.0174117647059,0.0,0.0,0.0,0.0,0.0,0.0,0.0,0.0,0.0,0.0,0.0,0.0,0.0,0.0,0.0
3.933508,-1.48358285427,0.88875246048,2.01579475403,-0.81428027153,2.00787973404,-1.15531051159,-2.88240909576,0.0174117647059,0.0,0.0,0.0,0.0,0.0,0.0,0.0,0.0,0.0,0.0,0.0,0.0,0.0,0.0,0.0
3.966816,-1.48358285427,0.88875246048,2.01579475403,-0.81428027153,2.00787973404,-1.15531051159,-2.88240909576,0.0174117647059,0.0,0.0,0.0,0.0,0.0,0.0,0.0,0.0,0.0,0.0,0.0,0.0,0.0,0.0,0.0
4.000239,-1.48358285427,0.88875246048,2.01579475403,-0.81428027153,2.00787973404,-1.15531051159,-2.88240909576,0.0174117647059,0.0,0.0,0.0,0.0,0.0,0.0,0.0,0.0,0.0,0.0,0.0,0.0,0.0,0.0,0.0
4.033468,-1.48358285427,0.88875246048,2.01579475403,-0.81428027153,2.00787973404,-1.15531051159,-2.88240909576,0.0174117647059,0.0,0.0,0.0,0.0,0.0,0.0,0.0,0.0,0.0,0.0,0.0,0.0,0.0,0.0,0.0
4.066844,-1.48358285427,0.88875246048,2.01579475403,-0.81428027153,2.00787973404,-1.15531051159,-2.88240909576,0.0174117647059,0.0,0.0,0.0,0.0,0.0,0.0,0.0,0.0,0.0,0.0,0.0,0.0,0.0,0.0,0.0
4.100206,-1.48358285427,0.88875246048,2.01579475403,-0.81428027153,2.00787973404,-1.15531051159,-2.88240909576,0.0174117647059,0.0,0.0,0.0,0.0,0.0,0.0,0.0,0.0,0.0,0.0,0.0,0.0,0.0,0.0,0.0
4.133476,-1.48358285427,0.88875246048,2.01579475403,-0.81428027153,2.00787973404,-1.15531051159,-2.88240909576,0.0174117647059,0.0,0.0,0.0,0.0,0.0,0.0,0.0,0.0,0.0,0.0,0.0,0.0,0.0,0.0,0.0
4.166817,-1.48358285427,0.88875246048,2.01579475403,-0.81428027153,2.00787973404,-1.15531051159,-2.88240909576,0.0174117647059,0.0,0.0,0.0,0.0,0.0,0.0,0.0,0.0,0.0,0.0,0.0,0.0,0.0,0.0,0.0
4.200121,-1.48358285427,0.88875246048,2.01579475403,-0.81428027153,2.00787973404,-1.15531051159,-2.88240909576,0.0174117647059,0.0,0.0,0.0,0.0,0.0,0.0,0.0,0.0,0.0,0.0,0.0,0.0,0.0,0.0,0.0
4.233471,-1.48358285427,0.88875246048,2.01579475403,-0.81428027153,2.00787973404,-1.15531051159,-2.88240909576,0.0174117647059,0.0,0.0,0.0,0.0,0.0,0.0,0.0,0.0,0.0,0.0,0.0,0.0,0.0,0.0,0.0
4.266930,-1.48358285427,0.88875246048,2.01579475403,-0.81428027153,2.00787973404,-1.15531051159,-2.88240909576,0.0174117647059,0.0,0.0,0.0,0.0,0.0,0.0,0.0,0.0,0.0,0.0,0.0,0.0,0.0,0.0,0.0
4.300142,-1.48358285427,0.88875246048,2.01579475403,-0.81428027153,2.00787973404,-1.15531051159,-2.88240909576,0.0174117647059,0.0,0.0,0.0,0.0,0.0,0.0,0.0,0.0,0.0,0.0,0.0,0.0,0.0,0.0,0.0
4.333501,-1.48358285427,0.88875246048,2.01579475403,-0.81428027153,2.00787973404,-1.15531051159,-2.88240909576,0.0174117647059,0.0,0.0,0.0,0.0,0.0,0.0,0.0,0.0,0.0,0.0,0.0,0.0,0.0,0.0,0.0
4.366791,-1.48358285427,0.88875246048,2.01579475403,-0.81428027153,2.00787973404,-1.15531051159,-2.88240909576,0.0174117647059,0.0,0.0,0.0,0.0,0.0,0.0,0.0,0.0,0.0,0.0,0.0,0.0,0.0,0.0,0.0
4.400155,-1.48358285427,0.88875246048,2.01579594612,-0.81428027153,2.00787973404,-1.15531051159,-2.88240909576,0.0174117647059,0.0,0.0,0.0,0.0,0.0,0.0,0.0,0.0,0.0,0.0,0.0,0.0,0.0,0.0,0.0
4.433491,-1.48358285427,0.88875246048,2.01579475403,-0.81428027153,2.00787973404,-1.15531051159,-2.88240909576,0.0174117647059,0.0,0.0,0.0,0.0,0.0,0.0,0.0,0.0,0.0,0.0,0.0,0.0,0.0,0.0,0.0
4.466828,-1.48358285427,0.88875246048,2.01579475403,-0.81428027153,2.00787973404,-1.15531051159,-2.88240909576,0.0174117647059,0.0,0.0,0.0,0.0,0.0,0.0,0.0,0.0,0.0,0.0,0.0,0.0,0.0,0.0,0.0
4.500117,-1.48358285427,0.88875246048,2.01579475403,-0.81428027153,2.00787973404,-1.15531051159,-2.88240909576,0.0174117647059,0.0,0.0,0.0,0.0,0.0,0.0,0.0,0.0,0.0,0.0,0.0,0.0,0.0,0.0,0.0
4.533536,-1.48358285427,0.88875246048,2.01579475403,-0.81428027153,2.00787973404,-1.15531051159,-2.88240909576,0.0174117647059,0.0,0.0,0.0,0.0,0.0,0.0,0.0,0.0,0.0,0.0,0.0,0.0,0.0,0.0,0.0
4.566822,-1.48358285427,0.88875246048,2.01579475403,-0.81428027153,2.00787973404,-1.15531051159,-2.88240909576,0.0174117647059,0.0,0.0,0.0,0.0,0.0,0.0,0.0,0.0,0.0,0.0,0.0,0.0,0.0,0.0,0.0
4.600115,-1.48358285427,0.88875246048,2.01579475403,-0.81428027153,2.00787973404,-1.15531051159,-2.88240909576,0.0174117647059,0.0,0.0,0.0,0.0,0.0,0.0,0.0,0.0,0.0,0.0,0.0,0.0,0.0,0.0,0.0
4.633519,-1.48358285427,0.88875246048,2.01579475403,-0.81428027153,2.00787973404,-1.15531051159,-2.88240909576,0.0174117647059,0.0,0.0,0.0,0.0,0.0,0.0,0.0,0.0,0.0,0.0,0.0,0.0,0.0,0.0,0.0
4.666804,-1.48358285427,0.88875246048,2.01579475403,-0.81428027153,2.00787973404,-1.15531051159,-2.88240909576,0.0174117647059,0.0,0.0,0.0,0.0,0.0,0.0,0.0,0.0,0.0,0.0,0.0,0.0,0.0,0.0,0.0
4.700179,-1.48358285427,0.88875246048,2.01579475403,-0.81428027153,2.00787973404,-1.15531051159,-2.88240909576,0.0174117647059,0.0,0.0,0.0,0.0,0.0,0.0,0.0,0.0,0.0,0.0,0.0,0.0,0.0,0.0,0.0
4.733476,-1.48358285427,0.88875246048,2.01579475403,-0.81428027153,2.00787973404,-1.15531051159,-2.88240909576,0.0174117647059,0.0,0.0,0.0,0.0,0.0,0.0,0.0,0.0,0.0,0.0,0.0,0.0,0.0,0.0,0.0
4.766802,-1.48358285427,0.88875246048,2.01579475403,-0.81428027153,2.00787973404,-1.15531051159,-2.88240909576,0.0174117647059,0.0,0.0,0.0,0.0,0.0,0.0,0.0,0.0,0.0,0.0,0.0,0.0,0.0,0.0,0.0
4.800148,-1.48358285427,0.88875246048,2.01579475403,-0.81428027153,2.00787973404,-1.15531051159,-2.88240909576,0.0174117647059,0.0,0.0,0.0,0.0,0.0,0.0,0.0,0.0,0.0,0.0,0.0,0.0,0.0,0.0,0.0
4.833453,-1.48358285427,0.88875246048,2.01579475403,-0.81428027153,2.00787973404,-1.15531051159,-2.88240909576,0.0174117647059,0.0,0.0,0.0,0.0,0.0,0.0,0.0,0.0,0.0,0.0,0.0,0.0,0.0,0.0,0.0
4.866824,-1.48358285427,0.88875246048,2.01579475403,-0.81428027153,2.00787973404,-1.15531051159,-2.88240909576,0.0174117647059,0.0,0.0,0.0,0.0,0.0,0.0,0.0,0.0,0.0,0.0,0.0,0.0,0.0,0.0,0.0
4.900115,-1.48358285427,0.88875246048,2.01579475403,-0.81428027153,2.00787973404,-1.15531051159,-2.88240909576,0.0174117647059,0.0,0.0,0.0,0.0,0.0,0.0,0.0,0.0,0.0,0.0,0.0,0.0,0.0,0.0,0.0
4.933463,-1.48358285427,0.88875246048,2.01579475403,-0.81428027153,2.00787973404,-1.15531051159,-2.88240909576,0.0174117647059,0.0,0.0,0.0,0.0,0.0,0.0,0.0,0.0,0.0,0.0,0.0,0.0,0.0,0.0,0.0
4.966807,-1.48358285427,0.88875246048,2.01579475403,-0.81428027153,2.00787973404,-1.15531051159,-2.88240909576,0.0174117647059,0.0,0.0,0.0,0.0,0.0,0.0,0.0,0.0,0.0,0.0,0.0,0.0,0.0,0.0,0.0
5.000116,-1.48358285427,0.88875246048,2.01579594612,-0.81428027153,2.00787973404,-1.15531051159,-2.88240909576,0.0174117647059,0.0,0.0,0.0,0.0,0.0,0.0,0.0,0.0,0.0,0.0,0.0,0.0,0.0,0.0,0.0
5.033476,-1.48358285427,0.88875246048,2.01579475403,-0.81428027153,2.00787973404,-1.15531051159,-2.88240909576,0.0174117647059,0.0,0.0,0.0,0.0,0.0,0.0,0.0,0.0,0.0,0.0,0.0,0.0,0.0,0.0,0.0
5.066815,-1.48358285427,0.88875246048,2.01579475403,-0.81428027153,2.00787973404,-1.15531051159,-2.88240909576,0.0174117647059,0.0,0.0,0.0,0.0,0.0,0.0,0.0,0.0,0.0,0.0,0.0,0.0,0.0,0.0,0.0
5.100125,-1.48358285427,0.88875246048,2.01579475403,-0.81428027153,2.00787973404,-1.15531051159,-2.88240909576,0.0174117647059,0.0,0.0,0.0,0.0,0.0,0.0,0.0,0.0,0.0,0.0,0.0,0.0,0.0,0.0,0.0
5.133547,-1.48358285427,0.88875246048,2.01579475403,-0.81428027153,2.00787973404,-1.15531051159,-2.88240909576,0.0174117647059,0.0,0.0,0.0,0.0,0.0,0.0,0.0,0.0,0.0,0.0,0.0,0.0,0.0,0.0,0.0
5.166796,-1.48358285427,0.88875246048,2.01579475403,-0.81428027153,2.00787973404,-1.15531051159,-2.88240909576,0.0174117647059,0.0,0.0,0.0,0.0,0.0,0.0,0.0,0.0,0.0,0.0,0.0,0.0,0.0,0.0,0.0
5.200123,-1.48358285427,0.88875246048,2.01579475403,-0.81428027153,2.00787973404,-1.15531051159,-2.88240909576,0.0174117647059,0.0,0.0,0.0,0.0,0.0,0.0,0.0,0.0,0.0,0.0,0.0,0.0,0.0,0.0,0.0
5.233464,-1.48358285427,0.88875246048,2.01579475403,-0.81428027153,2.00787973404,-1.15531051159,-2.88240909576,0.0174117647059,0.0,0.0,0.0,0.0,0.0,0.0,0.0,0.0,0.0,0.0,0.0,0.0,0.0,0.0,0.0
5.266800,-1.48358285427,0.88875246048,2.01579475403,-0.81428027153,2.00787973404,-1.15531051159,-2.88240909576,0.0174117647059,0.0,0.0,0.0,0.0,0.0,0.0,0.0,0.0,0.0,0.0,0.0,0.0,0.0,0.0,0.0
5.300171,-1.48358285427,0.88875246048,2.01579475403,-0.81428027153,2.00787973404,-1.15531051159,-2.88240909576,0.0174117647059,0.0,0.0,0.0,0.0,0.0,0.0,0.0,0.0,0.0,0.0,0.0,0.0,0.0,0.0,0.0
5.333482,-1.48358285427,0.88875246048,2.01579475403,-0.81428027153,2.00787973404,-1.15531051159,-2.88240909576,0.0174117647059,0.0,0.0,0.0,0.0,0.0,0.0,0.0,0.0,0.0,0.0,0.0,0.0,0.0,0.0,0.0
5.366813,-1.48358285427,0.88875246048,2.01579475403,-0.81428027153,2.00787973404,-1.15531051159,-2.88240909576,0.0174117647059,0.0,0.0,0.0,0.0,0.0,0.0,0.0,0.0,0.0,0.0,0.0,0.0,0.0,0.0,0.0
5.400151,-1.48358285427,0.88875246048,2.01579475403,-0.81428027153,2.00787973404,-1.15531051159,-2.88240909576,0.0174117647059,0.0,0.0,0.0,0.0,0.0,0.0,0.0,0.0,0.0,0.0,0.0,0.0,0.0,0.0,0.0
5.433471,-1.48358285427,0.88875246048,2.01579475403,-0.81428027153,2.00787973404,-1.15531051159,-2.88240909576,0.0174117647059,0.0,0.0,0.0,0.0,0.0,0.0,0.0,0.0,0.0,0.0,0.0,0.0,0.0,0.0,0.0
5.466829,-1.48358285427,0.88875246048,2.01579475403,-0.81428027153,2.00787973404,-1.15531051159,-2.88240909576,0.0174117647059,0.0,0.0,0.0,0.0,0.0,0.0,0.0,0.0,0.0,0.0,0.0,0.0,0.0,0.0,0.0
5.500169,-1.48358285427,0.88875246048,2.01579475403,-0.81428027153,2.00787973404,-1.15531051159,-2.88240909576,0.0174117647059,0.0,0.0,0.0,0.0,0.0,0.0,0.0,0.0,0.0,0.0,0.0,0.0,0.0,0.0,0.0
5.533501,-1.48358285427,0.88875246048,2.01579475403,-0.81428027153,2.00787973404,-1.15531051159,-2.88240909576,0.0174117647059,0.0,0.0,0.0,0.0,0.0,0.0,0.0,0.0,0.0,0.0,0.0,0.0,0.0,0.0,0.0
5.566813,-1.48358285427,0.88875246048,2.01579475403,-0.81428027153,2.00787973404,-1.15531051159,-2.88240909576,0.0174117647059,0.0,0.0,0.0,0.0,0.0,0.0,0.0,0.0,0.0,0.0,0.0,0.0,0.0,0.0,0.0
5.600131,-1.48358285427,0.88875246048,2.01579475403,-0.81428027153,2.00787973404,-1.15531051159,-2.88240909576,0.0174117647059,0.0,0.0,0.0,0.0,0.0,0.0,0.0,0.0,0.0,0.0,0.0,0.0,0.0,0.0,0.0
5.633497,-1.48358285427,0.88875246048,2.01579475403,-0.81428027153,2.00787973404,-1.15531051159,-2.88240909576,0.0174117647059,0.0,0.0,0.0,0.0,0.0,0.0,0.0,0.0,0.0,0.0,0.0,0.0,0.0,0.0,0.0
5.666819,-1.48358285427,0.88875246048,2.01579475403,-0.81428027153,2.00787973404,-1.15531051159,-2.88240909576,0.0174117647059,0.0,0.0,0.0,0.0,0.0,0.0,0.0,0.0,0.0,0.0,0.0,0.0,0.0,0.0,0.0
5.700141,-1.48358285427,0.88875246048,2.01579475403,-0.81428027153,2.00787973404,-1.15531051159,-2.88240909576,0.0174117647059,0.0,0.0,0.0,0.0,0.0,0.0,0.0,0.0,0.0,0.0,0.0,0.0,0.0,0.0,0.0
5.733546,-1.48358285427,0.88875246048,2.01579475403,-0.81428027153,2.00787973404,-1.15531051159,-2.88240909576,0.0174117647059,0.0,0.0,0.0,0.0,0.0,0.0,0.0,0.0,0.0,0.0,0.0,0.0,0.0,0.0,0.0
5.766828,-1.48358285427,0.88875246048,2.01579475403,-0.81428027153,2.00787973404,-1.15531051159,-2.88240909576,0.0174117647059,0.0,0.0,0.0,0.0,0.0,0.0,0.0,0.0,0.0,0.0,0.0,0.0,0.0,0.0,0.0
5.800181,-1.48358285427,0.88875246048,2.01579475403,-0.81428027153,2.00787973404,-1.15531051159,-2.88240909576,0.0174117647059,0.0,0.0,0.0,0.0,0.0,0.0,0.0,0.0,0.0,0.0,0.0,0.0,0.0,0.0,0.0
5.833520,-1.48358285427,0.88875246048,2.01579475403,-0.81428027153,2.00787973404,-1.15531051159,-2.88240909576,0.0174117647059,0.0,0.0,0.0,0.0,0.0,0.0,0.0,0.0,0.0,0.0,0.0,0.0,0.0,0.0,0.0
5.866923,-1.48358285427,0.88875246048,2.01579475403,-0.81428027153,2.00787973404,-1.15531051159,-2.88240909576,0.0174117647059,0.0,0.0,0.0,0.0,0.0,0.0,0.0,0.0,0.0,0.0,0.0,0.0,0.0,0.0,0.0
5.900328,-1.48358285427,0.88875246048,2.01579475403,-0.81428027153,2.00787973404,-1.15531051159,-2.88240909576,0.0174117647059,0.0,0.0,0.0,0.0,0.0,0.0,0.0,0.0,0.0,0.0,0.0,0.0,0.0,0.0,0.0
5.933924,-1.48358285427,0.88875246048,2.01579475403,-0.81428027153,2.00787973404,-1.15531051159,-2.88240909576,0.0174117647059,0.0,0.0,0.0,0.0,0.0,0.0,0.0,0.0,0.0,0.0,0.0,0.0,0.0,0.0,0.0
5.966923,-1.48358285427,0.88875246048,2.01579475403,-0.81428027153,2.00787973404,-1.15531051159,-2.88240909576,0.0174117647059,0.0,0.0,0.0,0.0,0.0,0.0,0.0,0.0,0.0,0.0,0.0,0.0,0.0,0.0,0.0
6.000262,-1.48358285427,0.88875246048,2.01579475403,-0.81428027153,2.00787973404,-1.15531051159,-2.88240909576,0.0174117647059,0.0,0.0,0.0,0.0,0.0,0.0,0.0,0.0,0.0,0.0,0.0,0.0,0.0,0.0,0.0
6.033482,-1.48358285427,0.88875246048,2.01579475403,-0.81428027153,2.00787973404,-1.15531051159,-2.88240909576,0.0174117647059,0.0,0.0,0.0,0.0,0.0,0.0,0.0,0.0,0.0,0.0,0.0,0.0,0.0,0.0,0.0
6.066814,-1.48358285427,0.88875246048,2.01579475403,-0.81428027153,2.00787973404,-1.15531051159,-2.88240909576,0.0174117647059,0.0,0.0,0.0,0.0,0.0,0.0,0.0,0.0,0.0,0.0,0.0,0.0,0.0,0.0,0.0
6.100120,-1.48358285427,0.88875246048,2.01579475403,-0.81428027153,2.00787973404,-1.15531051159,-2.88240909576,0.0174117647059,0.0,0.0,0.0,0.0,0.0,0.0,0.0,0.0,0.0,0.0,0.0,0.0,0.0,0.0,0.0
6.133470,-1.48358285427,0.88875246048,2.01579475403,-0.81428027153,2.00787973404,-1.15531051159,-2.88240909576,0.0174117647059,0.0,0.0,0.0,0.0,0.0,0.0,0.0,0.0,0.0,0.0,0.0,0.0,0.0,0.0,0.0
6.166772,-1.48358285427,0.88875246048,2.01579475403,-0.81428027153,2.00787973404,-1.15531051159,-2.88240909576,0.0174117647059,0.0,0.0,0.0,0.0,0.0,0.0,0.0,0.0,0.0,0.0,0.0,0.0,0.0,0.0,0.0
6.200154,-1.48358285427,0.88875246048,2.01579475403,-0.81428027153,2.00787973404,-1.15531051159,-2.88240909576,0.0174117647059,0.0,0.0,0.0,0.0,0.0,0.0,0.0,0.0,0.0,0.0,0.0,0.0,0.0,0.0,0.0
6.233451,-1.48358285427,0.88875246048,2.01579475403,-0.81428027153,2.00787973404,-1.15531051159,-2.88240909576,0.0174117647059,0.0,0.0,0.0,0.0,0.0,0.0,0.0,0.0,0.0,0.0,0.0,0.0,0.0,0.0,0.0
6.266784,-1.48358285427,0.88875246048,2.01579475403,-0.81428027153,2.00787973404,-1.15531051159,-2.88240909576,0.0174117647059,0.0,0.0,0.0,0.0,0.0,0.0,0.0,0.0,0.0,0.0,0.0,0.0,0.0,0.0,0.0
6.300115,-1.48358285427,0.88875246048,2.01579475403,-0.81428027153,2.00787973404,-1.15531051159,-2.88240909576,0.0174117647059,0.0,0.0,0.0,0.0,0.0,0.0,0.0,0.0,0.0,0.0,0.0,0.0,0.0,0.0,0.0
6.333527,-1.48358285427,0.88875246048,2.01579475403,-0.81428027153,2.00787973404,-1.15531051159,-2.88240909576,0.0174117647059,0.0,0.0,0.0,0.0,0.0,0.0,0.0,0.0,0.0,0.0,0.0,0.0,0.0,0.0,0.0
6.366812,-1.48358285427,0.88875246048,2.01579475403,-0.81428027153,2.00787973404,-1.15531051159,-2.88240909576,0.0174117647059,0.0,0.0,0.0,0.0,0.0,0.0,0.0,0.0,0.0,0.0,0.0,0.0,0.0,0.0,0.0
6.400129,-1.48358285427,0.88875246048,2.01579475403,-0.81428027153,2.00787973404,-1.15531051159,-2.88240909576,0.0174117647059,0.0,0.0,0.0,0.0,0.0,0.0,0.0,0.0,0.0,0.0,0.0,0.0,0.0,0.0,0.0
6.433499,-1.48358285427,0.88875246048,2.01579475403,-0.81428027153,2.00787973404,-1.15531051159,-2.88240909576,0.0174117647059,0.0,0.0,0.0,0.0,0.0,0.0,0.0,0.0,0.0,0.0,0.0,0.0,0.0,0.0,0.0
6.466827,-1.48358285427,0.88875246048,2.01579475403,-0.81428027153,2.00787973404,-1.15531051159,-2.88240909576,0.0174117647059,0.0,0.0,0.0,0.0,0.0,0.0,0.0,0.0,0.0,0.0,0.0,0.0,0.0,0.0,0.0
6.500229,-1.48358285427,0.88875246048,2.01579475403,-0.81428027153,2.00787973404,-1.15531051159,-2.88240909576,0.0174117647059,0.0,0.0,0.0,0.0,0.0,0.0,0.0,0.0,0.0,0.0,0.0,0.0,0.0,0.0,0.0
6.533534,-1.48358285427,0.88875246048,2.01579475403,-0.81428027153,2.00787973404,-1.15531051159,-2.88240909576,0.0174117647059,0.0,0.0,0.0,0.0,0.0,0.0,0.0,0.0,0.0,0.0,0.0,0.0,0.0,0.0,0.0
6.566839,-1.48358285427,0.88875246048,2.01579475403,-0.81428027153,2.00787973404,-1.15531051159,-2.88240909576,0.0174117647059,0.0,0.0,0.0,0.0,0.0,0.0,0.0,0.0,0.0,0.0,0.0,0.0,0.0,0.0,0.0
6.600120,-1.48358285427,0.88875246048,2.01579475403,-0.81428027153,2.00787973404,-1.15531051159,-2.88240909576,0.0174117647059,0.0,0.0,0.0,0.0,0.0,0.0,0.0,0.0,0.0,0.0,0.0,0.0,0.0,0.0,0.0
6.633473,-1.48358285427,0.88875246048,2.01579475403,-0.81428027153,2.00787973404,-1.15531051159,-2.88240909576,0.0174117647059,0.0,0.0,0.0,0.0,0.0,0.0,0.0,0.0,0.0,0.0,0.0,0.0,0.0,0.0,0.0
6.666825,-1.48358285427,0.88875246048,2.01579475403,-0.81428027153,2.00787973404,-1.15531051159,-2.88240909576,0.0174117647059,0.0,0.0,0.0,0.0,0.0,0.0,0.0,0.0,0.0,0.0,0.0,0.0,0.0,0.0,0.0
6.700130,-1.48358285427,0.88875246048,2.01579475403,-0.81428027153,2.00787973404,-1.15531051159,-2.88240909576,0.0174117647059,0.0,0.0,0.0,0.0,0.0,0.0,0.0,0.0,0.0,0.0,0.0,0.0,0.0,0.0,0.0
6.733494,-1.48358285427,0.88875246048,2.01579475403,-0.81428027153,2.00787973404,-1.15531051159,-2.88240909576,0.0174117647059,0.0,0.0,0.0,0.0,0.0,0.0,0.0,0.0,0.0,0.0,0.0,0.0,0.0,0.0,0.0
6.766840,-1.48358285427,0.88875246048,2.01579475403,-0.81428027153,2.00787973404,-1.15531051159,-2.88240909576,0.0174117647059,0.0,0.0,0.0,0.0,0.0,0.0,0.0,0.0,0.0,0.0,0.0,0.0,0.0,0.0,0.0
6.800142,-1.48358285427,0.88875246048,2.01579475403,-0.81428027153,2.00787973404,-1.15531051159,-2.88240909576,0.0174117647059,0.0,0.0,0.0,0.0,0.0,0.0,0.0,0.0,0.0,0.0,0.0,0.0,0.0,0.0,0.0
6.833549,-1.48358285427,0.88875246048,2.01579594612,-0.81428027153,2.00787973404,-1.15531051159,-2.88240909576,0.0174117647059,0.0,0.0,0.0,0.0,0.0,0.0,0.0,0.0,0.0,0.0,0.0,0.0,0.0,0.0,0.0
6.866806,-1.48358285427,0.88875246048,2.01579475403,-0.81428027153,2.00787973404,-1.15531051159,-2.88240909576,0.0174117647059,0.0,0.0,0.0,0.0,0.0,0.0,0.0,0.0,0.0,0.0,0.0,0.0,0.0,0.0,0.0
6.900109,-1.48358285427,0.88875246048,2.01579475403,-0.81428027153,2.00787973404,-1.15531051159,-2.88240909576,0.0174117647059,0.0,0.0,0.0,0.0,0.0,0.0,0.0,0.0,0.0,0.0,0.0,0.0,0.0,0.0,0.0
6.933538,-1.48358285427,0.88875246048,2.01579475403,-0.81428027153,2.00787973404,-1.15531051159,-2.88240909576,0.0174117647059,0.0,0.0,0.0,0.0,0.0,0.0,0.0,0.0,0.0,0.0,0.0,0.0,0.0,0.0,0.0
6.966821,-1.48358285427,0.88875246048,2.01579475403,-0.81428027153,2.00787973404,-1.15531051159,-2.88240909576,0.0174117647059,0.0,0.0,0.0,0.0,0.0,0.0,0.0,0.0,0.0,0.0,0.0,0.0,0.0,0.0,0.0
7.000107,-1.48358285427,0.88875246048,2.01579475403,-0.81428027153,2.00787973404,-1.15531051159,-2.88240909576,0.0174117647059,0.0,0.0,0.0,0.0,0.0,0.0,0.0,0.0,0.0,0.0,0.0,0.0,0.0,0.0,0.0
7.033491,-1.48358285427,0.88875246048,2.01579475403,-0.81428027153,2.00787973404,-1.15531051159,-2.88240909576,0.0174117647059,0.0,0.0,0.0,0.0,0.0,0.0,0.0,0.0,0.0,0.0,0.0,0.0,0.0,0.0,0.0
7.066821,-1.48358285427,0.88875246048,2.01579475403,-0.81428027153,2.00787973404,-1.15531051159,-2.88240909576,0.0174117647059,0.0,0.0,0.0,0.0,0.0,0.0,0.0,0.0,0.0,0.0,0.0,0.0,0.0,0.0,0.0
7.100224,-1.48358285427,0.88875246048,2.01579475403,-0.81428027153,2.00787973404,-1.15531051159,-2.88240909576,0.0174117647059,0.0,0.0,0.0,0.0,0.0,0.0,0.0,0.0,0.0,0.0,0.0,0.0,0.0,0.0,0.0
7.133487,-1.48358285427,0.88875246048,2.01579475403,-0.81428027153,2.00787973404,-1.15531051159,-2.88240909576,0.0174117647059,0.0,0.0,0.0,0.0,0.0,0.0,0.0,0.0,0.0,0.0,0.0,0.0,0.0,0.0,0.0
7.166818,-1.48358285427,0.88875246048,2.01579475403,-0.81428027153,2.00787973404,-1.15531051159,-2.88240909576,0.0174117647059,0.0,0.0,0.0,0.0,0.0,0.0,0.0,0.0,0.0,0.0,0.0,0.0,0.0,0.0,0.0
7.200111,-1.48358285427,0.88875246048,2.01579475403,-0.81428027153,2.00787973404,-1.15531051159,-2.88240909576,0.0174117647059,0.0,0.0,0.0,0.0,0.0,0.0,0.0,0.0,0.0,0.0,0.0,0.0,0.0,0.0,0.0
7.233475,-1.48358285427,0.88875246048,2.01579475403,-0.81428027153,2.00787973404,-1.15531051159,-2.88240909576,0.0174117647059,0.0,0.0,0.0,0.0,0.0,0.0,0.0,0.0,0.0,0.0,0.0,0.0,0.0,0.0,0.0
7.266801,-1.48358285427,0.88875246048,2.01579475403,-0.81428027153,2.00787973404,-1.15531051159,-2.88240909576,0.0174117647059,0.0,0.0,0.0,0.0,0.0,0.0,0.0,0.0,0.0,0.0,0.0,0.0,0.0,0.0,0.0
7.300113,-1.48358285427,0.88875246048,2.01579475403,-0.81428027153,2.00787973404,-1.15531051159,-2.88240909576,0.0174117647059,0.0,0.0,0.0,0.0,0.0,0.0,0.0,0.0,0.0,0.0,0.0,0.0,0.0,0.0,0.0
7.333492,-1.48358285427,0.88875246048,2.01579475403,-0.81428027153,2.00787973404,-1.15531051159,-2.88240909576,0.0174117647059,0.0,0.0,0.0,0.0,0.0,0.0,0.0,0.0,0.0,0.0,0.0,0.0,0.0,0.0,0.0
7.366852,-1.48358285427,0.88875246048,2.01579475403,-0.81428027153,2.00787973404,-1.15531051159,-2.88240909576,0.0174117647059,0.0,0.0,0.0,0.0,0.0,0.0,0.0,0.0,0.0,0.0,0.0,0.0,0.0,0.0,0.0
7.400180,-1.48358285427,0.88875246048,2.01579475403,-0.81428027153,2.00787973404,-1.15531051159,-2.88240909576,0.0174117647059,0.0,0.0,0.0,0.0,0.0,0.0,0.0,0.0,0.0,0.0,0.0,0.0,0.0,0.0,0.0
7.433498,-1.48358285427,0.88875246048,2.01579475403,-0.81428027153,2.00787973404,-1.15531051159,-2.88240909576,0.0174117647059,0.0,0.0,0.0,0.0,0.0,0.0,0.0,0.0,0.0,0.0,0.0,0.0,0.0,0.0,0.0
7.466792,-1.48358285427,0.88875246048,2.01579475403,-0.81428027153,2.00787973404,-1.15531051159,-2.88240909576,0.0174117647059,0.0,0.0,0.0,0.0,0.0,0.0,0.0,0.0,0.0,0.0,0.0,0.0,0.0,0.0,0.0
7.500186,-1.48358285427,0.88875246048,2.01579475403,-0.81428027153,2.00787973404,-1.15531051159,-2.88240909576,0.0174117647059,0.0,0.0,0.0,0.0,0.0,0.0,0.0,0.0,0.0,0.0,0.0,0.0,0.0,0.0,0.0
7.533611,-1.48358285427,0.88875246048,2.01579475403,-0.81428027153,2.00787973404,-1.15531051159,-2.88240909576,0.0174117647059,0.0,0.0,0.0,0.0,0.0,0.0,0.0,0.0,0.0,0.0,0.0,0.0,0.0,0.0,0.0
7.566816,-1.48358285427,0.88875246048,2.01579475403,-0.81428027153,2.00787973404,-1.15531051159,-2.88240909576,0.0174117647059,0.0,0.0,0.0,0.0,0.0,0.0,0.0,0.0,0.0,0.0,0.0,0.0,0.0,0.0,0.0
7.600129,-1.48358285427,0.88875246048,2.01579475403,-0.81428027153,2.00787973404,-1.15531051159,-2.88240909576,0.0174117647059,0.0,0.0,0.0,0.0,0.0,0.0,0.0,0.0,0.0,0.0,0.0,0.0,0.0,0.0,0.0
7.633509,-1.48358285427,0.88875246048,2.01579475403,-0.81428027153,2.00787973404,-1.15531051159,-2.88240909576,0.0174117647059,0.0,0.0,0.0,0.0,0.0,0.0,0.0,0.0,0.0,0.0,0.0,0.0,0.0,0.0,0.0
7.666820,-1.48358285427,0.88875246048,2.01579475403,-0.81428027153,2.00787973404,-1.15531051159,-2.88240909576,0.0174117647059,0.0,0.0,0.0,0.0,0.0,0.0,0.0,0.0,0.0,0.0,0.0,0.0,0.0,0.0,0.0
7.700131,-1.48358285427,0.88875246048,2.01579475403,-0.81428027153,2.00787973404,-1.15531051159,-2.88240909576,0.0174117647059,0.0,0.0,0.0,0.0,0.0,0.0,0.0,0.0,0.0,0.0,0.0,0.0,0.0,0.0,0.0
7.733455,-1.48358285427,0.88875246048,2.01579475403,-0.81428027153,2.00787973404,-1.15531051159,-2.88240909576,0.0174117647059,0.0,0.0,0.0,0.0,0.0,0.0,0.0,0.0,0.0,0.0,0.0,0.0,0.0,0.0,0.0
7.766847,-1.48358285427,0.88875246048,2.01579475403,-0.81428027153,2.00787973404,-1.15531051159,-2.88240909576,0.0174117647059,0.0,0.0,0.0,0.0,0.0,0.0,0.0,0.0,0.0,0.0,0.0,0.0,0.0,0.0,0.0
7.800117,-1.48358285427,0.88875246048,2.01579475403,-0.81428027153,2.00787973404,-1.15531051159,-2.88240909576,0.0174117647059,0.0,0.0,0.0,0.0,0.0,0.0,0.0,0.0,0.0,0.0,0.0,0.0,0.0,0.0,0.0
7.833459,-1.48358285427,0.88875246048,2.01579475403,-0.81428027153,2.00787973404,-1.15531051159,-2.88240909576,0.0174117647059,0.0,0.0,0.0,0.0,0.0,0.0,0.0,0.0,0.0,0.0,0.0,0.0,0.0,0.0,0.0
7.866786,-1.48358285427,0.88875246048,2.01579475403,-0.81428027153,2.00787973404,-1.15531051159,-2.88240909576,0.0174117647059,0.0,0.0,0.0,0.0,0.0,0.0,0.0,0.0,0.0,0.0,0.0,0.0,0.0,0.0,0.0
7.900138,-1.48358285427,0.88875246048,2.01579475403,-0.81428027153,2.00787973404,-1.15531051159,-2.88240909576,0.0174117647059,0.0,0.0,0.0,0.0,0.0,0.0,0.0,0.0,0.0,0.0,0.0,0.0,0.0,0.0,0.0
7.934239,-1.48358285427,0.88875246048,2.01579475403,-0.81428027153,2.00787973404,-1.15531051159,-2.88240909576,0.0174117647059,0.0,0.0,0.0,0.0,0.0,0.0,0.0,0.0,0.0,0.0,0.0,0.0,0.0,0.0,0.0
7.966840,-1.48358285427,0.88875246048,2.01579475403,-0.81428027153,2.00787973404,-1.15531051159,-2.88240909576,0.0174117647059,0.0,0.0,0.0,0.0,0.0,0.0,0.0,0.0,0.0,0.0,0.0,0.0,0.0,0.0,0.0
8.000172,-1.48358285427,0.88875246048,2.01579475403,-0.81428027153,2.00787973404,-1.15531051159,-2.88240909576,0.0174117647059,0.0,0.0,0.0,0.0,0.0,0.0,0.0,0.0,0.0,0.0,0.0,0.0,0.0,0.0,0.0
8.033451,-1.48358285427,0.88875246048,2.01579475403,-0.81428027153,2.00787973404,-1.15531051159,-2.88240909576,0.0174117647059,0.0,0.0,0.0,0.0,0.0,0.0,0.0,0.0,0.0,0.0,0.0,0.0,0.0,0.0,0.0
8.066834,-1.48358285427,0.88875246048,2.01579475403,-0.81428027153,2.00787973404,-1.15531051159,-2.88240909576,0.0174117647059,0.0,0.0,0.0,0.0,0.0,0.0,0.0,0.0,0.0,0.0,0.0,0.0,0.0,0.0,0.0
8.100154,-1.48358285427,0.88875246048,2.01579475403,-0.81428027153,2.00787973404,-1.15531051159,-2.88240909576,0.0174117647059,0.0,0.0,0.0,0.0,0.0,0.0,0.0,0.0,0.0,0.0,0.0,0.0,0.0,0.0,0.0
8.133484,-1.48358416557,0.88875246048,2.01579594612,-0.81428027153,2.00787973404,-1.15531051159,-2.88240909576,0.0174117647059,0.0,0.0,0.0,0.0,0.0,0.0,0.0,0.0,0.0,0.0,0.0,0.0,0.0,0.0,0.0
8.166831,-1.48361968994,0.888844549656,2.01579594612,-0.814198434353,2.00792050362,-1.15530729294,-2.88239884377,0.0174117647059,0.0,0.0,0.0,0.0,0.0,0.0,0.0,0.0,0.0,0.0,0.0,0.0,0.0,0.0,0.0
8.200124,-1.48363137245,0.889037489891,2.01579594612,-0.814045131207,2.00792694092,-1.15530729294,-2.88239884377,0.0174117647059,0.0,0.0,0.0,0.0,0.0,0.0,0.0,0.0,0.0,0.0,0.0,0.0,0.0,0.0,0.0
8.233484,-1.48363518715,0.88928425312,2.01579594612,-0.813841819763,2.0079305172,-1.15530729294,-2.88239693642,0.0174117647059,0.0,0.0,0.0,0.0,0.0,0.0,0.0,0.0,0.0,0.0,0.0,0.0,0.0,0.0,0.0
8.266756,-1.48363769054,0.889707326889,2.01579594612,-0.813564479351,2.00793504715,-1.15530729294,-2.88239693642,0.0174117647059,0.0,0.0,0.0,0.0,0.0,0.0,0.0,0.0,0.0,0.0,0.0,0.0,0.0,0.0,0.0
8.300666,-1.48364162445,0.890433430672,2.01579594612,-0.813150286674,2.00794100761,-1.15530729294,-2.88239693642,0.0174117647059,0.0,0.0,0.0,0.0,0.0,0.0,0.0,0.0,0.0,0.0,0.0,0.0,0.0,0.0,0.0
8.333498,-1.48364281654,0.891084074974,2.01579594612,-0.812890768051,2.00794315338,-1.15530729294,-2.88239693642,0.0174117647059,0.0,0.0,0.0,0.0,0.0,0.0,0.0,0.0,0.0,0.0,0.0,0.0,0.0,0.0,0.0
8.366811,-1.48364281654,0.891839563847,2.01579594612,-0.812676012516,2.00794506073,-1.15530562401,-2.88239693642,0.0174117647059,0.0,0.0,0.0,0.0,0.0,0.0,0.0,0.0,0.0,0.0,0.0,0.0,0.0,0.0,0.0
8.400150,-1.48364281654,0.892972171307,2.01579475403,-0.812100768089,2.00794100761,-1.15530025959,-2.88239693642,0.0174117647059,0.0,0.0,0.0,0.0,0.0,0.0,0.0,0.0,0.0,0.0,0.0,0.0,0.0,0.0,0.0
8.433498,-1.48364424706,0.894125163555,2.01579475403,-0.81149995327,2.0079369545,-1.15529870987,-2.88239693642,0.0174117647059,0.0,0.0,0.0,0.0,0.0,0.0,0.0,0.0,0.0,0.0,0.0,0.0,0.0,0.0,0.0
8.466836,-1.48364663124,0.895642638206,2.01579332352,-0.810243308544,2.00792884827,-1.15529870987,-2.88239550591,0.0174117647059,0.0,0.0,0.0,0.0,0.0,0.0,0.0,0.0,0.0,0.0,0.0,0.0,0.0,0.0,0.0
8.500147,-1.48364913464,0.898270785809,2.01579332352,-0.807736515999,2.00792884827,-1.15529870987,-2.88239550591,0.0174117647059,0.0,0.0,0.0,0.0,0.0,0.0,0.0,0.0,0.0,0.0,0.0,0.0,0.0,0.0,0.0
8.533508,-1.48365056515,0.900676548481,2.01579332352,-0.805539190769,2.00792884827,-1.15529870987,-2.88239550591,0.0174117647059,0.0,0.0,0.0,0.0,0.0,0.0,0.0,0.0,0.0,0.0,0.0,0.0,0.0,0.0,0.0
8.566875,-1.48365187645,0.903502881527,2.01579332352,-0.803118050098,2.00792694092,-1.15529346466,-2.88239550591,0.0174117647059,0.0,0.0,0.0,0.0,0.0,0.0,0.0,0.0,0.0,0.0,0.0,0.0,0.0,0.0,0.0
8.600144,-1.48367094994,0.90771239996,2.01579213142,-0.79900187254,2.00772428513,-1.15529191494,-2.88239550591,0.0174117647059,0.0,0.0,0.0,0.0,0.0,0.0,0.0,0.0,0.0,0.0,0.0,0.0,0.0,0.0,0.0
8.633483,-1.48373746872,0.9108902812,2.01579213142,-0.795260250568,2.0068898201,-1.15524411201,-2.88239550591,0.0174117647059,0.0,0.0,0.0,0.0,0.0,0.0,0.0,0.0,0.0,0.0,0.0,0.0,0.0,0.0,0.0
8.666801,-1.48381924629,0.91385602951,2.01579213142,-0.79117333889,2.00464820862,-1.15520322323,-2.88239550591,0.0174117647059,0.0,0.0,0.0,0.0,0.0,0.0,0.0,0.0,0.0,0.0,0.0,0.0,0.0,0.0,0.0
8.700159,-1.48395979404,0.916481673717,2.01579213142,-0.786844968796,2.00044703484,-1.15507376194,-2.88239550591,0.0174117647059,0.0,0.0,0.0,0.0,0.0,0.0,0.0,0.0,0.0,0.0,0.0,0.0,0.0,0.0,0.0
8.733517,-1.48413252831,0.919106066227,2.01579213142,-0.781321406364,1.99049067497,-1.15500736237,-2.88239550591,0.0174117647059,0.0,0.0,0.0,0.0,0.0,0.0,0.0,0.0,0.0,0.0,0.0,0.0,0.0,0.0,0.0
8.766819,-1.48417079449,0.9205057621,2.01579213142,-0.777763783932,1.97930490971,-1.15500736237,-2.88239383698,0.0174117647059,0.0,0.0,0.0,0.0,0.0,0.0,0.0,0.0,0.0,0.0,0.0,0.0,0.0,0.0,0.0
8.800142,-1.48416960239,0.921476066113,2.01579213142,-0.774337947369,1.95978057384,-1.15500545502,-2.88239383698,0.0174117647059,0.0,0.0,0.0,0.0,0.0,0.0,0.0,0.0,0.0,0.0,0.0,0.0,0.0,0.0,0.0
8.833497,-1.48416435719,0.921830236912,2.01579093933,-0.773002207279,1.94234204292,-1.15500545502,-2.88239192963,0.0174117647059,0.0,0.0,0.0,0.0,0.0,0.0,0.0,0.0,0.0,0.0,0.0,0.0,0.0,0.0,0.0
8.866837,-1.48416435719,0.922024488449,2.01577663422,-0.773101866245,1.92326128483,-1.15500545502,-2.88238859177,0.0174117647059,0.0,0.0,0.0,0.0,0.0,0.0,0.0,0.0,0.0,0.0,0.0,0.0,0.0,0.0,0.0
8.900151,-1.48380541801,0.922184228897,2.01571917534,-0.774098932743,1.89598321915,-1.15500545502,-2.88233542442,0.0174117647059,0.0,0.0,0.0,0.0,0.0,0.0,0.0,0.0,0.0,0.0,0.0,0.0,0.0,0.0,0.0
8.933495,-1.48331058025,0.922406733036,2.01560020447,-0.775248110294,1.87606394291,-1.15500545502,-2.8818860054,0.0174117647059,0.0,0.0,0.0,0.0,0.0,0.0,0.0,0.0,0.0,0.0,0.0,0.0,0.0,0.0,0.0
8.966805,-1.48263823986,0.922939836979,2.01544952393,-0.776687562466,1.85868287086,-1.15500545502,-2.88096880913,0.0174117647059,0.0,0.0,0.0,0.0,0.0,0.0,0.0,0.0,0.0,0.0,0.0,0.0,0.0,0.0,0.0
9.000128,-1.48140573502,0.924252569675,2.01494455338,-0.778933525085,1.83787989616,-1.15500545502,-2.8808529377,0.0174117647059,0.0,0.0,0.0,0.0,0.0,0.0,0.0,0.0,0.0,0.0,0.0,0.0,0.0,0.0,0.0
9.033476,-1.48040759563,0.925541162491,2.01428890228,-0.780852258205,1.82324588299,-1.15500545502,-2.88085651398,0.0174117647059,0.0,0.0,0.0,0.0,0.0,0.0,0.0,0.0,0.0,0.0,0.0,0.0,0.0,0.0,0.0
9.066832,-1.47924411297,0.927075147629,2.01335048676,-0.782938539982,1.80877327919,-1.15500545502,-2.88085651398,0.0174117647059,0.0,0.0,0.0,0.0,0.0,0.0,0.0,0.0,0.0,0.0,0.0,0.0,0.0,0.0,0.0
9.100140,-1.477845788,0.929488539696,2.01161694527,-0.785589694977,1.78915679455,-1.15500545502,-2.88085651398,0.0174117647059,0.0,0.0,0.0,0.0,0.0,0.0,0.0,0.0,0.0,0.0,0.0,0.0,0.0,0.0,0.0
9.133489,-1.47665810585,0.931677043438,2.01018667221,-0.787397265434,1.77504622936,-1.15500545502,-2.88085651398,0.0174117647059,0.0,0.0,0.0,0.0,0.0,0.0,0.0,0.0,0.0,0.0,0.0,0.0,0.0,0.0,0.0
9.166851,-1.47569167614,0.934067547321,2.00860548019,-0.789176642895,1.76015007496,-1.15500545502,-2.88085651398,0.0174117647059,0.0,0.0,0.0,0.0,0.0,0.0,0.0,0.0,0.0,0.0,0.0,0.0,0.0,0.0,0.0
9.200151,-1.47439432144,0.937727332115,2.0062084198,-0.791487872601,1.74031090736,-1.15500545502,-2.88085651398,0.0174117647059,0.0,0.0,0.0,0.0,0.0,0.0,0.0,0.0,0.0,0.0,0.0,0.0,0.0,0.0,0.0
9.233512,-1.47348415852,0.94086432457,2.00403404236,-0.793129265308,1.72539436817,-1.15500545502,-2.88085651398,0.0174117647059,0.0,0.0,0.0,0.0,0.0,0.0,0.0,0.0,0.0,0.0,0.0,0.0,0.0,0.0,0.0
9.266867,-1.47255218029,0.944222509861,2.0018928051,-0.79478341341,1.7108707428,-1.15500545502,-2.88085651398,0.0174117647059,0.0,0.0,0.0,0.0,0.0,0.0,0.0,0.0,0.0,0.0,0.0,0.0,0.0,0.0,0.0
9.300108,-1.47144258022,0.948958575726,1.9989168644,-0.797198116779,1.69094920158,-1.15500378609,-2.88085651398,0.0174117647059,0.0,0.0,0.0,0.0,0.0,0.0,0.0,0.0,0.0,0.0,0.0,0.0,0.0,0.0,0.0
9.333498,-1.4705132246,0.952782034874,1.99684607983,-0.798940420151,1.6760879755,-1.15500378609,-2.8808529377,0.0174117647059,0.0,0.0,0.0,0.0,0.0,0.0,0.0,0.0,0.0,0.0,0.0,0.0,0.0,0.0,0.0
9.366792,-1.4695148468,0.956829309464,1.9949157238,-0.800372242928,1.66133332253,-1.15495109558,-2.88085103035,0.0174117647059,0.0,0.0,0.0,0.0,0.0,0.0,0.0,0.0,0.0,0.0,0.0,0.0,0.0,0.0,0.0
9.400124,-1.46781849861,0.962430715561,1.9929343462,-0.801840901375,1.64054059982,-1.15472090244,-2.88085103035,0.0174117647059,0.0,0.0,0.0,0.0,0.0,0.0,0.0,0.0,0.0,0.0,0.0,0.0,0.0,0.0,0.0
9.441868,-1.46577835083,0.967818915844,1.99210989475,-0.802850842476,1.61953139305,-1.15469360352,-2.88024449348,0.0174117647059,0.0,0.0,0.0,0.0,0.0,0.0,0.0,0.0,0.0,0.0,0.0,0.0,0.0,0.0,0.0
9.466822,-1.46463549137,0.970592856407,1.99204993248,-0.802930116653,1.60887944698,-1.15469014645,-2.87905287743,0.0174117647059,0.0,0.0,0.0,0.0,0.0,0.0,0.0,0.0,0.0,0.0,0.0,0.0,0.0,0.0,0.0
9.500142,-1.46245610714,0.975727915764,1.99205756187,-0.802923679352,1.58725833893,-1.15466821194,-2.87478685379,0.0174117647059,0.0,0.0,0.0,0.0,0.0,0.0,0.0,0.0,0.0,0.0,0.0,0.0,0.0,0.0,0.0
9.533486,-1.46098983288,0.979317367077,1.99205756187,-0.802858531475,1.5708386898,-1.15463066101,-2.86859965324,0.0174117647059,0.0,0.0,0.0,0.0,0.0,0.0,0.0,0.0,0.0,0.0,0.0,0.0,0.0,0.0,0.0
9.566854,-1.45978057384,0.98263078928,1.99205756187,-0.802871286869,1.55460083485,-1.15463066101,-2.8573641777,0.0174117647059,0.0,0.0,0.0,0.0,0.0,0.0,0.0,0.0,0.0,0.0,0.0,0.0,0.0,0.0,0.0
9.600195,-1.45834755898,0.986537337303,1.99205756187,-0.802871286869,1.53363442421,-1.15455901623,-2.83851313591,0.0174117647059,0.0,0.0,0.0,0.0,0.0,0.0,0.0,0.0,0.0,0.0,0.0,0.0,0.0,0.0,0.0
9.633563,-1.4572634697,0.989239633083,1.99205756187,-0.802875161171,1.51848292351,-1.15455901623,-2.82378721237,0.0174117647059,0.0,0.0,0.0,0.0,0.0,0.0,0.0,0.0,0.0,0.0,0.0,0.0,0.0,0.0,0.0
9.666816,-1.4562921524,0.991729736328,1.99205756187,-0.802891790867,1.50310027599,-1.15455901623,-2.8093214035,0.0174117647059,0.0,0.0,0.0,0.0,0.0,0.0,0.0,0.0,0.0,0.0,0.0,0.0,0.0,0.0,0.0
9.700117,-1.45484864712,0.994732558727,1.99205756187,-0.802919864655,1.48455524445,-1.15455901623,-2.79207110405,0.0174117647059,0.0,0.0,0.0,0.0,0.0,0.0,0.0,0.0,0.0,0.0,0.0,0.0,0.0,0.0,0.0
9.733471,-1.4539513588,0.997410655022,1.99200248718,-0.803190946579,1.47290313244,-1.15455901623,-2.781883955,0.0174117647059,0.0,0.0,0.0,0.0,0.0,0.0,0.0,0.0,0.0,0.0,0.0,0.0,0.0,0.0,0.0
9.766814,-1.45332372189,1.00150251389,1.99143755436,-0.805202960968,1.46306526661,-1.15455901623,-2.77458405495,0.0174117647059,0.0,0.0,0.0,0.0,0.0,0.0,0.0,0.0,0.0,0.0,0.0,0.0,0.0,0.0,0.0
9.800110,-1.45300161839,1.00813949108,1.9906027317,-0.810706079006,1.45193874836,-1.15455901623,-2.76901721954,0.0174117647059,0.0,0.0,0.0,0.0,0.0,0.0,0.0,0.0,0.0,0.0,0.0,0.0,0.0,0.0,0.0
9.833563,-1.452932477,1.01383566856,1.99033951759,-0.816418945789,1.44464731216,-1.15455901623,-2.76782560349,0.0175294117647,0.0,0.0,0.0,0.0,0.0,0.0,0.0,0.0,0.0,0.0,0.0,0.0,0.0,0.0,0.0
9.866822,-1.45285332203,1.02008032799,1.99036765099,-0.822673678398,1.438814044,-1.1545573473,-2.76783418655,0.0174117647059,0.0,0.0,0.0,0.0,0.0,0.0,0.0,0.0,0.0,0.0,0.0,0.0,0.0,0.0,0.0
9.900093,-1.45283150673,1.02776420116,1.99038946629,-0.832165181637,1.43369674683,-1.15455901623,-2.76783084869,0.0174117647059,0.0,0.0,0.0,0.0,0.0,0.0,0.0,0.0,0.0,0.0,0.0,0.0,0.0,0.0,0.0
9.933502,-1.45292103291,1.03347444534,1.99039053917,-0.839893877506,1.43077814579,-1.1545573473,-2.76779150963,0.0174117647059,0.0,0.0,0.0,0.0,0.0,0.0,0.0,0.0,0.0,0.0,0.0,0.0,0.0,0.0,0.0
9.966821,-1.45305395126,1.03961288929,1.99038946629,-0.847795248032,1.42753207684,-1.1545573473,-2.76708269119,0.0174117647059,0.0,0.0,0.0,0.0,0.0,0.0,0.0,0.0,0.0,0.0,0.0,0.0,0.0,0.0,0.0
10.000140,-1.45336091518,1.04748606682,1.99039185047,-0.859045624733,1.42189741135,-1.1545573473,-2.76473760605,0.0174117647059,0.0,0.0,0.0,0.0,0.0,0.0,0.0,0.0,0.0,0.0,0.0,0.0,0.0,0.0,0.0
10.033487,-1.45358192921,1.05303144455,1.99039435387,-0.867826461792,1.41603946686,-1.1545573473,-2.76299214363,0.0174117647059,0.0,0.0,0.0,0.0,0.0,0.0,0.0,0.0,0.0,0.0,0.0,0.0,0.0,0.0,0.0
10.066849,-1.45374691486,1.05831098557,1.99039828777,-0.876476764679,1.40875613689,-1.15455400944,-2.76070976257,0.0174117647059,0.0,0.0,0.0,0.0,0.0,0.0,0.0,0.0,0.0,0.0,0.0,0.0,0.0,0.0,0.0
10.100128,-1.4542927742,1.06467819214,1.99040734768,-0.887940704823,1.39712870121,-1.15455400944,-2.75545501709,0.0174117647059,0.0,0.0,0.0,0.0,0.0,0.0,0.0,0.0,0.0,0.0,0.0,0.0,0.0,0.0,0.0
10.133501,-1.45514786243,1.06914722919,1.99040973186,-0.896860897541,1.38643991947,-1.1545522213,-2.75060772896,0.0174117647059,0.0,0.0,0.0,0.0,0.0,0.0,0.0,0.0,0.0,0.0,0.0,0.0,0.0,0.0,0.0
10.166809,-1.45649921894,1.07358551025,1.99041235447,-0.905901074409,1.37384474277,-1.1545522213,-2.742882967,0.0174117647059,0.0,0.0,0.0,0.0,0.0,0.0,0.0,0.0,0.0,0.0,0.0,0.0,0.0,0.0,0.0
10.200190,-1.45873248577,1.07965242863,1.99041342735,-0.918867051601,1.3550709486,-1.15454542637,-2.72690057755,0.0174117647059,0.0,0.0,0.0,0.0,0.0,0.0,0.0,0.0,0.0,0.0,0.0,0.0,0.0,0.0,0.0
10.233485,-1.46078538895,1.0837239027,1.99043524265,-0.929280221462,1.33838546276,-1.15454351902,-2.70996403694,0.0174117647059,0.0,0.0,0.0,0.0,0.0,0.0,0.0,0.0,0.0,0.0,0.0,0.0,0.0,0.0,0.0
10.266807,-1.46325492859,1.08734917641,1.99044799805,-0.940005302429,1.31974864006,-1.15452158451,-2.68967986107,0.0174117647059,0.0,0.0,0.0,0.0,0.0,0.0,0.0,0.0,0.0,0.0,0.0,0.0,0.0,0.0,0.0
10.301272,-1.4658716917,1.09079301357,1.99046230316,-0.951079308987,1.29973328114,-1.15447032452,-2.66823649406,0.0174117647059,0.0,0.0,0.0,0.0,0.0,0.0,0.0,0.0,0.0,0.0,0.0,0.0,0.0,0.0,0.0
10.333493,-1.46976554394,1.09489750862,1.99054408073,-0.966072797775,1.27198863029,-1.15446352959,-2.63852334023,0.0174117647059,0.0,0.0,0.0,0.0,0.0,0.0,0.0,0.0,0.0,0.0,0.0,0.0,0.0,0.0,0.0
10.370998,-1.47383165359,1.09870839119,1.99058496952,-0.981323063374,1.24618494511,-1.15446186066,-2.60519313812,0.0175294117647,0.0,0.0,0.0,0.0,0.0,0.0,0.0,0.0,0.0,0.0,0.0,0.0,0.0,0.0,0.0
10.400124,-1.47717952728,1.10157310963,1.99060022831,-0.99304908514,1.22916388512,-1.15446352959,-2.57888698578,0.0174117647059,0.0,0.0,0.0,0.0,0.0,0.0,0.0,0.0,0.0,0.0,0.0,0.0,0.0,0.0,0.0
10.433539,-1.48092007637,1.10465371609,1.99061441422,-1.00496685505,1.2139531374,-1.15446352959,-2.554022789,0.0174117647059,0.0,0.0,0.0,0.0,0.0,0.0,0.0,0.0,0.0,0.0,0.0,0.0,0.0,0.0,0.0
10.466791,-1.48465907574,1.10807335377,1.99061822891,-1.0174138546,1.201171875,-1.15446352959,-2.53001093864,0.0174117647059,0.0,0.0,0.0,0.0,0.0,0.0,0.0,0.0,0.0,0.0,0.0,0.0,0.0,0.0,0.0
10.500166,-1.48940932751,1.11326062679,1.99061822891,-1.03452157974,1.18680346012,-1.15446352959,-2.50007128716,0.0174117647059,0.0,0.0,0.0,0.0,0.0,0.0,0.0,0.0,0.0,0.0,0.0,0.0,0.0,0.0,0.0
10.533507,-1.49281597137,1.11757874489,1.99061942101,-1.04740178585,1.17803537846,-1.15446352959,-2.48013114929,0.0174117647059,0.0,0.0,0.0,0.0,0.0,0.0,0.0,0.0,0.0,0.0,0.0,0.0,0.0,0.0,0.0
10.566829,-1.49616253376,1.12180733681,1.9906219244,-1.05991280079,1.17062735558,-1.15446507931,-2.46277022362,0.0174117647059,0.0,0.0,0.0,0.0,0.0,0.0,0.0,0.0,0.0,0.0,0.0,0.0,0.0,0.0,0.0
10.600142,-1.50084269047,1.12754189968,1.9906232357,-1.07572555542,1.16212892532,-1.15447032452,-2.44362068176,0.0174117647059,0.0,0.0,0.0,0.0,0.0,0.0,0.0,0.0,0.0,0.0,0.0,0.0,0.0,0.0,0.0
10.633511,-1.50446414948,1.13196504116,1.9906232357,-1.08702337742,1.15651869774,-1.15447032452,-2.43209886551,0.0174117647059,0.0,0.0,0.0,0.0,0.0,0.0,0.0,0.0,0.0,0.0,0.0,0.0,0.0,0.0,0.0
10.666808,-1.50785291195,1.13640701771,1.99062430859,-1.09780335426,1.1514954567,-1.15447211266,-2.42289686203,0.0174117647059,0.0,0.0,0.0,0.0,0.0,0.0,0.0,0.0,0.0,0.0,0.0,0.0,0.0,0.0,0.0
10.700129,-1.51206624508,1.14230394363,1.99062430859,-1.11135232449,1.14579308033,-1.15447211266,-2.41344237328,0.0174117647059,0.0,0.0,0.0,0.0,0.0,0.0,0.0,0.0,0.0,0.0,0.0,0.0,0.0,0.0,0.0
10.733463,-1.5153093338,1.14692389965,1.99062716961,-1.12067878246,1.14196026325,-1.15447211266,-2.40745663643,0.0174117647059,0.0,0.0,0.0,0.0,0.0,0.0,0.0,0.0,0.0,0.0,0.0,0.0,0.0,0.0,0.0
10.766834,-1.51871490479,1.1517137289,1.99062716961,-1.12972295284,1.13832986355,-1.15447711945,-2.40235853195,0.0174117647059,0.0,0.0,0.0,0.0,0.0,0.0,0.0,0.0,0.0,0.0,0.0,0.0,0.0,0.0,0.0
10.800178,-1.52256631851,1.15672588348,1.99062848091,-1.13842701912,1.13391602039,-1.15447711945,-2.39720225334,0.0174117647059,0.0,0.0,0.0,0.0,0.0,0.0,0.0,0.0,0.0,0.0,0.0,0.0,0.0,0.0,0.0
10.833493,-1.52755689621,1.16347670555,1.9906321764,-1.14990127087,1.12725043297,-1.15447711945,-2.38621258736,0.0174117647059,0.0,0.0,0.0,0.0,0.0,0.0,0.0,0.0,0.0,0.0,0.0,0.0,0.0,0.0,0.0
10.866829,-1.5299166441,1.1669563055,1.9906321764,-1.15563559532,1.12318015099,-1.15447711945,-2.37907266617,0.0174117647059,0.0,0.0,0.0,0.0,0.0,0.0,0.0,0.0,0.0,0.0,0.0,0.0,0.0,0.0,0.0
10.900126,-1.53579676151,1.17587256432,1.99063742161,-1.17011535168,1.10923326015,-1.15447211266,-2.36014509201,0.0174117647059,0.0,0.0,0.0,0.0,0.0,0.0,0.0,0.0,0.0,0.0,0.0,0.0,0.0,0.0,0.0
10.933540,-1.53942084312,1.1812722683,1.990645051,-1.17826199532,1.09765899181,-1.15447211266,-2.34538626671,0.0174117647059,0.0,0.0,0.0,0.0,0.0,0.0,0.0,0.0,0.0,0.0,0.0,0.0,0.0,0.0,0.0
10.966843,-1.54291820526,1.18663847446,1.9906475544,-1.18654036522,1.08313119411,-1.15447211266,-2.33154320717,0.0174117647059,0.0,0.0,0.0,0.0,0.0,0.0,0.0,0.0,0.0,0.0,0.0,0.0,0.0,0.0,0.0
11.000655,-1.54704999924,1.1938354969,1.99065649509,-1.19708263874,1.05978608131,-1.15447211266,-2.31400084496,0.0174117647059,0.0,0.0,0.0,0.0,0.0,0.0,0.0,0.0,0.0,0.0,0.0,0.0,0.0,0.0,0.0
11.033474,-1.54968333244,1.19944477081,1.99067175388,-1.20521271229,1.04151725769,-1.15447211266,-2.29941630363,0.0174117647059,0.0,0.0,0.0,0.0,0.0,0.0,0.0,0.0,0.0,0.0,0.0,0.0,0.0,0.0,0.0
11.066816,-1.55219519138,1.20520997047,1.99067568779,-1.21343755722,1.02240371704,-1.15447211266,-2.28601121902,0.0174117647059,0.0,0.0,0.0,0.0,0.0,0.0,0.0,0.0,0.0,0.0,0.0,0.0,0.0,0.0,0.0
11.100125,-1.55523252487,1.21376562119,1.99069094658,-1.224411726,0.997678339481,-1.15447211266,-2.26452350616,0.0174117647059,0.0,0.0,0.0,0.0,0.0,0.0,0.0,0.0,0.0,0.0,0.0,0.0,0.0,0.0,0.0
11.133492,-1.55718827248,1.22061753273,1.99070489407,-1.23269283772,0.979245960712,-1.15447211266,-2.24585843086,0.0174117647059,0.0,0.0,0.0,0.0,0.0,0.0,0.0,0.0,0.0,0.0,0.0,0.0,0.0,0.0,0.0
11.166809,-1.5588092804,1.22746145725,1.99071276188,-1.24088418484,0.960022091866,-1.15447211266,-2.22825670242,0.0174117647059,0.0,0.0,0.0,0.0,0.0,0.0,0.0,0.0,0.0,0.0,0.0,0.0,0.0,0.0,0.0
11.200122,-1.56035089493,1.23702204227,1.99075233936,-1.25136005878,0.934036493301,-1.1544687748,-2.20454645157,0.0174117647059,0.0,0.0,0.0,0.0,0.0,0.0,0.0,0.0,0.0,0.0,0.0,0.0,0.0,0.0,0.0
11.233549,-1.56112289429,1.24424207211,1.99079585075,-1.25882792473,0.914550840855,-1.15447032452,-2.18784832954,0.0174117647059,0.0,0.0,0.0,0.0,0.0,0.0,0.0,0.0,0.0,0.0,0.0,0.0,0.0,0.0,0.0
11.266807,-1.56162917614,1.25168943405,1.99086236954,-1.26607978344,0.895400643349,-1.15447032452,-2.17029261589,0.0174117647059,0.0,0.0,0.0,0.0,0.0,0.0,0.0,0.0,0.0,0.0,0.0,0.0,0.0,0.0,0.0
11.300166,-1.56206882,1.26165020466,1.99102842808,-1.27513802052,0.870259702206,-1.15447032452,-2.14871454239,0.0174117647059,0.0,0.0,0.0,0.0,0.0,0.0,0.0,0.0,0.0,0.0,0.0,0.0,0.0,0.0,0.0
11.333502,-1.56216216087,1.26931750774,1.99106299877,-1.28137362003,0.852485954762,-1.15447032452,-2.13344478607,0.0174117647059,0.0,0.0,0.0,0.0,0.0,0.0,0.0,0.0,0.0,0.0,0.0,0.0,0.0,0.0,0.0
11.366799,-1.56217241287,1.2770781517,1.99118328094,-1.28716564178,0.835706293583,-1.15447211266,-2.11766171455,0.0174117647059,0.0,0.0,0.0,0.0,0.0,0.0,0.0,0.0,0.0,0.0,0.0,0.0,0.0,0.0,0.0
11.400122,-1.56218004227,1.28750550747,1.99135565758,-1.29439067841,0.814819633961,-1.15447378159,-2.09776926041,0.0174117647059,0.0,0.0,0.0,0.0,0.0,0.0,0.0,0.0,0.0,0.0,0.0,0.0,0.0,0.0,0.0
11.433455,-1.56217885017,1.29559338093,1.99137735367,-1.29952311516,0.800502479076,-1.15447378159,-2.08245372772,0.0174117647059,0.0,0.0,0.0,0.0,0.0,0.0,0.0,0.0,0.0,0.0,0.0,0.0,0.0,0.0,0.0
11.466790,-1.56217885017,1.30351138115,1.99137997627,-1.30480372906,0.786398053169,-1.15447378159,-2.06678628922,0.0174117647059,0.0,0.0,0.0,0.0,0.0,0.0,0.0,0.0,0.0,0.0,0.0,0.0,0.0,0.0,0.0
11.500123,-1.56217885017,1.31434118748,1.99137878418,-1.31190478802,0.767450273037,-1.15447711945,-2.04889678955,0.0174117647059,0.0,0.0,0.0,0.0,0.0,0.0,0.0,0.0,0.0,0.0,0.0,0.0,0.0,0.0,0.0
11.533474,-1.56218004227,1.32242274284,1.99137878418,-1.31724178791,0.753362178802,-1.15449762344,-2.03587841988,0.0174117647059,0.0,0.0,0.0,0.0,0.0,0.0,0.0,0.0,0.0,0.0,0.0,0.0,0.0,0.0,0.0
11.566822,-1.56224143505,1.33069348335,1.99137735367,-1.32296228409,0.739560484886,-1.15454542637,-2.02408385277,0.0174117647059,0.0,0.0,0.0,0.0,0.0,0.0,0.0,0.0,0.0,0.0,0.0,0.0,0.0,0.0,0.0
11.603528,-1.56231057644,1.34163570404,1.99137735367,-1.33045578003,0.720449149609,-1.15461015701,-2.01019310951,0.0174117647059,0.0,0.0,0.0,0.0,0.0,0.0,0.0,0.0,0.0,0.0,0.0,0.0,0.0,0.0,0.0
11.633465,-1.56230401993,1.34996402264,1.99137616158,-1.3361890316,0.705847740173,-1.15468859673,-2.00125145912,0.0174117647059,0.0,0.0,0.0,0.0,0.0,0.0,0.0,0.0,0.0,0.0,0.0,0.0,0.0,0.0,0.0
11.666826,-1.56230401993,1.35812985897,1.99137735367,-1.34204638004,0.690327882767,-1.15468859673,-1.99428355694,0.0174117647059,0.0,0.0,0.0,0.0,0.0,0.0,0.0,0.0,0.0,0.0,0.0,0.0,0.0,0.0,0.0
11.700136,-1.56229782104,1.36886262894,1.99137616158,-1.35011255741,0.669212162495,-1.15478730202,-1.98465871811,0.0175294117647,0.0,0.0,0.0,0.0,0.0,0.0,0.0,0.0,0.0,0.0,0.0,0.0,0.0,0.0,0.0
11.733462,-1.56229782104,1.37687516212,1.99137616158,-1.35646820068,0.652755558491,-1.1550141573,-1.97778308392,0.0174117647059,0.0,0.0,0.0,0.0,0.0,0.0,0.0,0.0,0.0,0.0,0.0,0.0,0.0,0.0,0.0
11.766817,-1.56229627132,1.3849093914,1.99137127399,-1.36327397823,0.636288762093,-1.15568065643,-1.97046434879,0.0174117647059,0.0,0.0,0.0,0.0,0.0,0.0,0.0,0.0,0.0,0.0,0.0,0.0,0.0,0.0,0.0
11.800125,-1.56229019165,1.39572525024,1.99135947227,-1.37292289734,0.61299687624,-1.15879786015,-1.95828104019,0.0174117647059,0.0,0.0,0.0,0.0,0.0,0.0,0.0,0.0,0.0,0.0,0.0,0.0,0.0,0.0,0.0
11.833554,-1.56229019165,1.40390384197,1.99135196209,-1.3806759119,0.593674838543,-1.1623005867,-1.9508907795,0.0174117647059,0.0,0.0,0.0,0.0,0.0,0.0,0.0,0.0,0.0,0.0,0.0,0.0,0.0,0.0,0.0
11.866821,-1.56216216087,1.41236770153,1.99132621288,-1.38897323608,0.572683811188,-1.16791129112,-1.94222712517,0.0174117647059,0.0,0.0,0.0,0.0,0.0,0.0,0.0,0.0,0.0,0.0,0.0,0.0,0.0,0.0,0.0
11.900129,-1.56195127964,1.42345321178,1.99122536182,-1.40138840675,0.540394663811,-1.17948949337,-1.93386185169,0.0174117647059,0.0,0.0,0.0,0.0,0.0,0.0,0.0,0.0,0.0,0.0,0.0,0.0,0.0,0.0,0.0
11.933452,-1.5617159605,1.43226349354,1.99118173122,-1.41101527214,0.514529705048,-1.1902564764,-1.92798841,0.0174117647059,0.0,0.0,0.0,0.0,0.0,0.0,0.0,0.0,0.0,0.0,0.0,0.0,0.0,0.0,0.0
11.966966,-1.56128656864,1.44112849236,1.99117684364,-1.4211179018,0.488067507744,-1.20238506794,-1.92237734795,0.0174117647059,0.0,0.0,0.0,0.0,0.0,0.0,0.0,0.0,0.0,0.0,0.0,0.0,0.0,0.0,0.0
12.000156,-1.5607585907,1.45362770557,1.99117171764,-1.43443930149,0.453178673983,-1.2196816206,-1.91794240475,0.0174117647059,0.0,0.0,0.0,0.0,0.0,0.0,0.0,0.0,0.0,0.0,0.0,0.0,0.0,0.0,0.0
12.033469,-1.56025362015,1.46321773529,1.99117422104,-1.44461739063,0.428620666265,-1.23308682442,-1.91498887539,0.0174117647059,0.0,0.0,0.0,0.0,0.0,0.0,0.0,0.0,0.0,0.0,0.0,0.0,0.0,0.0,0.0
12.066805,-1.55980741978,1.47321677208,1.99117934704,-1.45430934429,0.405903398991,-1.24578130245,-1.91312253475,0.0174117647059,0.0,0.0,0.0,0.0,0.0,0.0,0.0,0.0,0.0,0.0,0.0,0.0,0.0,0.0,0.0
12.100116,-1.55917096138,1.48657011986,1.99118709564,-1.46641516685,0.3795312047,-1.25900435448,-1.90767669678,0.0174117647059,0.0,0.0,0.0,0.0,0.0,0.0,0.0,0.0,0.0,0.0,0.0,0.0,0.0,0.0,0.0
12.133485,-1.55879890919,1.49651801586,1.99119973183,-1.47470366955,0.362381309271,-1.26617646217,-1.90304601192,0.0174117647059,0.0,0.0,0.0,0.0,0.0,0.0,0.0,0.0,0.0,0.0,0.0,0.0,0.0,0.0,0.0
12.166839,-1.55852019787,1.50635325909,1.99119973183,-1.48233664036,0.347520112991,-1.27053976059,-1.89937615395,0.0174117647059,0.0,0.0,0.0,0.0,0.0,0.0,0.0,0.0,0.0,0.0,0.0,0.0,0.0,0.0,0.0
12.200147,-1.5584321022,1.51932191849,1.99120092392,-1.49083089828,0.330949068069,-1.27147388458,-1.89646148682,0.0174117647059,0.0,0.0,0.0,0.0,0.0,0.0,0.0,0.0,0.0,0.0,0.0,0.0,0.0,0.0,0.0
12.233538,-1.55824029446,1.52878904343,1.99120354652,-1.49627649784,0.31997191906,-1.27146875858,-1.89599132538,0.0174117647059,0.0,0.0,0.0,0.0,0.0,0.0,0.0,0.0,0.0,0.0,0.0,0.0,0.0,0.0,0.0
12.266891,-1.55780959129,1.5378459692,1.99120354652,-1.50092065334,0.31017896533,-1.27146351337,-1.89571166039,0.0174117647059,0.0,0.0,0.0,0.0,0.0,0.0,0.0,0.0,0.0,0.0,0.0,0.0,0.0,0.0,0.0
12.300137,-1.55677914619,1.54983389378,1.99120354652,-1.50608372688,0.298739552498,-1.27146196365,-1.89502835274,0.0174117647059,0.0,0.0,0.0,0.0,0.0,0.0,0.0,0.0,0.0,0.0,0.0,0.0,0.0,0.0,0.0
12.334016,-1.55555570126,1.55845105648,1.99120354652,-1.50931787491,0.290331274271,-1.27145850658,-1.8932659626,0.0174117647059,0.0,0.0,0.0,0.0,0.0,0.0,0.0,0.0,0.0,0.0,0.0,0.0,0.0,0.0,0.0
12.366834,-1.55398499966,1.56709635258,1.99120235443,-1.51239490509,0.281755298376,-1.27144992352,-1.88991487026,0.0174117647059,0.0,0.0,0.0,0.0,0.0,0.0,0.0,0.0,0.0,0.0,0.0,0.0,0.0,0.0,0.0
12.400157,-1.55132210255,1.57818198204,1.99118828773,-1.51642537117,0.266687572002,-1.27144312859,-1.88803684711,0.0174117647059,0.0,0.0,0.0,0.0,0.0,0.0,0.0,0.0,0.0,0.0,0.0,0.0,0.0,0.0,0.0
12.437018,-1.54889190197,1.58648204803,1.99118566513,-1.51933991909,0.250750541687,-1.27143967152,-1.88804686069,0.0174117647059,0.0,0.0,0.0,0.0,0.0,0.0,0.0,0.0,0.0,0.0,0.0,0.0,0.0,0.0,0.0
12.467051,-1.54609513283,1.59486293793,1.99115502834,-1.52220451832,0.231248527765,-1.27127623558,-1.88804686069,0.0174117647059,0.0,0.0,0.0,0.0,0.0,0.0,0.0,0.0,0.0,0.0,0.0,0.0,0.0,0.0,0.0
12.500110,-1.54160940647,1.60673701763,1.99074089527,-1.52588617802,0.200127124786,-1.2703846693,-1.88794469833,0.0174117647059,0.0,0.0,0.0,0.0,0.0,0.0,0.0,0.0,0.0,0.0,0.0,0.0,0.0,0.0,0.0
12.533500,-1.53749203682,1.61604714394,1.99042630196,-1.52879059315,0.174564898014,-1.26913869381,-1.88713669777,0.0174117647059,0.0,0.0,0.0,0.0,0.0,0.0,0.0,0.0,0.0,0.0,0.0,0.0,0.0,0.0,0.0
12.566879,-1.53302431107,1.62599098682,1.9903190136,-1.53147757053,0.148716270924,-1.2686394453,-1.88488352299,0.0174117647059,0.0,0.0,0.0,0.0,0.0,0.0,0.0,0.0,0.0,0.0,0.0,0.0,0.0,0.0,0.0
12.600131,-1.52706360817,1.63973283768,1.99035215378,-1.53450465202,0.113944031298,-1.26864290237,-1.88230824471,0.0174117647059,0.0,0.0,0.0,0.0,0.0,0.0,0.0,0.0,0.0,0.0,0.0,0.0,0.0,0.0,0.0
12.633503,-1.52257537842,1.65057432652,1.99036109447,-1.536206007,0.0881649777293,-1.26864111423,-1.88202869892,0.0174117647059,0.0,0.0,0.0,0.0,0.0,0.0,0.0,0.0,0.0,0.0,0.0,0.0,0.0,0.0,0.0
12.666812,-1.51799893379,1.66146814823,1.99036490917,-1.53745877743,0.0621650330722,-1.2686394453,-1.88202536106,0.0174117647059,0.0,0.0,0.0,0.0,0.0,0.0,0.0,0.0,0.0,0.0,0.0,0.0,0.0,0.0,0.0
12.700235,-1.51216840744,1.67619824409,1.99038422108,-1.53805577755,0.028108632192,-1.26864111423,-1.88135194778,0.0174117647059,0.0,0.0,0.0,0.0,0.0,0.0,0.0,0.0,0.0,0.0,0.0,0.0,0.0,0.0,0.0
12.733503,-1.5079934597,1.68770575523,1.99039053917,-1.53808903694,0.00372858182527,-1.26864111423,-1.88032758236,0.0174117647059,0.0,0.0,0.0,0.0,0.0,0.0,0.0,0.0,0.0,0.0,0.0,0.0,0.0,0.0,0.0
12.767049,-1.50384402275,1.69922065735,1.99038946629,-1.53826034069,-0.0210564378649,-1.26864111423,-1.88008391857,0.0174117647059,0.0,0.0,0.0,0.0,0.0,0.0,0.0,0.0,0.0,0.0,0.0,0.0,0.0,0.0,0.0
12.800120,-1.49831783772,1.71515488625,1.99039185047,-1.53905403614,-0.0551414787769,-1.26864111423,-1.88009417057,0.0174117647059,0.0,0.0,0.0,0.0,0.0,0.0,0.0,0.0,0.0,0.0,0.0,0.0,0.0,0.0,0.0
12.833497,-1.49441897869,1.72754824162,1.99039435387,-1.53973412514,-0.0816241130233,-1.26864111423,-1.8800958395,0.0174117647059,0.0,0.0,0.0,0.0,0.0,0.0,0.0,0.0,0.0,0.0,0.0,0.0,0.0,0.0,0.0
12.866842,-1.49086022377,1.73990941048,1.99040210247,-1.54043853283,-0.108221285045,-1.26864111423,-1.88009083271,0.0174117647059,0.0,0.0,0.0,0.0,0.0,0.0,0.0,0.0,0.0,0.0,0.0,0.0,0.0,0.0,0.0
12.900131,-1.48638737202,1.75651228428,1.99046468735,-1.54119277,-0.142345190048,-1.26863777637,-1.88007879257,0.0174117647059,0.0,0.0,0.0,0.0,0.0,0.0,0.0,0.0,0.0,0.0,0.0,0.0,0.0,0.0,0.0
12.933459,-1.48324525356,1.76900529861,1.99056196213,-1.54158258438,-0.166434824467,-1.26863777637,-1.88002610207,0.0174117647059,0.0,0.0,0.0,0.0,0.0,0.0,0.0,0.0,0.0,0.0,0.0,0.0,0.0,0.0,0.0
12.967370,-1.48116803169,1.77719426155,1.99057984352,-1.54186785221,-0.181467831135,-1.26863610744,-1.88001060486,0.0174117647059,0.0,0.0,0.0,0.0,0.0,0.0,0.0,0.0,0.0,0.0,0.0,0.0,0.0,0.0,0.0
13.000133,-1.47688448429,1.79695701599,1.99090957642,-1.54209411144,-0.216559156775,-1.26863431931,-1.88002085686,0.0174117647059,0.0,0.0,0.0,0.0,0.0,0.0,0.0,0.0,0.0,0.0,0.0,0.0,0.0,0.0,0.0
13.033753,-1.47516751289,1.8081946373,1.99142205715,-1.5421731472,-0.235776856542,-1.26863431931,-1.88001739979,0.0174117647059,0.0,0.0,0.0,0.0,0.0,0.0,0.0,0.0,0.0,0.0,0.0,0.0,0.0,0.0,0.0
13.066815,-1.47375118732,1.81880331039,1.99236547947,-1.54269480705,-0.253033101559,-1.26863431931,-1.88000547886,0.0174117647059,0.0,0.0,0.0,0.0,0.0,0.0,0.0,0.0,0.0,0.0,0.0,0.0,0.0,0.0,0.0
13.100136,-1.47235286236,1.83186149597,1.99419999123,-1.54343736172,-0.271890848875,-1.26862406731,-1.87971043587,0.0174117647059,0.0,0.0,0.0,0.0,0.0,0.0,0.0,0.0,0.0,0.0,0.0,0.0,0.0,0.0,0.0
13.133502,-1.4715461731,1.84088003635,1.99582862854,-1.54392445087,-0.282520294189,-1.26862406731,-1.87881422043,0.0174117647059,0.0,0.0,0.0,0.0,0.0,0.0,0.0,0.0,0.0,0.0,0.0,0.0,0.0,0.0,0.0
13.166817,-1.47102069855,1.84913921356,1.99766290188,-1.54425561428,-0.290128856897,-1.26862406731,-1.87656927109,0.0174117647059,0.0,0.0,0.0,0.0,0.0,0.0,0.0,0.0,0.0,0.0,0.0,0.0,0.0,0.0,0.0
13.200126,-1.47066915035,1.85922896862,1.99993848801,-1.54458546638,-0.295508056879,-1.26859509945,-1.8706330061,0.0174117647059,0.0,0.0,0.0,0.0,0.0,0.0,0.0,0.0,0.0,0.0,0.0,0.0,0.0,0.0,0.0
13.233544,-1.47064495087,1.86585056782,2.00099921227,-1.54469132423,-0.296843618155,-1.26835131645,-1.86577868462,0.0174117647059,0.0,0.0,0.0,0.0,0.0,0.0,0.0,0.0,0.0,0.0,0.0,0.0,0.0,0.0,0.0
13.266827,-1.47064495087,1.87160301208,2.00132775307,-1.54470813274,-0.296935617924,-1.26749920845,-1.86311650276,0.0174117647059,0.0,0.0,0.0,0.0,0.0,0.0,0.0,0.0,0.0,0.0,0.0,0.0,0.0,0.0,0.0
13.300123,-1.47057569027,1.87798941135,2.00128316879,-1.54468381405,-0.296923369169,-1.26362836361,-1.86291182041,0.0174117647059,0.0,0.0,0.0,0.0,0.0,0.0,0.0,0.0,0.0,0.0,0.0,0.0,0.0,0.0,0.0
13.333457,-1.47046852112,1.88199830055,2.0012717247,-1.54466342926,-0.296923369169,-1.25802087784,-1.86292719841,0.0174117647059,0.0,0.0,0.0,0.0,0.0,0.0,0.0,0.0,0.0,0.0,0.0,0.0,0.0,0.0,0.0
13.366823,-1.47045457363,1.88530671597,2.00126647949,-1.54463005066,-0.29692748189,-1.24978339672,-1.86293053627,0.0174117647059,0.0,0.0,0.0,0.0,0.0,0.0,0.0,0.0,0.0,0.0,0.0,0.0,0.0,0.0,0.0
13.400133,-1.47037017345,1.88924884796,2.00095844269,-1.54448580742,-0.296915173531,-1.23655021191,-1.86289477348,0.0174117647059,0.0,0.0,0.0,0.0,0.0,0.0,0.0,0.0,0.0,0.0,0.0,0.0,0.0,0.0,0.0
13.433483,-1.47019481659,1.89226055145,2.00031161308,-1.54429519176,-0.296911090612,-1.2259196043,-1.86287605762,0.0174117647059,0.0,0.0,0.0,0.0,0.0,0.0,0.0,0.0,0.0,0.0,0.0,0.0,0.0,0.0,0.0
13.466845,-1.46979618073,1.89525711536,1.99976575375,-1.54411375523,-0.296913146973,-1.21605789661,-1.86286568642,0.0174117647059,0.0,0.0,0.0,0.0,0.0,0.0,0.0,0.0,0.0,0.0,0.0,0.0,0.0,0.0,0.0
13.500189,-1.46921205521,1.89908194542,1.99971330166,-1.54334807396,-0.297095179558,-1.20488893986,-1.86280798912,0.0174117647059,0.0,0.0,0.0,0.0,0.0,0.0,0.0,0.0,0.0,0.0,0.0,0.0,0.0,0.0,0.0
13.534318,-1.46889233589,1.90166771412,1.99970960617,-1.54259753227,-0.298226237297,-1.19897282124,-1.86284029484,0.0174117647059,0.0,0.0,0.0,0.0,0.0,0.0,0.0,0.0,0.0,0.0,0.0,0.0,0.0,0.0,0.0
13.566879,-1.46889233589,1.90406572819,1.99971723557,-1.54147136211,-0.301654189825,-1.19508850574,-1.86283862591,0.0174117647059,0.0,0.0,0.0,0.0,0.0,0.0,0.0,0.0,0.0,0.0,0.0,0.0,0.0,0.0,0.0
13.600127,-1.46893203259,1.90714526176,1.99970829487,-1.53976488113,-0.309295445681,-1.19412875175,-1.86273288727,0.0174117647059,0.0,0.0,0.0,0.0,0.0,0.0,0.0,0.0,0.0,0.0,0.0,0.0,0.0,0.0,0.0
13.633590,-1.46892809868,1.90985286236,1.99970698357,-1.53876137733,-0.315582752228,-1.19413220882,-1.86223852634,0.0174117647059,0.0,0.0,0.0,0.0,0.0,0.0,0.0,0.0,0.0,0.0,0.0,0.0,0.0,0.0,0.0
13.668303,-1.46905076504,1.91276359558,1.99970829487,-1.5375649929,-0.323275089264,-1.19413900375,-1.86222672462,0.0174117647059,0.0,0.0,0.0,0.0,0.0,0.0,0.0,0.0,0.0,0.0,0.0,0.0,0.0,0.0,0.0
13.700141,-1.46899592876,1.91694116592,1.99968016148,-1.53584933281,-0.334843367338,-1.19412219524,-1.86214983463,0.0174117647059,0.0,0.0,0.0,0.0,0.0,0.0,0.0,0.0,0.0,0.0,0.0,0.0,0.0,0.0,0.0
13.734125,-1.46881175041,1.9202684164,1.99947679043,-1.53462469578,-0.344041109085,-1.19397032261,-1.86215162277,0.0174117647059,0.0,0.0,0.0,0.0,0.0,0.0,0.0,0.0,0.0,0.0,0.0,0.0,0.0,0.0,0.0
13.766814,-1.46846413612,1.92363190651,1.99896681309,-1.53320455551,-0.354230850935,-1.19380164146,-1.86215317249,0.0174117647059,0.0,0.0,0.0,0.0,0.0,0.0,0.0,0.0,0.0,0.0,0.0,0.0,0.0,0.0,0.0
13.800191,-1.46791446209,1.92694139481,1.99828410149,-1.53163099289,-0.364997327328,-1.19376075268,-1.86215317249,0.0174117647059,0.0,0.0,0.0,0.0,0.0,0.0,0.0,0.0,0.0,0.0,0.0,0.0,0.0,0.0,0.0
13.833483,-1.46696090698,1.93145501614,1.99718225002,-1.52960729599,-0.380142837763,-1.19373691082,-1.86215519905,0.0174117647059,0.0,0.0,0.0,0.0,0.0,0.0,0.0,0.0,0.0,0.0,0.0,0.0,0.0,0.0,0.0
13.866826,-1.46602249146,1.93473541737,1.99598574638,-1.52800691128,-0.39281758666,-1.19342648983,-1.86215674877,0.0174117647059,0.0,0.0,0.0,0.0,0.0,0.0,0.0,0.0,0.0,0.0,0.0,0.0,0.0,0.0,0.0
13.900156,-1.46449875832,1.93902790546,1.99434304237,-1.52568042278,-0.411096453667,-1.19152450562,-1.86215162277,0.0174117647059,0.0,0.0,0.0,0.0,0.0,0.0,0.0,0.0,0.0,0.0,0.0,0.0,0.0,0.0,0.0
13.933488,-1.46298646927,1.94218277931,1.9929330349,-1.52353394032,-0.424726426601,-1.18859791756,-1.86214482784,0.0174117647059,0.0,0.0,0.0,0.0,0.0,0.0,0.0,0.0,0.0,0.0,0.0,0.0,0.0,0.0,0.0
13.966829,-1.4612224102,1.94524049759,1.99166762829,-1.52123045921,-0.438450396061,-1.18577897549,-1.86204409599,0.0174117647059,0.0,0.0,0.0,0.0,0.0,0.0,0.0,0.0,0.0,0.0,0.0,0.0,0.0,0.0,0.0
14.000200,-1.45868897438,1.94940900803,1.99061048031,-1.51778674126,-0.455841690302,-1.18228149414,-1.85973823071,0.0174117647059,0.0,0.0,0.0,0.0,0.0,0.0,0.0,0.0,0.0,0.0,0.0,0.0,0.0,0.0,0.0
14.033464,-1.45670235157,1.95276069641,1.99039959908,-1.51509594917,-0.467913091183,-1.17973339558,-1.85667359829,0.0174117647059,0.0,0.0,0.0,0.0,0.0,0.0,0.0,0.0,0.0,0.0,0.0,0.0,0.0,0.0,0.0
14.066836,-1.45485258102,1.95607423782,1.99044549465,-1.51228749752,-0.478800237179,-1.1764010191,-1.8542277813,0.0174117647059,0.0,0.0,0.0,0.0,0.0,0.0,0.0,0.0,0.0,0.0,0.0,0.0,0.0,0.0,0.0
14.100138,-1.45263195038,1.96004593372,1.99044704437,-1.50805604458,-0.491622298956,-1.17095053196,-1.85113072395,0.0174117647059,0.0,0.0,0.0,0.0,0.0,0.0,0.0,0.0,0.0,0.0,0.0,0.0,0.0,0.0,0.0
14.133494,-1.4509396553,1.96267688274,1.99044704437,-1.50491428375,-0.500398695469,-1.16668772697,-1.84961903095,0.0174117647059,0.0,0.0,0.0,0.0,0.0,0.0,0.0,0.0,0.0,0.0,0.0,0.0,0.0,0.0,0.0
14.166831,-1.44922924042,1.96498155594,1.99044549465,-1.50156116486,-0.509719133377,-1.16232430935,-1.84923708439,0.0174117647059,0.0,0.0,0.0,0.0,0.0,0.0,0.0,0.0,0.0,0.0,0.0,0.0,0.0,0.0,0.0
14.200115,-1.44705092907,1.96776044369,1.99044418335,-1.49667668343,-0.522991120815,-1.15487766266,-1.84922349453,0.0174117647059,0.0,0.0,0.0,0.0,0.0,0.0,0.0,0.0,0.0,0.0,0.0,0.0,0.0,0.0,0.0
14.234147,-1.44545316696,1.96970880032,1.99044549465,-1.49262320995,-0.532685875893,-1.14908266068,-1.84918439388,0.0174117647059,0.0,0.0,0.0,0.0,0.0,0.0,0.0,0.0,0.0,0.0,0.0,0.0,0.0,0.0,0.0
14.266816,-1.44382965565,1.97139751911,1.99043917656,-1.48847484589,-0.542112708092,-1.14453017712,-1.84918630123,0.0174117647059,0.0,0.0,0.0,0.0,0.0,0.0,0.0,0.0,0.0,0.0,0.0,0.0,0.0,0.0,0.0
14.300125,-1.44165790081,1.97333526611,1.99044048786,-1.48267912865,-0.55379140377,-1.13906562328,-1.84917759895,0.0174117647059,0.0,0.0,0.0,0.0,0.0,0.0,0.0,0.0,0.0,0.0,0.0,0.0,0.0,0.0,0.0
14.333490,-1.44024658203,1.97463655472,1.99044048786,-1.477845788,-0.561383664608,-1.13375985622,-1.84917080402,0.0174117647059,0.0,0.0,0.0,0.0,0.0,0.0,0.0,0.0,0.0,0.0,0.0,0.0,0.0,0.0,0.0
14.367004,-1.43879318237,1.97578334808,1.99038672447,-1.47266983986,-0.568343877792,-1.1280194521,-1.84917426109,0.0174117647059,0.0,0.0,0.0,0.0,0.0,0.0,0.0,0.0,0.0,0.0,0.0,0.0,0.0,0.0,0.0
14.400159,-1.43722212315,1.97665905952,1.99034333229,-1.46739292145,-0.575753927231,-1.12299656868,-1.84917426109,0.0174117647059,0.0,0.0,0.0,0.0,0.0,0.0,0.0,0.0,0.0,0.0,0.0,0.0,0.0,0.0,0.0
14.433522,-1.43542206287,1.97768938541,1.99033582211,-1.46034288406,-0.585162401199,-1.11695611477,-1.84917080402,0.0174117647059,0.0,0.0,0.0,0.0,0.0,0.0,0.0,0.0,0.0,0.0,0.0,0.0,0.0,0.0,0.0
14.466823,-1.43430376053,1.97848296165,1.9903190136,-1.45523750782,-0.590725541115,-1.11301696301,-1.84916901588,0.0174117647059,0.0,0.0,0.0,0.0,0.0,0.0,0.0,0.0,0.0,0.0,0.0,0.0,0.0,0.0,0.0
14.500183,-1.43300747871,1.97973203659,1.98970675468,-1.4486426115,-0.596591472626,-1.10982978344,-1.84917259216,0.0174117647059,0.0,0.0,0.0,0.0,0.0,0.0,0.0,0.0,0.0,0.0,0.0,0.0,0.0,0.0,0.0
14.533493,-1.43226611614,1.98061299324,1.98872351646,-1.443977952,-0.601815283298,-1.10908830166,-1.84917259216,0.0174117647059,0.0,0.0,0.0,0.0,0.0,0.0,0.0,0.0,0.0,0.0,0.0,0.0,0.0,0.0,0.0
14.567362,-1.4316971302,1.98148953915,1.98747205734,-1.43944776058,-0.608012497425,-1.10908830166,-1.84917259216,0.0174117647059,0.0,0.0,0.0,0.0,0.0,0.0,0.0,0.0,0.0,0.0,0.0,0.0,0.0,0.0,0.0
14.600114,-1.43119609356,1.98282039165,1.98573374748,-1.43411445618,-0.616782844067,-1.10908830166,-1.84917080402,0.0174117647059,0.0,0.0,0.0,0.0,0.0,0.0,0.0,0.0,0.0,0.0,0.0,0.0,0.0,0.0,0.0
14.633499,-1.43112707138,1.98384571075,1.98423826694,-1.43105792999,-0.623906672001,-1.10908830166,-1.84916400909,0.0174117647059,0.0,0.0,0.0,0.0,0.0,0.0,0.0,0.0,0.0,0.0,0.0,0.0,0.0,0.0,0.0
14.666863,-1.43113100529,1.98510730267,1.98273491859,-1.42881071568,-0.630989551544,-1.10908830166,-1.84915864468,0.0174117647059,0.0,0.0,0.0,0.0,0.0,0.0,0.0,0.0,0.0,0.0,0.0,0.0,0.0,0.0,0.0
14.700128,-1.43113219738,1.98697113991,1.98089647293,-1.42668879032,-0.639990866184,-1.10889065266,-1.84915864468,0.0174117647059,0.0,0.0,0.0,0.0,0.0,0.0,0.0,0.0,0.0,0.0,0.0,0.0,0.0,0.0,0.0
14.733473,-1.43113100529,1.9883081913,1.97946476936,-1.42557668686,-0.646834552288,-1.10794472694,-1.84905147552,0.0174117647059,0.0,0.0,0.0,0.0,0.0,0.0,0.0,0.0,0.0,0.0,0.0,0.0,0.0,0.0,0.0
14.766820,-1.43111038208,1.98973357677,1.97789633274,-1.42496573925,-0.652878463268,-1.10674977303,-1.84857094288,0.0174117647059,0.0,0.0,0.0,0.0,0.0,0.0,0.0,0.0,0.0,0.0,0.0,0.0,0.0,0.0,0.0
14.800128,-1.43111920357,1.99170076847,1.97581398487,-1.42451572418,-0.659276127815,-1.10514092445,-1.84847867489,0.0174117647059,0.0,0.0,0.0,0.0,0.0,0.0,0.0,0.0,0.0,0.0,0.0,0.0,0.0,0.0,0.0
14.833516,-1.43111920357,1.99323356152,1.97477471828,-1.42438900471,-0.663689911366,-1.10396647453,-1.84844982624,0.0174117647059,0.0,0.0,0.0,0.0,0.0,0.0,0.0,0.0,0.0,0.0,0.0,0.0,0.0,0.0,0.0
14.866846,-1.43111920357,1.99492990971,1.9740793705,-1.42436730862,-0.667575955391,-1.10315346718,-1.8468170166,0.0174117647059,0.0,0.0,0.0,0.0,0.0,0.0,0.0,0.0,0.0,0.0,0.0,0.0,0.0,0.0,0.0
14.900141,-1.43111169338,1.99728453159,1.9733518362,-1.42424595356,-0.67129021883,-1.10127186775,-1.84076786041,0.0174117647059,0.0,0.0,0.0,0.0,0.0,0.0,0.0,0.0,0.0,0.0,0.0,0.0,0.0,0.0,0.0
14.933512,-1.43110644817,1.99894011021,1.97325360775,-1.42394804955,-0.673092186451,-1.09763121605,-1.83388876915,0.0174117647059,0.0,0.0,0.0,0.0,0.0,0.0,0.0,0.0,0.0,0.0,0.0,0.0,0.0,0.0,0.0
14.966839,-1.43114244938,2.00017118454,1.97326374054,-1.42356073856,-0.674323439598,-1.09264743328,-1.82322263718,0.0174117647059,0.0,0.0,0.0,0.0,0.0,0.0,0.0,0.0,0.0,0.0,0.0,0.0,0.0,0.0,0.0
15.000121,-1.43125748634,2.0009291172,1.97326493263,-1.42305183411,-0.677356660366,-1.08783936501,-1.80699491501,0.0174117647059,0.0,0.0,0.0,0.0,0.0,0.0,0.0,0.0,0.0,0.0,0.0,0.0,0.0,0.0,0.0
15.033520,-1.43119752407,2.00105047226,1.97321498394,-1.42283201218,-0.681062757969,-1.08630871773,-1.79402422905,0.0174117647059,0.0,0.0,0.0,0.0,0.0,0.0,0.0,0.0,0.0,0.0,0.0,0.0,0.0,0.0,0.0
15.066848,-1.43114089966,2.00106334686,1.97314608097,-1.4224448204,-0.686151385307,-1.08435034752,-1.78124785423,0.0174117647059,0.0,0.0,0.0,0.0,0.0,0.0,0.0,0.0,0.0,0.0,0.0,0.0,0.0,0.0,0.0
15.100205,-1.43108618259,2.00107860565,1.9730527401,-1.42129039764,-0.694281578064,-1.08051359653,-1.76559615135,0.0174117647059,0.0,0.0,0.0,0.0,0.0,0.0,0.0,0.0,0.0,0.0,0.0,0.0,0.0,0.0,0.0
15.133520,-1.4310901165,2.00121426582,1.97278690338,-1.4201130867,-0.6999142766,-1.07687819004,-1.75571572781,0.0174117647059,0.0,0.0,0.0,0.0,0.0,0.0,0.0,0.0,0.0,0.0,0.0,0.0,0.0,0.0,0.0
15.166794,-1.4310901165,2.00141859055,1.97229611874,-1.41855990887,-0.705142140388,-1.07354950905,-1.74771332741,0.0174117647059,0.0,0.0,0.0,0.0,0.0,0.0,0.0,0.0,0.0,0.0,0.0,0.0,0.0,0.0,0.0
15.200160,-1.43108618259,2.00182008743,1.97088468075,-1.41631257534,-0.711443722248,-1.07002294064,-1.74072015285,0.0174117647059,0.0,0.0,0.0,0.0,0.0,0.0,0.0,0.0,0.0,0.0,0.0,0.0,0.0,0.0,0.0
15.233517,-1.43108105659,2.00197601318,1.96935844421,-1.41443359852,-0.715781807899,-1.06802034378,-1.73830485344,0.0174117647059,0.0,0.0,0.0,0.0,0.0,0.0,0.0,0.0,0.0,0.0,0.0,0.0,0.0,0.0,0.0
15.266790,-1.43100953102,2.00198483467,1.96748960018,-1.4124751091,-0.719577908516,-1.06699919701,-1.73760104179,0.0174117647059,0.0,0.0,0.0,0.0,0.0,0.0,0.0,0.0,0.0,0.0,0.0,0.0,0.0,0.0,0.0
15.300122,-1.43089449406,2.00199651718,1.96479225159,-1.40966033936,-0.722805440426,-1.06688535213,-1.73705720901,0.0174117647059,0.0,0.0,0.0,0.0,0.0,0.0,0.0,0.0,0.0,0.0,0.0,0.0,0.0,0.0,0.0
15.333476,-1.43088424206,2.00206923485,1.96274316311,-1.4075576067,-0.723533511162,-1.06688857079,-1.73683559895,0.0174117647059,0.0,0.0,0.0,0.0,0.0,0.0,0.0,0.0,0.0,0.0,0.0,0.0,0.0,0.0,0.0
15.366819,-1.43088424206,2.00207948685,1.9614149332,-1.40597248077,-0.723742187023,-1.06688857079,-1.73682534695,0.0174117647059,0.0,0.0,0.0,0.0,0.0,0.0,0.0,0.0,0.0,0.0,0.0,0.0,0.0,0.0,0.0
15.400173,-1.43081510067,2.00208854675,1.95846199989,-1.40193164349,-0.724793374538,-1.06688857079,-1.73509025574,0.0174117647059,0.0,0.0,0.0,0.0,0.0,0.0,0.0,0.0,0.0,0.0,0.0,0.0,0.0,0.0,0.0
15.433488,-1.43067836761,2.00208687782,1.95658409595,-1.3995834589,-0.725754737854,-1.06688857079,-1.73183310032,0.0174117647059,0.0,0.0,0.0,0.0,0.0,0.0,0.0,0.0,0.0,0.0,0.0,0.0,0.0,0.0,0.0
15.466803,-1.43049943447,2.00208687782,1.95495069027,-1.39731943607,-0.727869570255,-1.06688690186,-1.72685980797,0.0174117647059,0.0,0.0,0.0,0.0,0.0,0.0,0.0,0.0,0.0,0.0,0.0,0.0,0.0,0.0,0.0
15.500128,-1.43035769463,2.00210261345,1.95286297798,-1.39449453354,-0.732070684433,-1.06688690186,-1.71891200542,0.0174117647059,0.0,0.0,0.0,0.0,0.0,0.0,0.0,0.0,0.0,0.0,0.0,0.0,0.0,0.0,0.0
15.533475,-1.43020522594,2.00210261345,1.95157325268,-1.39262926579,-0.736625552177,-1.06688690186,-1.71334016323,0.0174117647059,0.0,0.0,0.0,0.0,0.0,0.0,0.0,0.0,0.0,0.0,0.0,0.0,0.0,0.0,0.0
15.566840,-1.42996120453,2.00210261345,1.95086359978,-1.39078342915,-0.7417755723,-1.06674194336,-1.70701181889,0.0174117647059,0.0,0.0,0.0,0.0,0.0,0.0,0.0,0.0,0.0,0.0,0.0,0.0,0.0,0.0,0.0
15.600118,-1.42951250076,2.00210380554,1.95040857792,-1.38843142986,-0.748606979847,-1.06618630886,-1.69704759121,0.0174117647059,0.0,0.0,0.0,0.0,0.0,0.0,0.0,0.0,0.0,0.0,0.0,0.0,0.0,0.0,0.0
15.633494,-1.42911612988,2.00210380554,1.95035886765,-1.38677716255,-0.753114819527,-1.06528651714,-1.68818962574,0.0174117647059,0.0,0.0,0.0,0.0,0.0,0.0,0.0,0.0,0.0,0.0,0.0,0.0,0.0,0.0,0.0
15.666801,-1.42886579037,2.00210118294,1.95036017895,-1.38545918465,-0.757078588009,-1.06403696537,-1.67966926098,0.0174117647059,0.0,0.0,0.0,0.0,0.0,0.0,0.0,0.0,0.0,0.0,0.0,0.0,0.0,0.0,0.0
15.700197,-1.42862427235,2.00210118294,1.95036017895,-1.38417446613,-0.761862516403,-1.06194746494,-1.66965246201,0.0174117647059,0.0,0.0,0.0,0.0,0.0,0.0,0.0,0.0,0.0,0.0,0.0,0.0,0.0,0.0,0.0
15.733474,-1.42844128609,2.00210118294,1.95035743713,-1.38327717781,-0.764713704586,-1.05869185925,-1.66375863552,0.0174117647059,0.0,0.0,0.0,0.0,0.0,0.0,0.0,0.0,0.0,0.0,0.0,0.0,0.0,0.0,0.0
15.766945,-1.42818427086,2.00210261345,1.95034742355,-1.38228261471,-0.766501307487,-1.05429971218,-1.66013324261,0.0174117647059,0.0,0.0,0.0,0.0,0.0,0.0,0.0,0.0,0.0,0.0,0.0,0.0,0.0,0.0,0.0
15.800125,-1.42790424824,2.00215864182,1.95018875599,-1.38103759289,-0.766981959343,-1.04852509499,-1.65911734104,0.0174117647059,0.0,0.0,0.0,0.0,0.0,0.0,0.0,0.0,0.0,0.0,0.0,0.0,0.0,0.0,0.0
15.833485,-1.42770111561,2.00219225883,1.94986534119,-1.37958419323,-0.76697999239,-1.04524064064,-1.65912759304,0.0174117647059,0.0,0.0,0.0,0.0,0.0,0.0,0.0,0.0,0.0,0.0,0.0,0.0,0.0,0.0,0.0
15.866819,-1.42757451534,2.00217413902,1.9498500824,-1.37798118591,-0.766994178295,-1.04279816151,-1.65912938118,0.0174117647059,0.0,0.0,0.0,0.0,0.0,0.0,0.0,0.0,0.0,0.0,0.0,0.0,0.0,0.0,0.0
15.900168,-1.42755913734,2.00217151642,1.9498500824,-1.37608766556,-0.766994178295,-1.0399159193,-1.6591309309,0.0174117647059,0.0,0.0,0.0,0.0,0.0,0.0,0.0,0.0,0.0,0.0,0.0,0.0,0.0,0.0,0.0
15.933502,-1.42746591568,2.00217413902,1.94984734058,-1.37480425835,-0.766992211342,-1.03847229481,-1.6591309309,0.0174117647059,0.0,0.0,0.0,0.0,0.0,0.0,0.0,0.0,0.0,0.0,0.0,0.0,0.0,0.0,0.0
15.966843,-1.42743897438,2.00216913223,1.9498488903,-1.37363243103,-0.766992211342,-1.03667926788,-1.6591309309,0.0174117647059,0.0,0.0,0.0,0.0,0.0,0.0,0.0,0.0,0.0,0.0,0.0,0.0,0.0,0.0,0.0
16.000139,-1.4274430275,2.00214982033,1.949852705,-1.37255966663,-0.766992211342,-1.03574180603,-1.6591309309,0.0174117647059,0.0,0.0,0.0,0.0,0.0,0.0,0.0,0.0,0.0,0.0,0.0,0.0,0.0,0.0,0.0
16.033518,-1.42746472359,2.00212430954,1.94992029667,-1.37192451954,-0.766992211342,-1.03574538231,-1.65913295746,0.0174117647059,0.0,0.0,0.0,0.0,0.0,0.0,0.0,0.0,0.0,0.0,0.0,0.0,0.0,0.0,0.0
16.066866,-1.42749285698,2.00207829475,1.9501837492,-1.37144112587,-0.766994178295,-1.03574705124,-1.65913295746,0.0174117647059,0.0,0.0,0.0,0.0,0.0,0.0,0.0,0.0,0.0,0.0,0.0,0.0,0.0,0.0,0.0
16.100136,-1.42748761177,2.00207710266,1.95022594929,-1.37133133411,-0.767014682293,-1.03574705124,-1.65913295746,0.0174117647059,0.0,0.0,0.0,0.0,0.0,0.0,0.0,0.0,0.0,0.0,0.0,0.0,0.0,0.0,0.0
16.133506,-1.42748379707,2.0019671917,1.95022594929,-1.37134158611,-0.767749011517,-1.03574705124,-1.65913295746,0.0174117647059,0.0,0.0,0.0,0.0,0.0,0.0,0.0,0.0,0.0,0.0,0.0,0.0,0.0,0.0,0.0
16.166821,-1.42746710777,2.00180602074,1.95022594929,-1.37138998508,-0.768867790699,-1.03574705124,-1.65913295746,0.0174117647059,0.0,0.0,0.0,0.0,0.0,0.0,0.0,0.0,0.0,0.0,0.0,0.0,0.0,0.0,0.0
16.200150,-1.42730498314,2.00156450272,1.95023083687,-1.37150251865,-0.770127654076,-1.03574538231,-1.65913295746,0.0174117647059,0.0,0.0,0.0,0.0,0.0,0.0,0.0,0.0,0.0,0.0,0.0,0.0,0.0,0.0,0.0
16.233474,-1.42728447914,2.00121283531,1.95024514198,-1.37147951126,-0.772123813629,-1.03574538231,-1.65913295746,0.0174117647059,0.0,0.0,0.0,0.0,0.0,0.0,0.0,0.0,0.0,0.0,0.0,0.0,0.0,0.0,0.0
16.266823,-1.42722928524,2.00085234642,1.95024359226,-1.37147438526,-0.774623274803,-1.03574538231,-1.65913462639,0.0174117647059,0.0,0.0,0.0,0.0,0.0,0.0,0.0,0.0,0.0,0.0,0.0,0.0,0.0,0.0,0.0
16.300177,-1.42718839645,2.00038695335,1.95024359226,-1.37139773369,-0.778372347355,-1.03574347496,-1.65913462639,0.0174117647059,0.0,0.0,0.0,0.0,0.0,0.0,0.0,0.0,0.0,0.0,0.0,0.0,0.0,0.0,0.0
16.333507,-1.42718839645,2.00014662743,1.95024359226,-1.3713632822,-0.780757129192,-1.03574180603,-1.65913462639,0.0174117647059,0.0,0.0,0.0,0.0,0.0,0.0,0.0,0.0,0.0,0.0,0.0,0.0,0.0,0.0,0.0
16.366858,-1.42709505558,2.00009679794,1.95024359226,-1.3713530302,-0.781569123268,-1.03571283817,-1.65913295746,0.0174117647059,0.0,0.0,0.0,0.0,0.0,0.0,0.0,0.0,0.0,0.0,0.0,0.0,0.0,0.0,0.0
16.400144,-1.42679750919,2.00010585785,1.95023477077,-1.37114977837,-0.781517922878,-1.03561401367,-1.65913462639,0.0174117647059,0.0,0.0,0.0,0.0,0.0,0.0,0.0,0.0,0.0,0.0,0.0,0.0,0.0,0.0,0.0
16.433510,-1.42643165588,2.00010585785,1.95023369789,-1.37093615532,-0.781517922878,-1.03536689281,-1.65913462639,0.0174117647059,0.0,0.0,0.0,0.0,0.0,0.0,0.0,0.0,0.0,0.0,0.0,0.0,0.0,0.0,0.0
16.466824,-1.42599976063,2.00010466576,1.95023477077,-1.37069582939,-0.781517922878,-1.03497838974,-1.65913462639,0.0174117647059,0.0,0.0,0.0,0.0,0.0,0.0,0.0,0.0,0.0,0.0,0.0,0.0,0.0,0.0,0.0
16.500133,-1.42556643486,2.00001645088,1.95023751259,-1.37050676346,-0.781520068645,-1.03479933739,-1.65913629532,0.0174117647059,0.0,0.0,0.0,0.0,0.0,0.0,0.0,0.0,0.0,0.0,0.0,0.0,0.0,0.0,0.0
16.533536,-1.4254513979,1.99985003471,1.95023751259,-1.37050926685,-0.781536400318,-1.03479933739,-1.65913629532,0.0174117647059,0.0,0.0,0.0,0.0,0.0,0.0,0.0,0.0,0.0,0.0,0.0,0.0,0.0,0.0,0.0
16.566814,-1.42533230782,1.99952673912,1.95023870468,-1.37051045895,-0.781718373299,-1.03479933739,-1.65913784504,0.0174117647059,0.0,0.0,0.0,0.0,0.0,0.0,0.0,0.0,0.0,0.0,0.0,0.0,0.0,0.0,0.0
16.600121,-1.42520594597,1.99899876118,1.95023870468,-1.37051045895,-0.782109081745,-1.03479933739,-1.65913784504,0.0174117647059,0.0,0.0,0.0,0.0,0.0,0.0,0.0,0.0,0.0,0.0,0.0,0.0,0.0,0.0,0.0
16.633462,-1.42515349388,1.99862825871,1.95023751259,-1.37050926685,-0.782088637352,-1.03479778767,-1.65913784504,0.0174117647059,0.0,0.0,0.0,0.0,0.0,0.0,0.0,0.0,0.0,0.0,0.0,0.0,0.0,0.0,0.0
16.666823,-1.42510104179,1.99860644341,1.95022845268,-1.37051045895,-0.782082438469,-1.03479778767,-1.6591309309,0.0174117647059,0.0,0.0,0.0,0.0,0.0,0.0,0.0,0.0,0.0,0.0,0.0,0.0,0.0,0.0,0.0
16.700127,-1.42510104179,1.99860644341,1.95022845268,-1.37051045895,-0.782082438469,-1.03479778767,-1.6591309309,0.0174117647059,0.0,0.0,0.0,0.0,0.0,0.0,0.0,0.0,0.0,0.0,0.0,0.0,0.0,0.0,0.0
16.733580,-1.42510104179,1.99860644341,1.95022845268,-1.37051045895,-0.782082438469,-1.03479778767,-1.6591309309,0.0174117647059,0.0,0.0,0.0,0.0,0.0,0.0,0.0,0.0,0.0,0.0,0.0,0.0,0.0,0.0,0.0
16.766806,-1.42510104179,1.99860644341,1.95022845268,-1.37051045895,-0.782082438469,-1.03479778767,-1.6591309309,0.0174117647059,0.0,0.0,0.0,0.0,0.0,0.0,0.0,0.0,0.0,0.0,0.0,0.0,0.0,0.0,0.0
16.800187,-1.42510104179,1.99860644341,1.95022845268,-1.37051045895,-0.782082438469,-1.03479778767,-1.6591309309,0.0174117647059,0.0,0.0,0.0,0.0,0.0,0.0,0.0,0.0,0.0,0.0,0.0,0.0,0.0,0.0,0.0
16.833541,-1.42510104179,1.99860644341,1.95022845268,-1.37051045895,-0.782082438469,-1.03479778767,-1.6591309309,0.0174117647059,0.0,0.0,0.0,0.0,0.0,0.0,0.0,0.0,0.0,0.0,0.0,0.0,0.0,0.0,0.0
16.866795,-1.42510104179,1.99860644341,1.95022845268,-1.37051045895,-0.782082438469,-1.03479778767,-1.6591309309,0.0174117647059,0.0,0.0,0.0,0.0,0.0,0.0,0.0,0.0,0.0,0.0,0.0,0.0,0.0,0.0,0.0
16.900216,-1.42510104179,1.99860644341,1.95022845268,-1.37051045895,-0.782082438469,-1.03479778767,-1.6591309309,0.0174117647059,0.0,0.0,0.0,0.0,0.0,0.0,0.0,0.0,0.0,0.0,0.0,0.0,0.0,0.0,0.0
16.933460,-1.42510104179,1.99860644341,1.95022845268,-1.37051045895,-0.782082438469,-1.03479778767,-1.6591309309,0.0174117647059,0.0,0.0,0.0,0.0,0.0,0.0,0.0,0.0,0.0,0.0,0.0,0.0,0.0,0.0,0.0
16.966825,-1.42510104179,1.99860644341,1.95022845268,-1.37051045895,-0.782082438469,-1.03479778767,-1.6591309309,0.0174117647059,0.0,0.0,0.0,0.0,0.0,0.0,0.0,0.0,0.0,0.0,0.0,0.0,0.0,0.0,0.0
17.000127,-1.42510104179,1.99860644341,1.95022845268,-1.37051045895,-0.782082438469,-1.03479778767,-1.6591309309,0.0174117647059,0.0,0.0,0.0,0.0,0.0,0.0,0.0,0.0,0.0,0.0,0.0,0.0,0.0,0.0,0.0
17.033465,-1.42510104179,1.99860644341,1.95022845268,-1.37051045895,-0.782082438469,-1.03479778767,-1.6591309309,0.0174117647059,0.0,0.0,0.0,0.0,0.0,0.0,0.0,0.0,0.0,0.0,0.0,0.0,0.0,0.0,0.0
17.066814,-1.42510104179,1.99860644341,1.95022845268,-1.37051045895,-0.782082438469,-1.03479778767,-1.6591309309,0.0174117647059,0.0,0.0,0.0,0.0,0.0,0.0,0.0,0.0,0.0,0.0,0.0,0.0,0.0,0.0,0.0
17.100178,-1.42510104179,1.99860644341,1.95022845268,-1.37051045895,-0.782082438469,-1.03479778767,-1.6591309309,0.0174117647059,0.0,0.0,0.0,0.0,0.0,0.0,0.0,0.0,0.0,0.0,0.0,0.0,0.0,0.0,0.0
17.133495,-1.42510104179,1.99860644341,1.95022845268,-1.37051045895,-0.782082438469,-1.03479778767,-1.6591309309,0.0174117647059,0.0,0.0,0.0,0.0,0.0,0.0,0.0,0.0,0.0,0.0,0.0,0.0,0.0,0.0,0.0
17.167938,-1.42510104179,1.99860644341,1.95022845268,-1.37051045895,-0.782082438469,-1.03479778767,-1.6591309309,0.0174117647059,0.0,0.0,0.0,0.0,0.0,0.0,0.0,0.0,0.0,0.0,0.0,0.0,0.0,0.0,0.0
17.200120,-1.42510104179,1.99860644341,1.95022845268,-1.37051045895,-0.782082438469,-1.03479778767,-1.6591309309,0.0174117647059,0.0,0.0,0.0,0.0,0.0,0.0,0.0,0.0,0.0,0.0,0.0,0.0,0.0,0.0,0.0
17.233486,-1.42510104179,1.99860644341,1.95022845268,-1.37051045895,-0.782082438469,-1.03479778767,-1.6591309309,0.0174117647059,0.0,0.0,0.0,0.0,0.0,0.0,0.0,0.0,0.0,0.0,0.0,0.0,0.0,0.0,0.0
17.266815,-1.42510104179,1.99860644341,1.95022845268,-1.37051045895,-0.782082438469,-1.03479778767,-1.6591309309,0.0174117647059,0.0,0.0,0.0,0.0,0.0,0.0,0.0,0.0,0.0,0.0,0.0,0.0,0.0,0.0,0.0
17.300118,-1.42510104179,1.99860644341,1.95022845268,-1.37051045895,-0.782082438469,-1.03479778767,-1.6591309309,0.0174117647059,0.0,0.0,0.0,0.0,0.0,0.0,0.0,0.0,0.0,0.0,0.0,0.0,0.0,0.0,0.0
17.333555,-1.42510104179,1.99860644341,1.95022845268,-1.37051045895,-0.782082438469,-1.03479778767,-1.6591309309,0.0174117647059,0.0,0.0,0.0,0.0,0.0,0.0,0.0,0.0,0.0,0.0,0.0,0.0,0.0,0.0,0.0
17.366828,-1.42510104179,1.99860644341,1.95022845268,-1.37051045895,-0.782082438469,-1.03479778767,-1.6591309309,0.0174117647059,0.0,0.0,0.0,0.0,0.0,0.0,0.0,0.0,0.0,0.0,0.0,0.0,0.0,0.0,0.0
17.400145,-1.42510104179,1.99860644341,1.95022845268,-1.37051045895,-0.782082438469,-1.03479778767,-1.6591309309,0.0174117647059,0.0,0.0,0.0,0.0,0.0,0.0,0.0,0.0,0.0,0.0,0.0,0.0,0.0,0.0,0.0
17.433495,-1.42510104179,1.99860644341,1.95022845268,-1.37051045895,-0.782082438469,-1.03479778767,-1.6591309309,0.0174117647059,0.0,0.0,0.0,0.0,0.0,0.0,0.0,0.0,0.0,0.0,0.0,0.0,0.0,0.0,0.0
17.466818,-1.42510104179,1.99860644341,1.95022845268,-1.37051045895,-0.782082438469,-1.03479778767,-1.6591309309,0.0174117647059,0.0,0.0,0.0,0.0,0.0,0.0,0.0,0.0,0.0,0.0,0.0,0.0,0.0,0.0,0.0
17.500162,-1.42510104179,1.99860644341,1.95022845268,-1.37051045895,-0.782082438469,-1.03479778767,-1.6591309309,0.0174117647059,0.0,0.0,0.0,0.0,0.0,0.0,0.0,0.0,0.0,0.0,0.0,0.0,0.0,0.0,0.0
17.533522,-1.42510104179,1.99860644341,1.95022845268,-1.37051045895,-0.782082438469,-1.03479778767,-1.6591309309,0.0174117647059,0.0,0.0,0.0,0.0,0.0,0.0,0.0,0.0,0.0,0.0,0.0,0.0,0.0,0.0,0.0
17.566820,-1.42510104179,1.99860644341,1.95022845268,-1.37051045895,-0.782082438469,-1.03479778767,-1.6591309309,0.0174117647059,0.0,0.0,0.0,0.0,0.0,0.0,0.0,0.0,0.0,0.0,0.0,0.0,0.0,0.0,0.0
17.600129,-1.42510104179,1.99860644341,1.95022845268,-1.37051045895,-0.782082438469,-1.03479778767,-1.6591309309,0.0174117647059,0.0,0.0,0.0,0.0,0.0,0.0,0.0,0.0,0.0,0.0,0.0,0.0,0.0,0.0,0.0
