IRLabUoB/boris-robot/boris_tools/scripts/contact_trajectories/saucepan_trajectory.csv
time,left_arm_0_joint,left_arm_1_joint,left_arm_2_joint,left_arm_3_joint,left_arm_4_joint,left_arm_5_joint,left_arm_6_joint,left_hand_synergy_joint,right_arm_0_joint,right_arm_1_joint,right_arm_2_joint,right_arm_3_joint,right_arm_4_joint,right_arm_5_joint,right_arm_6_joint,right_hand_synergy_joint,head_neck_pitch_joint,head_neck_roll_joint,head_neck_yaw_joint,head_head_tilt_joint,head_eyes_tilt_joint,head_left_eye_joint,head_right_eye_joint
0.000353,-1.29552447796,0.885644853115,1.83746039867,-0.532977640629,1.53587830067,-0.902638435364,-2.44638729095,0.0398823529412,0.0,0.0,0.0,0.0,0.0,0.0,0.0,0.0,0.0,0.0,0.0,0.0,0.0,0.0,0.0
0.033473,-1.29552447796,0.885644853115,1.83746039867,-0.532977640629,1.53587830067,-0.902638435364,-2.44638729095,0.0398823529412,0.0,0.0,0.0,0.0,0.0,0.0,0.0,0.0,0.0,0.0,0.0,0.0,0.0,0.0,0.0
0.066793,-1.29552447796,0.885644853115,1.83746039867,-0.532977640629,1.53587830067,-0.902638435364,-2.44638729095,0.0398823529412,0.0,0.0,0.0,0.0,0.0,0.0,0.0,0.0,0.0,0.0,0.0,0.0,0.0,0.0,0.0
0.100110,-1.29552447796,0.885644853115,1.83746039867,-0.532977640629,1.53587830067,-0.902638435364,-2.44638729095,0.0398823529412,0.0,0.0,0.0,0.0,0.0,0.0,0.0,0.0,0.0,0.0,0.0,0.0,0.0,0.0,0.0
0.133414,-1.29552447796,0.885644853115,1.83746039867,-0.532977640629,1.53587830067,-0.902638435364,-2.44638729095,0.0398823529412,0.0,0.0,0.0,0.0,0.0,0.0,0.0,0.0,0.0,0.0,0.0,0.0,0.0,0.0,0.0
0.166809,-1.29552447796,0.885644853115,1.83746039867,-0.532977640629,1.53587830067,-0.902638435364,-2.44638729095,0.0398823529412,0.0,0.0,0.0,0.0,0.0,0.0,0.0,0.0,0.0,0.0,0.0,0.0,0.0,0.0,0.0
0.200114,-1.29552447796,0.885644853115,1.83746039867,-0.532977640629,1.53587830067,-0.902638435364,-2.44638729095,0.0398823529412,0.0,0.0,0.0,0.0,0.0,0.0,0.0,0.0,0.0,0.0,0.0,0.0,0.0,0.0,0.0
0.233451,-1.29552447796,0.885644853115,1.83746039867,-0.532977640629,1.53587830067,-0.902638435364,-2.44638729095,0.0398823529412,0.0,0.0,0.0,0.0,0.0,0.0,0.0,0.0,0.0,0.0,0.0,0.0,0.0,0.0,0.0
0.266817,-1.29552447796,0.885644853115,1.83746039867,-0.532977640629,1.53587830067,-0.902638435364,-2.44638729095,0.0398823529412,0.0,0.0,0.0,0.0,0.0,0.0,0.0,0.0,0.0,0.0,0.0,0.0,0.0,0.0,0.0
0.300220,-1.29552447796,0.885644853115,1.83746039867,-0.532977640629,1.53587830067,-0.902638435364,-2.44638729095,0.0398823529412,0.0,0.0,0.0,0.0,0.0,0.0,0.0,0.0,0.0,0.0,0.0,0.0,0.0,0.0,0.0
0.333445,-1.29552447796,0.885644853115,1.83746039867,-0.532977640629,1.53587830067,-0.902638435364,-2.44638729095,0.0398823529412,0.0,0.0,0.0,0.0,0.0,0.0,0.0,0.0,0.0,0.0,0.0,0.0,0.0,0.0,0.0
0.366823,-1.29552447796,0.885644853115,1.83746039867,-0.532977640629,1.53587830067,-0.902638435364,-2.44638729095,0.0398823529412,0.0,0.0,0.0,0.0,0.0,0.0,0.0,0.0,0.0,0.0,0.0,0.0,0.0,0.0,0.0
0.400116,-1.29552447796,0.885644853115,1.83746039867,-0.532977640629,1.53587830067,-0.902638435364,-2.44638729095,0.0398823529412,0.0,0.0,0.0,0.0,0.0,0.0,0.0,0.0,0.0,0.0,0.0,0.0,0.0,0.0,0.0
0.433583,-1.29552447796,0.885644853115,1.83746039867,-0.532977640629,1.53587830067,-0.902638435364,-2.44638729095,0.0398823529412,0.0,0.0,0.0,0.0,0.0,0.0,0.0,0.0,0.0,0.0,0.0,0.0,0.0,0.0,0.0
0.466844,-1.29552447796,0.885644853115,1.83746039867,-0.532977640629,1.53587830067,-0.902638435364,-2.44638729095,0.0398823529412,0.0,0.0,0.0,0.0,0.0,0.0,0.0,0.0,0.0,0.0,0.0,0.0,0.0,0.0,0.0
0.500181,-1.29552447796,0.885644853115,1.83746039867,-0.532977640629,1.53587830067,-0.902638435364,-2.44638729095,0.0398823529412,0.0,0.0,0.0,0.0,0.0,0.0,0.0,0.0,0.0,0.0,0.0,0.0,0.0,0.0,0.0
0.533485,-1.29552447796,0.885644853115,1.83746039867,-0.532977640629,1.53587830067,-0.902638435364,-2.44638729095,0.0398823529412,0.0,0.0,0.0,0.0,0.0,0.0,0.0,0.0,0.0,0.0,0.0,0.0,0.0,0.0,0.0
0.566830,-1.29552447796,0.885644853115,1.83746039867,-0.532977640629,1.53587830067,-0.902638435364,-2.44638729095,0.0398823529412,0.0,0.0,0.0,0.0,0.0,0.0,0.0,0.0,0.0,0.0,0.0,0.0,0.0,0.0,0.0
0.600137,-1.29552447796,0.885644853115,1.83746039867,-0.532977640629,1.53587830067,-0.902638435364,-2.44638729095,0.0398823529412,0.0,0.0,0.0,0.0,0.0,0.0,0.0,0.0,0.0,0.0,0.0,0.0,0.0,0.0,0.0
0.633476,-1.29552447796,0.885644853115,1.83746039867,-0.532977640629,1.53587830067,-0.902638435364,-2.44638729095,0.0398823529412,0.0,0.0,0.0,0.0,0.0,0.0,0.0,0.0,0.0,0.0,0.0,0.0,0.0,0.0,0.0
0.666839,-1.29552447796,0.885644853115,1.83746039867,-0.532977640629,1.53587830067,-0.902638435364,-2.44638729095,0.0398823529412,0.0,0.0,0.0,0.0,0.0,0.0,0.0,0.0,0.0,0.0,0.0,0.0,0.0,0.0,0.0
0.701076,-1.29552447796,0.885644853115,1.83746039867,-0.532977640629,1.53587830067,-0.902638435364,-2.44638729095,0.0398823529412,0.0,0.0,0.0,0.0,0.0,0.0,0.0,0.0,0.0,0.0,0.0,0.0,0.0,0.0,0.0
0.733491,-1.29552447796,0.885644853115,1.83746039867,-0.532977640629,1.53587830067,-0.902638435364,-2.44638729095,0.0398823529412,0.0,0.0,0.0,0.0,0.0,0.0,0.0,0.0,0.0,0.0,0.0,0.0,0.0,0.0,0.0
0.766839,-1.29552447796,0.885644853115,1.83746039867,-0.532977640629,1.53587830067,-0.902638435364,-2.44638729095,0.0398823529412,0.0,0.0,0.0,0.0,0.0,0.0,0.0,0.0,0.0,0.0,0.0,0.0,0.0,0.0,0.0
0.800287,-1.29552447796,0.885644853115,1.83746039867,-0.532977640629,1.53587830067,-0.902638435364,-2.44638729095,0.0398823529412,0.0,0.0,0.0,0.0,0.0,0.0,0.0,0.0,0.0,0.0,0.0,0.0,0.0,0.0,0.0
0.833482,-1.29552447796,0.885644853115,1.83746039867,-0.532977640629,1.53587830067,-0.902638435364,-2.44638729095,0.0398823529412,0.0,0.0,0.0,0.0,0.0,0.0,0.0,0.0,0.0,0.0,0.0,0.0,0.0,0.0,0.0
0.866822,-1.29552447796,0.885644853115,1.83746039867,-0.532977640629,1.53587830067,-0.902638435364,-2.44638729095,0.0398823529412,0.0,0.0,0.0,0.0,0.0,0.0,0.0,0.0,0.0,0.0,0.0,0.0,0.0,0.0,0.0
0.900179,-1.29552447796,0.885644853115,1.83746039867,-0.532977640629,1.53587830067,-0.902638435364,-2.44638729095,0.0398823529412,0.0,0.0,0.0,0.0,0.0,0.0,0.0,0.0,0.0,0.0,0.0,0.0,0.0,0.0,0.0
0.933511,-1.29552447796,0.885644853115,1.83746039867,-0.532977640629,1.53587830067,-0.902638435364,-2.44638729095,0.0398823529412,0.0,0.0,0.0,0.0,0.0,0.0,0.0,0.0,0.0,0.0,0.0,0.0,0.0,0.0,0.0
0.966807,-1.29552447796,0.885644853115,1.83746039867,-0.532977640629,1.53587830067,-0.902638435364,-2.44638729095,0.0398823529412,0.0,0.0,0.0,0.0,0.0,0.0,0.0,0.0,0.0,0.0,0.0,0.0,0.0,0.0,0.0
1.000123,-1.29552447796,0.885644853115,1.83746039867,-0.532977640629,1.53587830067,-0.902638435364,-2.44638729095,0.0398823529412,0.0,0.0,0.0,0.0,0.0,0.0,0.0,0.0,0.0,0.0,0.0,0.0,0.0,0.0,0.0
1.033490,-1.29552447796,0.885644853115,1.83746039867,-0.532977640629,1.53587830067,-0.902638435364,-2.44638729095,0.0398823529412,0.0,0.0,0.0,0.0,0.0,0.0,0.0,0.0,0.0,0.0,0.0,0.0,0.0,0.0,0.0
1.066805,-1.29552447796,0.885644853115,1.83746039867,-0.532977640629,1.53587830067,-0.902638435364,-2.44638729095,0.0398823529412,0.0,0.0,0.0,0.0,0.0,0.0,0.0,0.0,0.0,0.0,0.0,0.0,0.0,0.0,0.0
1.100118,-1.29552447796,0.885644853115,1.83746039867,-0.532977640629,1.53587830067,-0.902638435364,-2.44638729095,0.0398823529412,0.0,0.0,0.0,0.0,0.0,0.0,0.0,0.0,0.0,0.0,0.0,0.0,0.0,0.0,0.0
1.133526,-1.29552447796,0.885644853115,1.83746039867,-0.532977640629,1.53587830067,-0.902638435364,-2.44638729095,0.0398823529412,0.0,0.0,0.0,0.0,0.0,0.0,0.0,0.0,0.0,0.0,0.0,0.0,0.0,0.0,0.0
1.166812,-1.29552447796,0.885644853115,1.83746039867,-0.532977640629,1.53587830067,-0.902638435364,-2.44638729095,0.0398823529412,0.0,0.0,0.0,0.0,0.0,0.0,0.0,0.0,0.0,0.0,0.0,0.0,0.0,0.0,0.0
1.200231,-1.29552447796,0.885644853115,1.83746039867,-0.532977640629,1.53587830067,-0.902638435364,-2.44638729095,0.0398823529412,0.0,0.0,0.0,0.0,0.0,0.0,0.0,0.0,0.0,0.0,0.0,0.0,0.0,0.0,0.0
1.233469,-1.29552447796,0.885644853115,1.83746039867,-0.532977640629,1.53587830067,-0.902638435364,-2.44638729095,0.0398823529412,0.0,0.0,0.0,0.0,0.0,0.0,0.0,0.0,0.0,0.0,0.0,0.0,0.0,0.0,0.0
1.266823,-1.29552447796,0.885644853115,1.83746039867,-0.532977640629,1.53587830067,-0.902638435364,-2.44638729095,0.0398823529412,0.0,0.0,0.0,0.0,0.0,0.0,0.0,0.0,0.0,0.0,0.0,0.0,0.0,0.0,0.0
1.300391,-1.29552447796,0.885644853115,1.83746039867,-0.532977640629,1.53587830067,-0.902638435364,-2.44638729095,0.0398823529412,0.0,0.0,0.0,0.0,0.0,0.0,0.0,0.0,0.0,0.0,0.0,0.0,0.0,0.0,0.0
1.333510,-1.29552447796,0.885644853115,1.83746039867,-0.532977640629,1.53587830067,-0.902638435364,-2.44638729095,0.0398823529412,0.0,0.0,0.0,0.0,0.0,0.0,0.0,0.0,0.0,0.0,0.0,0.0,0.0,0.0,0.0
1.366809,-1.29552447796,0.885644853115,1.83746039867,-0.532977640629,1.53587830067,-0.902638435364,-2.44638729095,0.0398823529412,0.0,0.0,0.0,0.0,0.0,0.0,0.0,0.0,0.0,0.0,0.0,0.0,0.0,0.0,0.0
1.400109,-1.29552447796,0.885644853115,1.83746039867,-0.532977640629,1.53587830067,-0.902638435364,-2.44638729095,0.04,0.0,0.0,0.0,0.0,0.0,0.0,0.0,0.0,0.0,0.0,0.0,0.0,0.0,0.0,0.0
1.433480,-1.29552447796,0.885644853115,1.83746039867,-0.532977640629,1.53587830067,-0.902638435364,-2.44638729095,0.0398823529412,0.0,0.0,0.0,0.0,0.0,0.0,0.0,0.0,0.0,0.0,0.0,0.0,0.0,0.0,0.0
1.466992,-1.29552447796,0.885644853115,1.83746039867,-0.532977640629,1.53587830067,-0.902638435364,-2.44638729095,0.0398823529412,0.0,0.0,0.0,0.0,0.0,0.0,0.0,0.0,0.0,0.0,0.0,0.0,0.0,0.0,0.0
1.500116,-1.29552447796,0.885644853115,1.83746039867,-0.532977640629,1.53587830067,-0.902638435364,-2.44638729095,0.0398823529412,0.0,0.0,0.0,0.0,0.0,0.0,0.0,0.0,0.0,0.0,0.0,0.0,0.0,0.0,0.0
1.533471,-1.29552447796,0.885644853115,1.83746039867,-0.532977640629,1.53587830067,-0.902638435364,-2.44638729095,0.0398823529412,0.0,0.0,0.0,0.0,0.0,0.0,0.0,0.0,0.0,0.0,0.0,0.0,0.0,0.0,0.0
1.566798,-1.29552447796,0.885644853115,1.83746039867,-0.532977640629,1.53587830067,-0.902638435364,-2.44638729095,0.0398823529412,0.0,0.0,0.0,0.0,0.0,0.0,0.0,0.0,0.0,0.0,0.0,0.0,0.0,0.0,0.0
1.600154,-1.29552447796,0.885644853115,1.83746039867,-0.532977640629,1.53587830067,-0.902638435364,-2.44638729095,0.0398823529412,0.0,0.0,0.0,0.0,0.0,0.0,0.0,0.0,0.0,0.0,0.0,0.0,0.0,0.0,0.0
1.633514,-1.29552447796,0.885644853115,1.83746039867,-0.532977640629,1.53587830067,-0.902638435364,-2.44638729095,0.0398823529412,0.0,0.0,0.0,0.0,0.0,0.0,0.0,0.0,0.0,0.0,0.0,0.0,0.0,0.0,0.0
1.666814,-1.29552447796,0.885644853115,1.83746039867,-0.532977640629,1.53587830067,-0.902638435364,-2.44638729095,0.0398823529412,0.0,0.0,0.0,0.0,0.0,0.0,0.0,0.0,0.0,0.0,0.0,0.0,0.0,0.0,0.0
1.700151,-1.29552447796,0.885644853115,1.83746039867,-0.532977640629,1.53587830067,-0.902638435364,-2.44638729095,0.0398823529412,0.0,0.0,0.0,0.0,0.0,0.0,0.0,0.0,0.0,0.0,0.0,0.0,0.0,0.0,0.0
1.733504,-1.29552447796,0.885644853115,1.83746039867,-0.532977640629,1.53587830067,-0.902638435364,-2.44638729095,0.0398823529412,0.0,0.0,0.0,0.0,0.0,0.0,0.0,0.0,0.0,0.0,0.0,0.0,0.0,0.0,0.0
1.766830,-1.29552447796,0.885644853115,1.83746039867,-0.532977640629,1.53587830067,-0.902638435364,-2.44638729095,0.0398823529412,0.0,0.0,0.0,0.0,0.0,0.0,0.0,0.0,0.0,0.0,0.0,0.0,0.0,0.0,0.0
1.800124,-1.29552447796,0.885644853115,1.83746039867,-0.532977640629,1.53587830067,-0.902638435364,-2.44638729095,0.0398823529412,0.0,0.0,0.0,0.0,0.0,0.0,0.0,0.0,0.0,0.0,0.0,0.0,0.0,0.0,0.0
1.833467,-1.29552447796,0.885644853115,1.83746039867,-0.532977640629,1.53587830067,-0.902638435364,-2.44638729095,0.0398823529412,0.0,0.0,0.0,0.0,0.0,0.0,0.0,0.0,0.0,0.0,0.0,0.0,0.0,0.0,0.0
1.866835,-1.29552447796,0.885644853115,1.83746039867,-0.532977640629,1.53587830067,-0.902638435364,-2.44638729095,0.0398823529412,0.0,0.0,0.0,0.0,0.0,0.0,0.0,0.0,0.0,0.0,0.0,0.0,0.0,0.0,0.0
1.900110,-1.29552447796,0.885644853115,1.83746039867,-0.532977640629,1.53587830067,-0.902638435364,-2.44638729095,0.0398823529412,0.0,0.0,0.0,0.0,0.0,0.0,0.0,0.0,0.0,0.0,0.0,0.0,0.0,0.0,0.0
1.933447,-1.29552447796,0.885644853115,1.83746039867,-0.532977640629,1.53587830067,-0.902638435364,-2.44638729095,0.0398823529412,0.0,0.0,0.0,0.0,0.0,0.0,0.0,0.0,0.0,0.0,0.0,0.0,0.0,0.0,0.0
1.966799,-1.29552447796,0.885644853115,1.83746039867,-0.532977640629,1.53587830067,-0.902638435364,-2.44638729095,0.0398823529412,0.0,0.0,0.0,0.0,0.0,0.0,0.0,0.0,0.0,0.0,0.0,0.0,0.0,0.0,0.0
2.000109,-1.29552447796,0.885644853115,1.83746039867,-0.532977640629,1.53587830067,-0.902638435364,-2.44638729095,0.0398823529412,0.0,0.0,0.0,0.0,0.0,0.0,0.0,0.0,0.0,0.0,0.0,0.0,0.0,0.0,0.0
2.033449,-1.29552447796,0.885644853115,1.83746039867,-0.532977640629,1.53587830067,-0.902638435364,-2.44638729095,0.0398823529412,0.0,0.0,0.0,0.0,0.0,0.0,0.0,0.0,0.0,0.0,0.0,0.0,0.0,0.0,0.0
2.066888,-1.29552447796,0.885644853115,1.83746039867,-0.532977640629,1.53587830067,-0.902638435364,-2.44638729095,0.0398823529412,0.0,0.0,0.0,0.0,0.0,0.0,0.0,0.0,0.0,0.0,0.0,0.0,0.0,0.0,0.0
2.100293,-1.29552447796,0.885644853115,1.83746039867,-0.532977640629,1.53587830067,-0.902638435364,-2.44638729095,0.0398823529412,0.0,0.0,0.0,0.0,0.0,0.0,0.0,0.0,0.0,0.0,0.0,0.0,0.0,0.0,0.0
2.133498,-1.29552447796,0.885644853115,1.83746039867,-0.532977640629,1.53587830067,-0.902638435364,-2.44638729095,0.0398823529412,0.0,0.0,0.0,0.0,0.0,0.0,0.0,0.0,0.0,0.0,0.0,0.0,0.0,0.0,0.0
2.166811,-1.29552447796,0.885644853115,1.83746039867,-0.532977640629,1.53587830067,-0.902638435364,-2.44638729095,0.0398823529412,0.0,0.0,0.0,0.0,0.0,0.0,0.0,0.0,0.0,0.0,0.0,0.0,0.0,0.0,0.0
2.200142,-1.29552447796,0.885644853115,1.83746039867,-0.532977640629,1.53587830067,-0.902638435364,-2.44638729095,0.0398823529412,0.0,0.0,0.0,0.0,0.0,0.0,0.0,0.0,0.0,0.0,0.0,0.0,0.0,0.0,0.0
2.233462,-1.29552447796,0.885644853115,1.83746039867,-0.532977640629,1.53587830067,-0.902638435364,-2.44638729095,0.0398823529412,0.0,0.0,0.0,0.0,0.0,0.0,0.0,0.0,0.0,0.0,0.0,0.0,0.0,0.0,0.0
2.266824,-1.29552447796,0.885644853115,1.83746039867,-0.532977640629,1.53587830067,-0.902638435364,-2.44638729095,0.0398823529412,0.0,0.0,0.0,0.0,0.0,0.0,0.0,0.0,0.0,0.0,0.0,0.0,0.0,0.0,0.0
2.300165,-1.29552447796,0.885644853115,1.83746039867,-0.532977640629,1.53587830067,-0.902638435364,-2.44638729095,0.0398823529412,0.0,0.0,0.0,0.0,0.0,0.0,0.0,0.0,0.0,0.0,0.0,0.0,0.0,0.0,0.0
2.333494,-1.29552447796,0.885644853115,1.83746039867,-0.532977640629,1.53587830067,-0.902638435364,-2.44638729095,0.0398823529412,0.0,0.0,0.0,0.0,0.0,0.0,0.0,0.0,0.0,0.0,0.0,0.0,0.0,0.0,0.0
2.366802,-1.29552447796,0.885644853115,1.83746039867,-0.532977640629,1.53587830067,-0.902638435364,-2.44638729095,0.0398823529412,0.0,0.0,0.0,0.0,0.0,0.0,0.0,0.0,0.0,0.0,0.0,0.0,0.0,0.0,0.0
2.400139,-1.29552447796,0.885644853115,1.83746039867,-0.532977640629,1.53587830067,-0.902638435364,-2.44638729095,0.0398823529412,0.0,0.0,0.0,0.0,0.0,0.0,0.0,0.0,0.0,0.0,0.0,0.0,0.0,0.0,0.0
2.433460,-1.29552447796,0.885644853115,1.83746039867,-0.532977640629,1.53587830067,-0.902638435364,-2.44638729095,0.0398823529412,0.0,0.0,0.0,0.0,0.0,0.0,0.0,0.0,0.0,0.0,0.0,0.0,0.0,0.0,0.0
2.466849,-1.29552447796,0.885644853115,1.83746039867,-0.532977640629,1.53587830067,-0.902638435364,-2.44638729095,0.0398823529412,0.0,0.0,0.0,0.0,0.0,0.0,0.0,0.0,0.0,0.0,0.0,0.0,0.0,0.0,0.0
2.500180,-1.29552447796,0.885644853115,1.83746039867,-0.532977640629,1.53587830067,-0.902638435364,-2.44638729095,0.0398823529412,0.0,0.0,0.0,0.0,0.0,0.0,0.0,0.0,0.0,0.0,0.0,0.0,0.0,0.0,0.0
2.533478,-1.29552447796,0.885644853115,1.83746039867,-0.532977640629,1.53587830067,-0.902638435364,-2.44638729095,0.0398823529412,0.0,0.0,0.0,0.0,0.0,0.0,0.0,0.0,0.0,0.0,0.0,0.0,0.0,0.0,0.0
2.566808,-1.29552447796,0.885644853115,1.83746039867,-0.532977640629,1.53587830067,-0.902638435364,-2.44638729095,0.0398823529412,0.0,0.0,0.0,0.0,0.0,0.0,0.0,0.0,0.0,0.0,0.0,0.0,0.0,0.0,0.0
2.600451,-1.29552447796,0.885644853115,1.83746039867,-0.532977640629,1.53587830067,-0.902638435364,-2.44638729095,0.0398823529412,0.0,0.0,0.0,0.0,0.0,0.0,0.0,0.0,0.0,0.0,0.0,0.0,0.0,0.0,0.0
2.633501,-1.29552447796,0.885644853115,1.83746039867,-0.532977640629,1.53587830067,-0.902638435364,-2.44638729095,0.0398823529412,0.0,0.0,0.0,0.0,0.0,0.0,0.0,0.0,0.0,0.0,0.0,0.0,0.0,0.0,0.0
2.669011,-1.29552447796,0.885644853115,1.83746039867,-0.532977640629,1.53587830067,-0.902638435364,-2.44638729095,0.0398823529412,0.0,0.0,0.0,0.0,0.0,0.0,0.0,0.0,0.0,0.0,0.0,0.0,0.0,0.0,0.0
2.700137,-1.29552447796,0.885644853115,1.83746039867,-0.532977640629,1.53587830067,-0.902638435364,-2.44638729095,0.0398823529412,0.0,0.0,0.0,0.0,0.0,0.0,0.0,0.0,0.0,0.0,0.0,0.0,0.0,0.0,0.0
2.733466,-1.29552447796,0.885644853115,1.83746039867,-0.532977640629,1.53587830067,-0.902638435364,-2.44638729095,0.0398823529412,0.0,0.0,0.0,0.0,0.0,0.0,0.0,0.0,0.0,0.0,0.0,0.0,0.0,0.0,0.0
2.766979,-1.29552447796,0.885644853115,1.83746039867,-0.532977640629,1.53587830067,-0.902638435364,-2.44638729095,0.0398823529412,0.0,0.0,0.0,0.0,0.0,0.0,0.0,0.0,0.0,0.0,0.0,0.0,0.0,0.0,0.0
2.800142,-1.29552447796,0.885644853115,1.83746039867,-0.532977640629,1.53587830067,-0.902638435364,-2.44638729095,0.0398823529412,0.0,0.0,0.0,0.0,0.0,0.0,0.0,0.0,0.0,0.0,0.0,0.0,0.0,0.0,0.0
2.833481,-1.29552447796,0.885644853115,1.83746039867,-0.532977640629,1.53587830067,-0.902638435364,-2.44638729095,0.0398823529412,0.0,0.0,0.0,0.0,0.0,0.0,0.0,0.0,0.0,0.0,0.0,0.0,0.0,0.0,0.0
2.866864,-1.29552447796,0.885644853115,1.83746039867,-0.532977640629,1.53587830067,-0.902638435364,-2.44638729095,0.0398823529412,0.0,0.0,0.0,0.0,0.0,0.0,0.0,0.0,0.0,0.0,0.0,0.0,0.0,0.0,0.0
2.900218,-1.29552447796,0.885644853115,1.83746039867,-0.532977640629,1.53587830067,-0.902638435364,-2.44638729095,0.0398823529412,0.0,0.0,0.0,0.0,0.0,0.0,0.0,0.0,0.0,0.0,0.0,0.0,0.0,0.0,0.0
2.933512,-1.29552447796,0.885644853115,1.83746039867,-0.532977640629,1.53587830067,-0.902638435364,-2.44638729095,0.0398823529412,0.0,0.0,0.0,0.0,0.0,0.0,0.0,0.0,0.0,0.0,0.0,0.0,0.0,0.0,0.0
2.966822,-1.29552447796,0.885644853115,1.83746039867,-0.532977640629,1.53587830067,-0.902638435364,-2.44638729095,0.0398823529412,0.0,0.0,0.0,0.0,0.0,0.0,0.0,0.0,0.0,0.0,0.0,0.0,0.0,0.0,0.0
3.000274,-1.29552447796,0.885644853115,1.83746039867,-0.532977640629,1.53587830067,-0.902638435364,-2.44638729095,0.0398823529412,0.0,0.0,0.0,0.0,0.0,0.0,0.0,0.0,0.0,0.0,0.0,0.0,0.0,0.0,0.0
3.033468,-1.29552447796,0.885644853115,1.83746039867,-0.532977640629,1.53587830067,-0.902638435364,-2.44638729095,0.0398823529412,0.0,0.0,0.0,0.0,0.0,0.0,0.0,0.0,0.0,0.0,0.0,0.0,0.0,0.0,0.0
3.066824,-1.29552447796,0.885644853115,1.83746039867,-0.532977640629,1.53587830067,-0.902638435364,-2.44638729095,0.0398823529412,0.0,0.0,0.0,0.0,0.0,0.0,0.0,0.0,0.0,0.0,0.0,0.0,0.0,0.0,0.0
3.100214,-1.29552447796,0.885644853115,1.83746039867,-0.532977640629,1.53587830067,-0.902638435364,-2.44638729095,0.0398823529412,0.0,0.0,0.0,0.0,0.0,0.0,0.0,0.0,0.0,0.0,0.0,0.0,0.0,0.0,0.0
3.133496,-1.29552447796,0.885644853115,1.83746039867,-0.532977640629,1.53587830067,-0.902638435364,-2.44638729095,0.0398823529412,0.0,0.0,0.0,0.0,0.0,0.0,0.0,0.0,0.0,0.0,0.0,0.0,0.0,0.0,0.0
3.166829,-1.29552447796,0.885644853115,1.83746039867,-0.532977640629,1.53587830067,-0.902638435364,-2.44638729095,0.0398823529412,0.0,0.0,0.0,0.0,0.0,0.0,0.0,0.0,0.0,0.0,0.0,0.0,0.0,0.0,0.0
3.200295,-1.29552447796,0.885644853115,1.83746039867,-0.532977640629,1.53587830067,-0.902638435364,-2.44638729095,0.0398823529412,0.0,0.0,0.0,0.0,0.0,0.0,0.0,0.0,0.0,0.0,0.0,0.0,0.0,0.0,0.0
3.233484,-1.29552447796,0.885644853115,1.83746039867,-0.532977640629,1.53587830067,-0.902638435364,-2.44638729095,0.0398823529412,0.0,0.0,0.0,0.0,0.0,0.0,0.0,0.0,0.0,0.0,0.0,0.0,0.0,0.0,0.0
3.266822,-1.29552447796,0.885644853115,1.83746039867,-0.532977640629,1.53587830067,-0.902638435364,-2.44638729095,0.0398823529412,0.0,0.0,0.0,0.0,0.0,0.0,0.0,0.0,0.0,0.0,0.0,0.0,0.0,0.0,0.0
3.300144,-1.29552447796,0.885644853115,1.83746039867,-0.532977640629,1.53587830067,-0.902638435364,-2.44638729095,0.0398823529412,0.0,0.0,0.0,0.0,0.0,0.0,0.0,0.0,0.0,0.0,0.0,0.0,0.0,0.0,0.0
3.333505,-1.29552447796,0.885644853115,1.83746039867,-0.532977640629,1.53587830067,-0.902638435364,-2.44638729095,0.0398823529412,0.0,0.0,0.0,0.0,0.0,0.0,0.0,0.0,0.0,0.0,0.0,0.0,0.0,0.0,0.0
3.367262,-1.29552447796,0.885644853115,1.83746039867,-0.532977640629,1.53587830067,-0.902638435364,-2.44638729095,0.0398823529412,0.0,0.0,0.0,0.0,0.0,0.0,0.0,0.0,0.0,0.0,0.0,0.0,0.0,0.0,0.0
3.400138,-1.29552447796,0.885644853115,1.83746039867,-0.532977640629,1.53587830067,-0.902638435364,-2.44638729095,0.0398823529412,0.0,0.0,0.0,0.0,0.0,0.0,0.0,0.0,0.0,0.0,0.0,0.0,0.0,0.0,0.0
3.433498,-1.29552447796,0.885644853115,1.83746039867,-0.532977640629,1.53587830067,-0.902638435364,-2.44638729095,0.0398823529412,0.0,0.0,0.0,0.0,0.0,0.0,0.0,0.0,0.0,0.0,0.0,0.0,0.0,0.0,0.0
3.466825,-1.29552447796,0.885644853115,1.83746039867,-0.532977640629,1.53587830067,-0.902638435364,-2.44638729095,0.0398823529412,0.0,0.0,0.0,0.0,0.0,0.0,0.0,0.0,0.0,0.0,0.0,0.0,0.0,0.0,0.0
3.500116,-1.29552447796,0.885644853115,1.83746039867,-0.532977640629,1.53587830067,-0.902638435364,-2.44638729095,0.0398823529412,0.0,0.0,0.0,0.0,0.0,0.0,0.0,0.0,0.0,0.0,0.0,0.0,0.0,0.0,0.0
3.533515,-1.29552447796,0.885644853115,1.83746039867,-0.532977640629,1.53587830067,-0.902638435364,-2.44638729095,0.0398823529412,0.0,0.0,0.0,0.0,0.0,0.0,0.0,0.0,0.0,0.0,0.0,0.0,0.0,0.0,0.0
3.566832,-1.29552447796,0.885644853115,1.83746039867,-0.532977640629,1.53587830067,-0.902638435364,-2.44638729095,0.0398823529412,0.0,0.0,0.0,0.0,0.0,0.0,0.0,0.0,0.0,0.0,0.0,0.0,0.0,0.0,0.0
3.600307,-1.29552447796,0.885644853115,1.83746039867,-0.532977640629,1.53587830067,-0.902638435364,-2.44638729095,0.0398823529412,0.0,0.0,0.0,0.0,0.0,0.0,0.0,0.0,0.0,0.0,0.0,0.0,0.0,0.0,0.0
3.633454,-1.29552447796,0.885644853115,1.83746039867,-0.532977640629,1.53587830067,-0.902638435364,-2.44638729095,0.0398823529412,0.0,0.0,0.0,0.0,0.0,0.0,0.0,0.0,0.0,0.0,0.0,0.0,0.0,0.0,0.0
3.666815,-1.29552447796,0.885644853115,1.83746039867,-0.532977640629,1.53587830067,-0.902638435364,-2.44638729095,0.0398823529412,0.0,0.0,0.0,0.0,0.0,0.0,0.0,0.0,0.0,0.0,0.0,0.0,0.0,0.0,0.0
3.700121,-1.29552447796,0.885644853115,1.83746039867,-0.532977640629,1.53587830067,-0.902638435364,-2.44638729095,0.0398823529412,0.0,0.0,0.0,0.0,0.0,0.0,0.0,0.0,0.0,0.0,0.0,0.0,0.0,0.0,0.0
3.733464,-1.29552447796,0.885644853115,1.83746039867,-0.532977640629,1.53587830067,-0.902638435364,-2.44638729095,0.0398823529412,0.0,0.0,0.0,0.0,0.0,0.0,0.0,0.0,0.0,0.0,0.0,0.0,0.0,0.0,0.0
3.766862,-1.29552447796,0.885644853115,1.83746039867,-0.532977640629,1.53587830067,-0.902638435364,-2.44638729095,0.0398823529412,0.0,0.0,0.0,0.0,0.0,0.0,0.0,0.0,0.0,0.0,0.0,0.0,0.0,0.0,0.0
3.800154,-1.29552447796,0.885644853115,1.83746039867,-0.532977640629,1.53587830067,-0.902638435364,-2.44638729095,0.0398823529412,0.0,0.0,0.0,0.0,0.0,0.0,0.0,0.0,0.0,0.0,0.0,0.0,0.0,0.0,0.0
3.833483,-1.29552447796,0.885644853115,1.83746039867,-0.532977640629,1.53587830067,-0.902638435364,-2.44638729095,0.0398823529412,0.0,0.0,0.0,0.0,0.0,0.0,0.0,0.0,0.0,0.0,0.0,0.0,0.0,0.0,0.0
3.866810,-1.29552447796,0.885644853115,1.83746039867,-0.532977640629,1.53587830067,-0.902638435364,-2.44638729095,0.0398823529412,0.0,0.0,0.0,0.0,0.0,0.0,0.0,0.0,0.0,0.0,0.0,0.0,0.0,0.0,0.0
3.900170,-1.29552447796,0.885644853115,1.83746039867,-0.532977640629,1.53587830067,-0.902638435364,-2.44638729095,0.0398823529412,0.0,0.0,0.0,0.0,0.0,0.0,0.0,0.0,0.0,0.0,0.0,0.0,0.0,0.0,0.0
3.933509,-1.29552447796,0.885644853115,1.83746039867,-0.532977640629,1.53587830067,-0.902638435364,-2.44638729095,0.0398823529412,0.0,0.0,0.0,0.0,0.0,0.0,0.0,0.0,0.0,0.0,0.0,0.0,0.0,0.0,0.0
3.966956,-1.29552447796,0.885644853115,1.83746039867,-0.532977640629,1.53587830067,-0.902638435364,-2.44638729095,0.0398823529412,0.0,0.0,0.0,0.0,0.0,0.0,0.0,0.0,0.0,0.0,0.0,0.0,0.0,0.0,0.0
4.000444,-1.29552447796,0.885644853115,1.83746039867,-0.532977640629,1.53587830067,-0.902638435364,-2.44638729095,0.0398823529412,0.0,0.0,0.0,0.0,0.0,0.0,0.0,0.0,0.0,0.0,0.0,0.0,0.0,0.0,0.0
4.033483,-1.29552447796,0.885644853115,1.83746039867,-0.532977640629,1.53587830067,-0.902638435364,-2.44638729095,0.0398823529412,0.0,0.0,0.0,0.0,0.0,0.0,0.0,0.0,0.0,0.0,0.0,0.0,0.0,0.0,0.0
4.066797,-1.29552447796,0.885644853115,1.83746039867,-0.532977640629,1.53587830067,-0.902638435364,-2.44638729095,0.0398823529412,0.0,0.0,0.0,0.0,0.0,0.0,0.0,0.0,0.0,0.0,0.0,0.0,0.0,0.0,0.0
4.100134,-1.29552447796,0.885644853115,1.83746039867,-0.532977640629,1.53587830067,-0.902638435364,-2.44638729095,0.0398823529412,0.0,0.0,0.0,0.0,0.0,0.0,0.0,0.0,0.0,0.0,0.0,0.0,0.0,0.0,0.0
4.133503,-1.29552447796,0.885644853115,1.83746039867,-0.532977640629,1.53587830067,-0.902638435364,-2.44638729095,0.0398823529412,0.0,0.0,0.0,0.0,0.0,0.0,0.0,0.0,0.0,0.0,0.0,0.0,0.0,0.0,0.0
4.166827,-1.29552447796,0.885644853115,1.83746039867,-0.532977640629,1.53587830067,-0.902638435364,-2.44638729095,0.0398823529412,0.0,0.0,0.0,0.0,0.0,0.0,0.0,0.0,0.0,0.0,0.0,0.0,0.0,0.0,0.0
4.200126,-1.29552447796,0.885644853115,1.83746039867,-0.532977640629,1.53587830067,-0.902638435364,-2.44638729095,0.0398823529412,0.0,0.0,0.0,0.0,0.0,0.0,0.0,0.0,0.0,0.0,0.0,0.0,0.0,0.0,0.0
4.233413,-1.29552447796,0.885644853115,1.83746039867,-0.532977640629,1.53587830067,-0.902638435364,-2.44638729095,0.0398823529412,0.0,0.0,0.0,0.0,0.0,0.0,0.0,0.0,0.0,0.0,0.0,0.0,0.0,0.0,0.0
4.266816,-1.29552447796,0.885644853115,1.83746039867,-0.532977640629,1.53587830067,-0.902638435364,-2.44638729095,0.0398823529412,0.0,0.0,0.0,0.0,0.0,0.0,0.0,0.0,0.0,0.0,0.0,0.0,0.0,0.0,0.0
4.300352,-1.29552447796,0.885644853115,1.83746039867,-0.532977640629,1.53587830067,-0.902638435364,-2.44638729095,0.0398823529412,0.0,0.0,0.0,0.0,0.0,0.0,0.0,0.0,0.0,0.0,0.0,0.0,0.0,0.0,0.0
4.333490,-1.29552447796,0.885644853115,1.83746039867,-0.532977640629,1.53587830067,-0.902638435364,-2.44638729095,0.0398823529412,0.0,0.0,0.0,0.0,0.0,0.0,0.0,0.0,0.0,0.0,0.0,0.0,0.0,0.0,0.0
4.366835,-1.29552447796,0.885644853115,1.83746039867,-0.532977640629,1.53587830067,-0.902638435364,-2.44638729095,0.0398823529412,0.0,0.0,0.0,0.0,0.0,0.0,0.0,0.0,0.0,0.0,0.0,0.0,0.0,0.0,0.0
4.400372,-1.29552447796,0.885644853115,1.83746039867,-0.532977640629,1.53587830067,-0.902638435364,-2.44638729095,0.0398823529412,0.0,0.0,0.0,0.0,0.0,0.0,0.0,0.0,0.0,0.0,0.0,0.0,0.0,0.0,0.0
4.433502,-1.29552447796,0.885644853115,1.83746039867,-0.532977640629,1.53587830067,-0.902638435364,-2.44638729095,0.0398823529412,0.0,0.0,0.0,0.0,0.0,0.0,0.0,0.0,0.0,0.0,0.0,0.0,0.0,0.0,0.0
4.466825,-1.29552447796,0.885644853115,1.83746039867,-0.532977640629,1.53587830067,-0.902638435364,-2.44638729095,0.0398823529412,0.0,0.0,0.0,0.0,0.0,0.0,0.0,0.0,0.0,0.0,0.0,0.0,0.0,0.0,0.0
4.500133,-1.29552447796,0.885644853115,1.83746039867,-0.532977640629,1.53587830067,-0.902638435364,-2.44638729095,0.0398823529412,0.0,0.0,0.0,0.0,0.0,0.0,0.0,0.0,0.0,0.0,0.0,0.0,0.0,0.0,0.0
4.533479,-1.29552447796,0.885644853115,1.83746039867,-0.532977640629,1.53587830067,-0.902638435364,-2.44638729095,0.0398823529412,0.0,0.0,0.0,0.0,0.0,0.0,0.0,0.0,0.0,0.0,0.0,0.0,0.0,0.0,0.0
4.566826,-1.29552447796,0.885644853115,1.83746039867,-0.532977640629,1.53587830067,-0.902638435364,-2.44638729095,0.0398823529412,0.0,0.0,0.0,0.0,0.0,0.0,0.0,0.0,0.0,0.0,0.0,0.0,0.0,0.0,0.0
4.600132,-1.29552447796,0.885644853115,1.83746039867,-0.532977640629,1.53587830067,-0.902638435364,-2.44638729095,0.0398823529412,0.0,0.0,0.0,0.0,0.0,0.0,0.0,0.0,0.0,0.0,0.0,0.0,0.0,0.0,0.0
4.633488,-1.29552447796,0.885644853115,1.83746039867,-0.532977640629,1.53587830067,-0.902638435364,-2.44638729095,0.0398823529412,0.0,0.0,0.0,0.0,0.0,0.0,0.0,0.0,0.0,0.0,0.0,0.0,0.0,0.0,0.0
4.666830,-1.29552447796,0.885644853115,1.83746039867,-0.532977640629,1.53587830067,-0.902638435364,-2.44638729095,0.0398823529412,0.0,0.0,0.0,0.0,0.0,0.0,0.0,0.0,0.0,0.0,0.0,0.0,0.0,0.0,0.0
4.700157,-1.29552447796,0.885644853115,1.83746039867,-0.532977640629,1.53587830067,-0.902638435364,-2.44638729095,0.0398823529412,0.0,0.0,0.0,0.0,0.0,0.0,0.0,0.0,0.0,0.0,0.0,0.0,0.0,0.0,0.0
4.735873,-1.29552447796,0.885644853115,1.83746039867,-0.532977640629,1.53587830067,-0.902638435364,-2.44638729095,0.0398823529412,0.0,0.0,0.0,0.0,0.0,0.0,0.0,0.0,0.0,0.0,0.0,0.0,0.0,0.0,0.0
4.766834,-1.29552447796,0.885644853115,1.83746039867,-0.532977640629,1.53587830067,-0.902638435364,-2.44638729095,0.0398823529412,0.0,0.0,0.0,0.0,0.0,0.0,0.0,0.0,0.0,0.0,0.0,0.0,0.0,0.0,0.0
4.800154,-1.29552447796,0.885644853115,1.83746039867,-0.532977640629,1.53587830067,-0.902638435364,-2.44638729095,0.0398823529412,0.0,0.0,0.0,0.0,0.0,0.0,0.0,0.0,0.0,0.0,0.0,0.0,0.0,0.0,0.0
4.833542,-1.29552447796,0.885644853115,1.83746039867,-0.532977640629,1.53587830067,-0.902638435364,-2.44638729095,0.0398823529412,0.0,0.0,0.0,0.0,0.0,0.0,0.0,0.0,0.0,0.0,0.0,0.0,0.0,0.0,0.0
4.866797,-1.29552447796,0.885644853115,1.83746039867,-0.532977640629,1.53587830067,-0.902638435364,-2.44638729095,0.0398823529412,0.0,0.0,0.0,0.0,0.0,0.0,0.0,0.0,0.0,0.0,0.0,0.0,0.0,0.0,0.0
4.900177,-1.29552447796,0.885644853115,1.83746039867,-0.532977640629,1.53587830067,-0.902638435364,-2.44638729095,0.0398823529412,0.0,0.0,0.0,0.0,0.0,0.0,0.0,0.0,0.0,0.0,0.0,0.0,0.0,0.0,0.0
4.933455,-1.29552447796,0.885644853115,1.83746039867,-0.532977640629,1.53587830067,-0.902638435364,-2.44638729095,0.0398823529412,0.0,0.0,0.0,0.0,0.0,0.0,0.0,0.0,0.0,0.0,0.0,0.0,0.0,0.0,0.0
4.966825,-1.29552447796,0.885644853115,1.83746039867,-0.532977640629,1.53587830067,-0.902638435364,-2.44638729095,0.0398823529412,0.0,0.0,0.0,0.0,0.0,0.0,0.0,0.0,0.0,0.0,0.0,0.0,0.0,0.0,0.0
5.000144,-1.29552447796,0.885644853115,1.83746039867,-0.532977640629,1.53587830067,-0.902638435364,-2.44638729095,0.0398823529412,0.0,0.0,0.0,0.0,0.0,0.0,0.0,0.0,0.0,0.0,0.0,0.0,0.0,0.0,0.0
5.033478,-1.29552447796,0.885644853115,1.83746039867,-0.532977640629,1.53587830067,-0.902638435364,-2.44638729095,0.0398823529412,0.0,0.0,0.0,0.0,0.0,0.0,0.0,0.0,0.0,0.0,0.0,0.0,0.0,0.0,0.0
5.066813,-1.29552447796,0.885644853115,1.83746039867,-0.532977640629,1.53587830067,-0.902638435364,-2.44638729095,0.0398823529412,0.0,0.0,0.0,0.0,0.0,0.0,0.0,0.0,0.0,0.0,0.0,0.0,0.0,0.0,0.0
5.100066,-1.29552447796,0.885644853115,1.83746039867,-0.532977640629,1.53587830067,-0.902638435364,-2.44638729095,0.0398823529412,0.0,0.0,0.0,0.0,0.0,0.0,0.0,0.0,0.0,0.0,0.0,0.0,0.0,0.0,0.0
5.133510,-1.29552447796,0.885644853115,1.83746039867,-0.532977640629,1.53587830067,-0.902638435364,-2.44638729095,0.0398823529412,0.0,0.0,0.0,0.0,0.0,0.0,0.0,0.0,0.0,0.0,0.0,0.0,0.0,0.0,0.0
5.166833,-1.29552447796,0.885644853115,1.83746039867,-0.532977640629,1.53587830067,-0.902638435364,-2.44638729095,0.0398823529412,0.0,0.0,0.0,0.0,0.0,0.0,0.0,0.0,0.0,0.0,0.0,0.0,0.0,0.0,0.0
5.200137,-1.29552447796,0.885644853115,1.83746039867,-0.532977640629,1.53587830067,-0.902638435364,-2.44638729095,0.0398823529412,0.0,0.0,0.0,0.0,0.0,0.0,0.0,0.0,0.0,0.0,0.0,0.0,0.0,0.0,0.0
5.233463,-1.29552447796,0.885644853115,1.83746039867,-0.532977640629,1.53587830067,-0.902638435364,-2.44638729095,0.0398823529412,0.0,0.0,0.0,0.0,0.0,0.0,0.0,0.0,0.0,0.0,0.0,0.0,0.0,0.0,0.0
5.266819,-1.29552447796,0.885644853115,1.83746039867,-0.532977640629,1.53587830067,-0.902638435364,-2.44638729095,0.0398823529412,0.0,0.0,0.0,0.0,0.0,0.0,0.0,0.0,0.0,0.0,0.0,0.0,0.0,0.0,0.0
5.300194,-1.29552447796,0.885644853115,1.83746039867,-0.532977640629,1.53587830067,-0.902638435364,-2.44638729095,0.0398823529412,0.0,0.0,0.0,0.0,0.0,0.0,0.0,0.0,0.0,0.0,0.0,0.0,0.0,0.0,0.0
5.333468,-1.29552447796,0.885644853115,1.83746039867,-0.532977640629,1.53587830067,-0.902638435364,-2.44638729095,0.0398823529412,0.0,0.0,0.0,0.0,0.0,0.0,0.0,0.0,0.0,0.0,0.0,0.0,0.0,0.0,0.0
5.366841,-1.29552447796,0.885644853115,1.83746039867,-0.532977640629,1.53587830067,-0.902638435364,-2.44638729095,0.0398823529412,0.0,0.0,0.0,0.0,0.0,0.0,0.0,0.0,0.0,0.0,0.0,0.0,0.0,0.0,0.0
5.400120,-1.29552447796,0.885644853115,1.83746039867,-0.532977640629,1.53587830067,-0.902638435364,-2.44638729095,0.0398823529412,0.0,0.0,0.0,0.0,0.0,0.0,0.0,0.0,0.0,0.0,0.0,0.0,0.0,0.0,0.0
5.433534,-1.29552447796,0.885644853115,1.83746039867,-0.532977640629,1.53587830067,-0.902638435364,-2.44638729095,0.0398823529412,0.0,0.0,0.0,0.0,0.0,0.0,0.0,0.0,0.0,0.0,0.0,0.0,0.0,0.0,0.0
5.466849,-1.29552447796,0.885644853115,1.83746039867,-0.532977640629,1.53587830067,-0.902638435364,-2.44638729095,0.0398823529412,0.0,0.0,0.0,0.0,0.0,0.0,0.0,0.0,0.0,0.0,0.0,0.0,0.0,0.0,0.0
5.500560,-1.29552447796,0.885644853115,1.83746039867,-0.532977640629,1.53587830067,-0.902638435364,-2.44638729095,0.0398823529412,0.0,0.0,0.0,0.0,0.0,0.0,0.0,0.0,0.0,0.0,0.0,0.0,0.0,0.0,0.0
5.533485,-1.29552447796,0.885644853115,1.83746039867,-0.532977640629,1.53587830067,-0.902638435364,-2.44638729095,0.0398823529412,0.0,0.0,0.0,0.0,0.0,0.0,0.0,0.0,0.0,0.0,0.0,0.0,0.0,0.0,0.0
5.566797,-1.29552447796,0.885644853115,1.83746039867,-0.532977640629,1.53587830067,-0.902638435364,-2.44638729095,0.0398823529412,0.0,0.0,0.0,0.0,0.0,0.0,0.0,0.0,0.0,0.0,0.0,0.0,0.0,0.0,0.0
5.600161,-1.29552447796,0.885644853115,1.83746039867,-0.532977640629,1.53587830067,-0.902638435364,-2.44638729095,0.0398823529412,0.0,0.0,0.0,0.0,0.0,0.0,0.0,0.0,0.0,0.0,0.0,0.0,0.0,0.0,0.0
5.633513,-1.29552447796,0.885644853115,1.83746039867,-0.532977640629,1.53587830067,-0.902638435364,-2.44638729095,0.0398823529412,0.0,0.0,0.0,0.0,0.0,0.0,0.0,0.0,0.0,0.0,0.0,0.0,0.0,0.0,0.0
5.666785,-1.29552447796,0.885644853115,1.83746039867,-0.532977640629,1.53587830067,-0.902638435364,-2.44638729095,0.0398823529412,0.0,0.0,0.0,0.0,0.0,0.0,0.0,0.0,0.0,0.0,0.0,0.0,0.0,0.0,0.0
5.700235,-1.29552447796,0.885644853115,1.83746039867,-0.532977640629,1.53587830067,-0.902638435364,-2.44638729095,0.0398823529412,0.0,0.0,0.0,0.0,0.0,0.0,0.0,0.0,0.0,0.0,0.0,0.0,0.0,0.0,0.0
5.733524,-1.29552447796,0.885644853115,1.83746039867,-0.532977640629,1.53587830067,-0.902638435364,-2.44638729095,0.0398823529412,0.0,0.0,0.0,0.0,0.0,0.0,0.0,0.0,0.0,0.0,0.0,0.0,0.0,0.0,0.0
5.766834,-1.29552447796,0.885644853115,1.83746039867,-0.532977640629,1.53587830067,-0.902638435364,-2.44638729095,0.0398823529412,0.0,0.0,0.0,0.0,0.0,0.0,0.0,0.0,0.0,0.0,0.0,0.0,0.0,0.0,0.0
5.800114,-1.29552447796,0.885644853115,1.83746039867,-0.532977640629,1.53587830067,-0.902638435364,-2.44638729095,0.0398823529412,0.0,0.0,0.0,0.0,0.0,0.0,0.0,0.0,0.0,0.0,0.0,0.0,0.0,0.0,0.0
5.833494,-1.29552447796,0.885644853115,1.83746039867,-0.532977640629,1.53587830067,-0.902638435364,-2.44638729095,0.0398823529412,0.0,0.0,0.0,0.0,0.0,0.0,0.0,0.0,0.0,0.0,0.0,0.0,0.0,0.0,0.0
5.866782,-1.29552447796,0.885644853115,1.83746039867,-0.532977640629,1.53587830067,-0.902638435364,-2.44638729095,0.0398823529412,0.0,0.0,0.0,0.0,0.0,0.0,0.0,0.0,0.0,0.0,0.0,0.0,0.0,0.0,0.0
5.900330,-1.29552447796,0.885644853115,1.83746039867,-0.532977640629,1.53587830067,-0.902638435364,-2.44638729095,0.0398823529412,0.0,0.0,0.0,0.0,0.0,0.0,0.0,0.0,0.0,0.0,0.0,0.0,0.0,0.0,0.0
5.933483,-1.29552447796,0.885644853115,1.83746039867,-0.532977640629,1.53587830067,-0.902638435364,-2.44638729095,0.0398823529412,0.0,0.0,0.0,0.0,0.0,0.0,0.0,0.0,0.0,0.0,0.0,0.0,0.0,0.0,0.0
5.966813,-1.29552447796,0.885644853115,1.83746039867,-0.532977640629,1.53587830067,-0.902638435364,-2.44638729095,0.0398823529412,0.0,0.0,0.0,0.0,0.0,0.0,0.0,0.0,0.0,0.0,0.0,0.0,0.0,0.0,0.0
6.000152,-1.29552447796,0.885644853115,1.83746039867,-0.532977640629,1.53587830067,-0.902638435364,-2.44638729095,0.0398823529412,0.0,0.0,0.0,0.0,0.0,0.0,0.0,0.0,0.0,0.0,0.0,0.0,0.0,0.0,0.0
6.033504,-1.29552447796,0.885644853115,1.83746039867,-0.532977640629,1.53587830067,-0.902638435364,-2.44638729095,0.0398823529412,0.0,0.0,0.0,0.0,0.0,0.0,0.0,0.0,0.0,0.0,0.0,0.0,0.0,0.0,0.0
6.066796,-1.29552447796,0.885644853115,1.83746039867,-0.532977640629,1.53587830067,-0.902638435364,-2.44638729095,0.0398823529412,0.0,0.0,0.0,0.0,0.0,0.0,0.0,0.0,0.0,0.0,0.0,0.0,0.0,0.0,0.0
6.100084,-1.29552447796,0.885644853115,1.83746039867,-0.532977640629,1.53587830067,-0.902638435364,-2.44638729095,0.0398823529412,0.0,0.0,0.0,0.0,0.0,0.0,0.0,0.0,0.0,0.0,0.0,0.0,0.0,0.0,0.0
6.133447,-1.29552447796,0.885644853115,1.83746039867,-0.532977640629,1.53587830067,-0.902638435364,-2.44638729095,0.0398823529412,0.0,0.0,0.0,0.0,0.0,0.0,0.0,0.0,0.0,0.0,0.0,0.0,0.0,0.0,0.0
6.166816,-1.29552447796,0.885644853115,1.83746039867,-0.532977640629,1.53587830067,-0.902638435364,-2.44638729095,0.0398823529412,0.0,0.0,0.0,0.0,0.0,0.0,0.0,0.0,0.0,0.0,0.0,0.0,0.0,0.0,0.0
6.200160,-1.29552447796,0.885644853115,1.83746039867,-0.532977640629,1.53587830067,-0.902638435364,-2.44638729095,0.0398823529412,0.0,0.0,0.0,0.0,0.0,0.0,0.0,0.0,0.0,0.0,0.0,0.0,0.0,0.0,0.0
6.233474,-1.29552447796,0.885644853115,1.83746039867,-0.532977640629,1.53587830067,-0.902638435364,-2.44638729095,0.0398823529412,0.0,0.0,0.0,0.0,0.0,0.0,0.0,0.0,0.0,0.0,0.0,0.0,0.0,0.0,0.0
6.266827,-1.29552447796,0.885644853115,1.83746039867,-0.532977640629,1.53587830067,-0.902638435364,-2.44638729095,0.0398823529412,0.0,0.0,0.0,0.0,0.0,0.0,0.0,0.0,0.0,0.0,0.0,0.0,0.0,0.0,0.0
6.300148,-1.29552447796,0.885644853115,1.83746039867,-0.532977640629,1.53587830067,-0.902638435364,-2.44638729095,0.0398823529412,0.0,0.0,0.0,0.0,0.0,0.0,0.0,0.0,0.0,0.0,0.0,0.0,0.0,0.0,0.0
6.333527,-1.29552447796,0.885644853115,1.83746039867,-0.532977640629,1.53587830067,-0.902638435364,-2.44638729095,0.0398823529412,0.0,0.0,0.0,0.0,0.0,0.0,0.0,0.0,0.0,0.0,0.0,0.0,0.0,0.0,0.0
6.367977,-1.29552447796,0.885644853115,1.83746039867,-0.532977640629,1.53587830067,-0.902638435364,-2.44638729095,0.0398823529412,0.0,0.0,0.0,0.0,0.0,0.0,0.0,0.0,0.0,0.0,0.0,0.0,0.0,0.0,0.0
6.400212,-1.29552447796,0.885644853115,1.83746039867,-0.532977640629,1.53587830067,-0.902638435364,-2.44638729095,0.0398823529412,0.0,0.0,0.0,0.0,0.0,0.0,0.0,0.0,0.0,0.0,0.0,0.0,0.0,0.0,0.0
6.433479,-1.29552447796,0.885644853115,1.83746039867,-0.532977640629,1.53587830067,-0.902638435364,-2.44638729095,0.0398823529412,0.0,0.0,0.0,0.0,0.0,0.0,0.0,0.0,0.0,0.0,0.0,0.0,0.0,0.0,0.0
6.466821,-1.29552447796,0.885644853115,1.83746039867,-0.532977640629,1.53587830067,-0.902638435364,-2.44638729095,0.0398823529412,0.0,0.0,0.0,0.0,0.0,0.0,0.0,0.0,0.0,0.0,0.0,0.0,0.0,0.0,0.0
6.500280,-1.29552447796,0.885644853115,1.83746039867,-0.532977640629,1.53587830067,-0.902638435364,-2.44638729095,0.0398823529412,0.0,0.0,0.0,0.0,0.0,0.0,0.0,0.0,0.0,0.0,0.0,0.0,0.0,0.0,0.0
6.533497,-1.29552447796,0.885644853115,1.83746039867,-0.532977640629,1.53587830067,-0.902638435364,-2.44638729095,0.0398823529412,0.0,0.0,0.0,0.0,0.0,0.0,0.0,0.0,0.0,0.0,0.0,0.0,0.0,0.0,0.0
6.566872,-1.29552447796,0.885644853115,1.83746039867,-0.532977640629,1.53587830067,-0.902638435364,-2.44638729095,0.0398823529412,0.0,0.0,0.0,0.0,0.0,0.0,0.0,0.0,0.0,0.0,0.0,0.0,0.0,0.0,0.0
6.600728,-1.29552447796,0.885644853115,1.83746039867,-0.532977640629,1.53587830067,-0.902638435364,-2.44638729095,0.0398823529412,0.0,0.0,0.0,0.0,0.0,0.0,0.0,0.0,0.0,0.0,0.0,0.0,0.0,0.0,0.0
6.633527,-1.29552447796,0.885644853115,1.83746039867,-0.532977640629,1.53587830067,-0.902638435364,-2.44638729095,0.0398823529412,0.0,0.0,0.0,0.0,0.0,0.0,0.0,0.0,0.0,0.0,0.0,0.0,0.0,0.0,0.0
6.666805,-1.29552447796,0.885644853115,1.83746039867,-0.532977640629,1.53587830067,-0.902638435364,-2.44638729095,0.0398823529412,0.0,0.0,0.0,0.0,0.0,0.0,0.0,0.0,0.0,0.0,0.0,0.0,0.0,0.0,0.0
6.700136,-1.29552447796,0.885644853115,1.83746039867,-0.532977640629,1.53587830067,-0.902638435364,-2.44638729095,0.0398823529412,0.0,0.0,0.0,0.0,0.0,0.0,0.0,0.0,0.0,0.0,0.0,0.0,0.0,0.0,0.0
6.733453,-1.29552447796,0.885644853115,1.83746039867,-0.532977640629,1.53587830067,-0.902638435364,-2.44638729095,0.0398823529412,0.0,0.0,0.0,0.0,0.0,0.0,0.0,0.0,0.0,0.0,0.0,0.0,0.0,0.0,0.0
6.766814,-1.29552447796,0.885644853115,1.83746039867,-0.532977640629,1.53587830067,-0.902638435364,-2.44638729095,0.0398823529412,0.0,0.0,0.0,0.0,0.0,0.0,0.0,0.0,0.0,0.0,0.0,0.0,0.0,0.0,0.0
6.800108,-1.29552447796,0.885644853115,1.83746039867,-0.532977640629,1.53587830067,-0.902638435364,-2.44638729095,0.0398823529412,0.0,0.0,0.0,0.0,0.0,0.0,0.0,0.0,0.0,0.0,0.0,0.0,0.0,0.0,0.0
6.833484,-1.29552447796,0.885644853115,1.83746039867,-0.532977640629,1.53587830067,-0.902638435364,-2.44638729095,0.0398823529412,0.0,0.0,0.0,0.0,0.0,0.0,0.0,0.0,0.0,0.0,0.0,0.0,0.0,0.0,0.0
6.866816,-1.29552447796,0.885644853115,1.83746039867,-0.532977640629,1.53587830067,-0.902638435364,-2.44638729095,0.0398823529412,0.0,0.0,0.0,0.0,0.0,0.0,0.0,0.0,0.0,0.0,0.0,0.0,0.0,0.0,0.0
6.900109,-1.29552447796,0.885644853115,1.83746039867,-0.532977640629,1.53587830067,-0.902638435364,-2.44638729095,0.0398823529412,0.0,0.0,0.0,0.0,0.0,0.0,0.0,0.0,0.0,0.0,0.0,0.0,0.0,0.0,0.0
6.933443,-1.29552447796,0.885644853115,1.83746039867,-0.532977640629,1.53587830067,-0.902638435364,-2.44638729095,0.0398823529412,0.0,0.0,0.0,0.0,0.0,0.0,0.0,0.0,0.0,0.0,0.0,0.0,0.0,0.0,0.0
6.966818,-1.29552447796,0.885644853115,1.83746039867,-0.532977640629,1.53587830067,-0.902638435364,-2.44638729095,0.0398823529412,0.0,0.0,0.0,0.0,0.0,0.0,0.0,0.0,0.0,0.0,0.0,0.0,0.0,0.0,0.0
7.000115,-1.29552447796,0.885644853115,1.83746039867,-0.532977640629,1.53587830067,-0.902638435364,-2.44638729095,0.0398823529412,0.0,0.0,0.0,0.0,0.0,0.0,0.0,0.0,0.0,0.0,0.0,0.0,0.0,0.0,0.0
7.033483,-1.29552447796,0.885644853115,1.83746039867,-0.532977640629,1.53587830067,-0.902638435364,-2.44638729095,0.0398823529412,0.0,0.0,0.0,0.0,0.0,0.0,0.0,0.0,0.0,0.0,0.0,0.0,0.0,0.0,0.0
7.066837,-1.29552447796,0.885644853115,1.83746039867,-0.532977640629,1.53587830067,-0.902638435364,-2.44638729095,0.0398823529412,0.0,0.0,0.0,0.0,0.0,0.0,0.0,0.0,0.0,0.0,0.0,0.0,0.0,0.0,0.0
7.100121,-1.29552447796,0.885644853115,1.83746039867,-0.532977640629,1.53587830067,-0.902638435364,-2.44638729095,0.0398823529412,0.0,0.0,0.0,0.0,0.0,0.0,0.0,0.0,0.0,0.0,0.0,0.0,0.0,0.0,0.0
7.133548,-1.29552447796,0.885644853115,1.83746039867,-0.532977640629,1.53587830067,-0.902638435364,-2.44638729095,0.0398823529412,0.0,0.0,0.0,0.0,0.0,0.0,0.0,0.0,0.0,0.0,0.0,0.0,0.0,0.0,0.0
7.166852,-1.29552447796,0.885644853115,1.83746039867,-0.532977640629,1.53587830067,-0.902638435364,-2.44638729095,0.0398823529412,0.0,0.0,0.0,0.0,0.0,0.0,0.0,0.0,0.0,0.0,0.0,0.0,0.0,0.0,0.0
7.200132,-1.29552447796,0.885644853115,1.83746039867,-0.532977640629,1.53587830067,-0.902638435364,-2.44638729095,0.0398823529412,0.0,0.0,0.0,0.0,0.0,0.0,0.0,0.0,0.0,0.0,0.0,0.0,0.0,0.0,0.0
7.233590,-1.29552447796,0.885644853115,1.83746039867,-0.532977640629,1.53587830067,-0.902638435364,-2.44638729095,0.0398823529412,0.0,0.0,0.0,0.0,0.0,0.0,0.0,0.0,0.0,0.0,0.0,0.0,0.0,0.0,0.0
7.266833,-1.29552447796,0.885644853115,1.83746039867,-0.532977640629,1.53587830067,-0.902638435364,-2.44638729095,0.0398823529412,0.0,0.0,0.0,0.0,0.0,0.0,0.0,0.0,0.0,0.0,0.0,0.0,0.0,0.0,0.0
7.300136,-1.29552447796,0.885644853115,1.83746039867,-0.532977640629,1.53587830067,-0.902638435364,-2.44638729095,0.0398823529412,0.0,0.0,0.0,0.0,0.0,0.0,0.0,0.0,0.0,0.0,0.0,0.0,0.0,0.0,0.0
7.333463,-1.29552447796,0.885644853115,1.83746039867,-0.532977640629,1.53587830067,-0.902638435364,-2.44638729095,0.0398823529412,0.0,0.0,0.0,0.0,0.0,0.0,0.0,0.0,0.0,0.0,0.0,0.0,0.0,0.0,0.0
7.366811,-1.29552447796,0.885644853115,1.83746039867,-0.532977640629,1.53587830067,-0.902638435364,-2.44638729095,0.0398823529412,0.0,0.0,0.0,0.0,0.0,0.0,0.0,0.0,0.0,0.0,0.0,0.0,0.0,0.0,0.0
7.400137,-1.29552447796,0.885644853115,1.83746039867,-0.532977640629,1.53587830067,-0.902638435364,-2.44638729095,0.0398823529412,0.0,0.0,0.0,0.0,0.0,0.0,0.0,0.0,0.0,0.0,0.0,0.0,0.0,0.0,0.0
7.433486,-1.29552447796,0.885644853115,1.83746039867,-0.532977640629,1.53587830067,-0.902638435364,-2.44638729095,0.0398823529412,0.0,0.0,0.0,0.0,0.0,0.0,0.0,0.0,0.0,0.0,0.0,0.0,0.0,0.0,0.0
7.466922,-1.29552447796,0.885644853115,1.83746039867,-0.532977640629,1.53587830067,-0.902638435364,-2.44638729095,0.0398823529412,0.0,0.0,0.0,0.0,0.0,0.0,0.0,0.0,0.0,0.0,0.0,0.0,0.0,0.0,0.0
7.500132,-1.29552447796,0.885644853115,1.83746039867,-0.532977640629,1.53587830067,-0.902638435364,-2.44638729095,0.0398823529412,0.0,0.0,0.0,0.0,0.0,0.0,0.0,0.0,0.0,0.0,0.0,0.0,0.0,0.0,0.0
7.533482,-1.29552447796,0.885644853115,1.83746039867,-0.532977640629,1.53587830067,-0.902638435364,-2.44638729095,0.0398823529412,0.0,0.0,0.0,0.0,0.0,0.0,0.0,0.0,0.0,0.0,0.0,0.0,0.0,0.0,0.0
7.566819,-1.29552447796,0.885644853115,1.83746039867,-0.532977640629,1.53587830067,-0.902638435364,-2.44638729095,0.0398823529412,0.0,0.0,0.0,0.0,0.0,0.0,0.0,0.0,0.0,0.0,0.0,0.0,0.0,0.0,0.0
7.600116,-1.29552447796,0.885644853115,1.83746039867,-0.532977640629,1.53587830067,-0.902638435364,-2.44638729095,0.0398823529412,0.0,0.0,0.0,0.0,0.0,0.0,0.0,0.0,0.0,0.0,0.0,0.0,0.0,0.0,0.0
7.633467,-1.29552447796,0.885644853115,1.83746039867,-0.532977640629,1.53587830067,-0.902638435364,-2.44638729095,0.0398823529412,0.0,0.0,0.0,0.0,0.0,0.0,0.0,0.0,0.0,0.0,0.0,0.0,0.0,0.0,0.0
7.666825,-1.29552447796,0.885644853115,1.83746039867,-0.532977640629,1.53587830067,-0.902638435364,-2.44638729095,0.0398823529412,0.0,0.0,0.0,0.0,0.0,0.0,0.0,0.0,0.0,0.0,0.0,0.0,0.0,0.0,0.0
7.700171,-1.29552447796,0.885644853115,1.83746039867,-0.532977640629,1.53587830067,-0.902638435364,-2.44638729095,0.0398823529412,0.0,0.0,0.0,0.0,0.0,0.0,0.0,0.0,0.0,0.0,0.0,0.0,0.0,0.0,0.0
7.733495,-1.29552447796,0.885644853115,1.83746039867,-0.532977640629,1.53587830067,-0.902638435364,-2.44638729095,0.0398823529412,0.0,0.0,0.0,0.0,0.0,0.0,0.0,0.0,0.0,0.0,0.0,0.0,0.0,0.0,0.0
7.766790,-1.29552447796,0.885644853115,1.83746039867,-0.532977640629,1.53587830067,-0.902638435364,-2.44638729095,0.0398823529412,0.0,0.0,0.0,0.0,0.0,0.0,0.0,0.0,0.0,0.0,0.0,0.0,0.0,0.0,0.0
7.800122,-1.29552447796,0.885644853115,1.83746039867,-0.532977640629,1.53587830067,-0.902638435364,-2.44638729095,0.0398823529412,0.0,0.0,0.0,0.0,0.0,0.0,0.0,0.0,0.0,0.0,0.0,0.0,0.0,0.0,0.0
7.833633,-1.29552447796,0.885644853115,1.83746039867,-0.532977640629,1.53587830067,-0.902638435364,-2.44638729095,0.0398823529412,0.0,0.0,0.0,0.0,0.0,0.0,0.0,0.0,0.0,0.0,0.0,0.0,0.0,0.0,0.0
7.866868,-1.29552447796,0.885644853115,1.83746039867,-0.532977640629,1.53587830067,-0.902638435364,-2.44638729095,0.0398823529412,0.0,0.0,0.0,0.0,0.0,0.0,0.0,0.0,0.0,0.0,0.0,0.0,0.0,0.0,0.0
7.900183,-1.29552447796,0.885644853115,1.83746039867,-0.532977640629,1.53587830067,-0.902638435364,-2.44638729095,0.0398823529412,0.0,0.0,0.0,0.0,0.0,0.0,0.0,0.0,0.0,0.0,0.0,0.0,0.0,0.0,0.0
7.933471,-1.29552447796,0.885644853115,1.83746039867,-0.532977640629,1.53587830067,-0.902638435364,-2.44638729095,0.0398823529412,0.0,0.0,0.0,0.0,0.0,0.0,0.0,0.0,0.0,0.0,0.0,0.0,0.0,0.0,0.0
7.966847,-1.29552447796,0.885644853115,1.83746039867,-0.532977640629,1.53587830067,-0.902638435364,-2.44638729095,0.0398823529412,0.0,0.0,0.0,0.0,0.0,0.0,0.0,0.0,0.0,0.0,0.0,0.0,0.0,0.0,0.0
8.000263,-1.29552447796,0.885644853115,1.83746039867,-0.532977640629,1.53587830067,-0.902638435364,-2.44638729095,0.0398823529412,0.0,0.0,0.0,0.0,0.0,0.0,0.0,0.0,0.0,0.0,0.0,0.0,0.0,0.0,0.0
8.033452,-1.29552447796,0.885644853115,1.83746039867,-0.532977640629,1.53587830067,-0.902638435364,-2.44638729095,0.0398823529412,0.0,0.0,0.0,0.0,0.0,0.0,0.0,0.0,0.0,0.0,0.0,0.0,0.0,0.0,0.0
8.066818,-1.29552447796,0.885644853115,1.83746039867,-0.532977640629,1.53587830067,-0.902638435364,-2.44638729095,0.0398823529412,0.0,0.0,0.0,0.0,0.0,0.0,0.0,0.0,0.0,0.0,0.0,0.0,0.0,0.0,0.0
8.100114,-1.29552447796,0.885644853115,1.83746039867,-0.532977640629,1.53587830067,-0.902638435364,-2.44638729095,0.0398823529412,0.0,0.0,0.0,0.0,0.0,0.0,0.0,0.0,0.0,0.0,0.0,0.0,0.0,0.0,0.0
8.133494,-1.29552447796,0.885644853115,1.83746039867,-0.532977640629,1.53587830067,-0.902638435364,-2.44638729095,0.0398823529412,0.0,0.0,0.0,0.0,0.0,0.0,0.0,0.0,0.0,0.0,0.0,0.0,0.0,0.0,0.0
8.166831,-1.29552447796,0.885644853115,1.83746039867,-0.532977640629,1.53587830067,-0.902638435364,-2.44638729095,0.0398823529412,0.0,0.0,0.0,0.0,0.0,0.0,0.0,0.0,0.0,0.0,0.0,0.0,0.0,0.0,0.0
8.200113,-1.29552447796,0.885644853115,1.83746039867,-0.532977640629,1.53587830067,-0.902638435364,-2.44638729095,0.0398823529412,0.0,0.0,0.0,0.0,0.0,0.0,0.0,0.0,0.0,0.0,0.0,0.0,0.0,0.0,0.0
8.233472,-1.29552447796,0.885644853115,1.83746039867,-0.532977640629,1.53587830067,-0.902638435364,-2.44638729095,0.0398823529412,0.0,0.0,0.0,0.0,0.0,0.0,0.0,0.0,0.0,0.0,0.0,0.0,0.0,0.0,0.0
8.266837,-1.29552447796,0.885644853115,1.83746039867,-0.532977640629,1.53587830067,-0.902638435364,-2.44638729095,0.0398823529412,0.0,0.0,0.0,0.0,0.0,0.0,0.0,0.0,0.0,0.0,0.0,0.0,0.0,0.0,0.0
8.300137,-1.29552447796,0.885644853115,1.83746039867,-0.532977640629,1.53587830067,-0.902638435364,-2.44638729095,0.0398823529412,0.0,0.0,0.0,0.0,0.0,0.0,0.0,0.0,0.0,0.0,0.0,0.0,0.0,0.0,0.0
8.333499,-1.29552447796,0.885644853115,1.83746039867,-0.532977640629,1.53587830067,-0.902638435364,-2.44638729095,0.0398823529412,0.0,0.0,0.0,0.0,0.0,0.0,0.0,0.0,0.0,0.0,0.0,0.0,0.0,0.0,0.0
8.366800,-1.29552447796,0.885644853115,1.83746039867,-0.532977640629,1.53587830067,-0.902638435364,-2.44638729095,0.0398823529412,0.0,0.0,0.0,0.0,0.0,0.0,0.0,0.0,0.0,0.0,0.0,0.0,0.0,0.0,0.0
8.400152,-1.29552447796,0.885644853115,1.83746039867,-0.532977640629,1.53587830067,-0.902638435364,-2.44638729095,0.0398823529412,0.0,0.0,0.0,0.0,0.0,0.0,0.0,0.0,0.0,0.0,0.0,0.0,0.0,0.0,0.0
8.433585,-1.29552447796,0.885644853115,1.83746039867,-0.532977640629,1.53587830067,-0.902638435364,-2.44638729095,0.0398823529412,0.0,0.0,0.0,0.0,0.0,0.0,0.0,0.0,0.0,0.0,0.0,0.0,0.0,0.0,0.0
8.466831,-1.29552447796,0.885644853115,1.83746039867,-0.532977640629,1.53587830067,-0.902638435364,-2.44638729095,0.0398823529412,0.0,0.0,0.0,0.0,0.0,0.0,0.0,0.0,0.0,0.0,0.0,0.0,0.0,0.0,0.0
8.500185,-1.29552447796,0.885644853115,1.83746039867,-0.532977640629,1.53587830067,-0.902638435364,-2.44638729095,0.0398823529412,0.0,0.0,0.0,0.0,0.0,0.0,0.0,0.0,0.0,0.0,0.0,0.0,0.0,0.0,0.0
8.533452,-1.29552447796,0.885644853115,1.83746039867,-0.532977640629,1.53587830067,-0.902638435364,-2.44638729095,0.0398823529412,0.0,0.0,0.0,0.0,0.0,0.0,0.0,0.0,0.0,0.0,0.0,0.0,0.0,0.0,0.0
8.566810,-1.29552447796,0.885644853115,1.83746039867,-0.532977640629,1.53587830067,-0.902638435364,-2.44638729095,0.0398823529412,0.0,0.0,0.0,0.0,0.0,0.0,0.0,0.0,0.0,0.0,0.0,0.0,0.0,0.0,0.0
8.600161,-1.29552447796,0.885644853115,1.83746039867,-0.532977640629,1.53587830067,-0.902638435364,-2.44638729095,0.0398823529412,0.0,0.0,0.0,0.0,0.0,0.0,0.0,0.0,0.0,0.0,0.0,0.0,0.0,0.0,0.0
8.633511,-1.29552447796,0.885644853115,1.83746039867,-0.532977640629,1.53587830067,-0.902638435364,-2.44638729095,0.0398823529412,0.0,0.0,0.0,0.0,0.0,0.0,0.0,0.0,0.0,0.0,0.0,0.0,0.0,0.0,0.0
8.666902,-1.29552447796,0.885644853115,1.83746039867,-0.532977640629,1.53587830067,-0.902638435364,-2.44638729095,0.0398823529412,0.0,0.0,0.0,0.0,0.0,0.0,0.0,0.0,0.0,0.0,0.0,0.0,0.0,0.0,0.0
8.700308,-1.29552447796,0.885644853115,1.83746039867,-0.532977640629,1.53587830067,-0.902638435364,-2.44638729095,0.0398823529412,0.0,0.0,0.0,0.0,0.0,0.0,0.0,0.0,0.0,0.0,0.0,0.0,0.0,0.0,0.0
8.733491,-1.29552447796,0.885644853115,1.83746039867,-0.532977640629,1.53587830067,-0.902638435364,-2.44638729095,0.0398823529412,0.0,0.0,0.0,0.0,0.0,0.0,0.0,0.0,0.0,0.0,0.0,0.0,0.0,0.0,0.0
8.766815,-1.29552447796,0.885644853115,1.83746039867,-0.532977640629,1.53587830067,-0.902638435364,-2.44638729095,0.0398823529412,0.0,0.0,0.0,0.0,0.0,0.0,0.0,0.0,0.0,0.0,0.0,0.0,0.0,0.0,0.0
8.800117,-1.29552447796,0.885644853115,1.83746039867,-0.532977640629,1.53587830067,-0.902638435364,-2.44638729095,0.0398823529412,0.0,0.0,0.0,0.0,0.0,0.0,0.0,0.0,0.0,0.0,0.0,0.0,0.0,0.0,0.0
8.833453,-1.29552447796,0.885644853115,1.83746039867,-0.532977640629,1.53587830067,-0.902638435364,-2.44638729095,0.0398823529412,0.0,0.0,0.0,0.0,0.0,0.0,0.0,0.0,0.0,0.0,0.0,0.0,0.0,0.0,0.0
8.866863,-1.29552447796,0.885644853115,1.83746039867,-0.532977640629,1.53587830067,-0.902638435364,-2.44638729095,0.0398823529412,0.0,0.0,0.0,0.0,0.0,0.0,0.0,0.0,0.0,0.0,0.0,0.0,0.0,0.0,0.0
8.900129,-1.29552447796,0.885644853115,1.83746039867,-0.532977640629,1.53587830067,-0.902638435364,-2.44638729095,0.0398823529412,0.0,0.0,0.0,0.0,0.0,0.0,0.0,0.0,0.0,0.0,0.0,0.0,0.0,0.0,0.0
8.933487,-1.29552447796,0.885644853115,1.83746039867,-0.532977640629,1.53587830067,-0.902638435364,-2.44638729095,0.0398823529412,0.0,0.0,0.0,0.0,0.0,0.0,0.0,0.0,0.0,0.0,0.0,0.0,0.0,0.0,0.0
8.966776,-1.29552447796,0.885644853115,1.83746039867,-0.532977640629,1.53587830067,-0.902638435364,-2.44638729095,0.0398823529412,0.0,0.0,0.0,0.0,0.0,0.0,0.0,0.0,0.0,0.0,0.0,0.0,0.0,0.0,0.0
9.000118,-1.29552447796,0.885644853115,1.83746039867,-0.532977640629,1.53587830067,-0.902638435364,-2.44638729095,0.0398823529412,0.0,0.0,0.0,0.0,0.0,0.0,0.0,0.0,0.0,0.0,0.0,0.0,0.0,0.0,0.0
9.034475,-1.29552447796,0.885644853115,1.83746039867,-0.532977640629,1.53587830067,-0.902638435364,-2.44638729095,0.0398823529412,0.0,0.0,0.0,0.0,0.0,0.0,0.0,0.0,0.0,0.0,0.0,0.0,0.0,0.0,0.0
9.066781,-1.29552447796,0.885644853115,1.83746039867,-0.532977640629,1.53587830067,-0.902638435364,-2.44638729095,0.0398823529412,0.0,0.0,0.0,0.0,0.0,0.0,0.0,0.0,0.0,0.0,0.0,0.0,0.0,0.0,0.0
9.100135,-1.29552447796,0.885644853115,1.83746039867,-0.532977640629,1.53587830067,-0.902638435364,-2.44638729095,0.0398823529412,0.0,0.0,0.0,0.0,0.0,0.0,0.0,0.0,0.0,0.0,0.0,0.0,0.0,0.0,0.0
9.133470,-1.29552447796,0.885644853115,1.83746039867,-0.532977640629,1.53587830067,-0.902638435364,-2.44638729095,0.0398823529412,0.0,0.0,0.0,0.0,0.0,0.0,0.0,0.0,0.0,0.0,0.0,0.0,0.0,0.0,0.0
9.166822,-1.29552447796,0.885644853115,1.83746039867,-0.532977640629,1.53587830067,-0.902638435364,-2.44638729095,0.0398823529412,0.0,0.0,0.0,0.0,0.0,0.0,0.0,0.0,0.0,0.0,0.0,0.0,0.0,0.0,0.0
9.200183,-1.29552447796,0.885644853115,1.83746039867,-0.532977640629,1.53587830067,-0.902638435364,-2.44638729095,0.0398823529412,0.0,0.0,0.0,0.0,0.0,0.0,0.0,0.0,0.0,0.0,0.0,0.0,0.0,0.0,0.0
9.233453,-1.29552447796,0.885644853115,1.83746039867,-0.532977640629,1.53587830067,-0.902638435364,-2.44638729095,0.0398823529412,0.0,0.0,0.0,0.0,0.0,0.0,0.0,0.0,0.0,0.0,0.0,0.0,0.0,0.0,0.0
9.266810,-1.29552447796,0.885644853115,1.83746039867,-0.532977640629,1.53587830067,-0.902638435364,-2.44638729095,0.0398823529412,0.0,0.0,0.0,0.0,0.0,0.0,0.0,0.0,0.0,0.0,0.0,0.0,0.0,0.0,0.0
9.300124,-1.29552447796,0.885644853115,1.83746039867,-0.532977640629,1.53587830067,-0.902638435364,-2.44638729095,0.0398823529412,0.0,0.0,0.0,0.0,0.0,0.0,0.0,0.0,0.0,0.0,0.0,0.0,0.0,0.0,0.0
9.333465,-1.29552447796,0.885644853115,1.83746039867,-0.532977640629,1.53587830067,-0.902638435364,-2.44638729095,0.0398823529412,0.0,0.0,0.0,0.0,0.0,0.0,0.0,0.0,0.0,0.0,0.0,0.0,0.0,0.0,0.0
9.366829,-1.29552447796,0.885644853115,1.83746039867,-0.532977640629,1.53587830067,-0.902638435364,-2.44638729095,0.0398823529412,0.0,0.0,0.0,0.0,0.0,0.0,0.0,0.0,0.0,0.0,0.0,0.0,0.0,0.0,0.0
9.400117,-1.29552447796,0.885644853115,1.83746039867,-0.532977640629,1.53587830067,-0.902638435364,-2.44638729095,0.0398823529412,0.0,0.0,0.0,0.0,0.0,0.0,0.0,0.0,0.0,0.0,0.0,0.0,0.0,0.0,0.0
9.433547,-1.29552447796,0.885644853115,1.83746039867,-0.532977640629,1.53587830067,-0.902638435364,-2.44638729095,0.0398823529412,0.0,0.0,0.0,0.0,0.0,0.0,0.0,0.0,0.0,0.0,0.0,0.0,0.0,0.0,0.0
9.466922,-1.29552447796,0.885644853115,1.83746039867,-0.532977640629,1.53587830067,-0.902638435364,-2.44638729095,0.0398823529412,0.0,0.0,0.0,0.0,0.0,0.0,0.0,0.0,0.0,0.0,0.0,0.0,0.0,0.0,0.0
9.500249,-1.29552447796,0.885644853115,1.83746039867,-0.532977640629,1.53587830067,-0.902638435364,-2.44638729095,0.0398823529412,0.0,0.0,0.0,0.0,0.0,0.0,0.0,0.0,0.0,0.0,0.0,0.0,0.0,0.0,0.0
9.533481,-1.29552447796,0.885644853115,1.83746039867,-0.532977640629,1.53587830067,-0.902638435364,-2.44638729095,0.0398823529412,0.0,0.0,0.0,0.0,0.0,0.0,0.0,0.0,0.0,0.0,0.0,0.0,0.0,0.0,0.0
9.566828,-1.29552447796,0.885644853115,1.83746039867,-0.532977640629,1.53587830067,-0.902638435364,-2.44638729095,0.0398823529412,0.0,0.0,0.0,0.0,0.0,0.0,0.0,0.0,0.0,0.0,0.0,0.0,0.0,0.0,0.0
9.600105,-1.29552447796,0.885644853115,1.83746039867,-0.532977640629,1.53587830067,-0.902638435364,-2.44638729095,0.0398823529412,0.0,0.0,0.0,0.0,0.0,0.0,0.0,0.0,0.0,0.0,0.0,0.0,0.0,0.0,0.0
9.635457,-1.29552447796,0.885644853115,1.83746039867,-0.532977640629,1.53587830067,-0.902638435364,-2.44638729095,0.0398823529412,0.0,0.0,0.0,0.0,0.0,0.0,0.0,0.0,0.0,0.0,0.0,0.0,0.0,0.0,0.0
9.666794,-1.29552447796,0.885644853115,1.83746039867,-0.532977640629,1.53587830067,-0.902638435364,-2.44638729095,0.0398823529412,0.0,0.0,0.0,0.0,0.0,0.0,0.0,0.0,0.0,0.0,0.0,0.0,0.0,0.0,0.0
9.700163,-1.29552447796,0.885644853115,1.83746039867,-0.532977640629,1.53587830067,-0.902638435364,-2.44638729095,0.0398823529412,0.0,0.0,0.0,0.0,0.0,0.0,0.0,0.0,0.0,0.0,0.0,0.0,0.0,0.0,0.0
9.733455,-1.29552447796,0.885644853115,1.83746039867,-0.532977640629,1.53587830067,-0.902638435364,-2.44638729095,0.0398823529412,0.0,0.0,0.0,0.0,0.0,0.0,0.0,0.0,0.0,0.0,0.0,0.0,0.0,0.0,0.0
9.766805,-1.29552447796,0.885644853115,1.83746039867,-0.532977640629,1.53587830067,-0.902638435364,-2.44638729095,0.0398823529412,0.0,0.0,0.0,0.0,0.0,0.0,0.0,0.0,0.0,0.0,0.0,0.0,0.0,0.0,0.0
9.800060,-1.29552447796,0.885644853115,1.83746039867,-0.532977640629,1.53587830067,-0.902638435364,-2.44638729095,0.0398823529412,0.0,0.0,0.0,0.0,0.0,0.0,0.0,0.0,0.0,0.0,0.0,0.0,0.0,0.0,0.0
9.833460,-1.29552447796,0.885644853115,1.83746039867,-0.532977640629,1.53587830067,-0.902638435364,-2.44638729095,0.0398823529412,0.0,0.0,0.0,0.0,0.0,0.0,0.0,0.0,0.0,0.0,0.0,0.0,0.0,0.0,0.0
9.866795,-1.29552447796,0.885644853115,1.83746039867,-0.532977640629,1.53587830067,-0.902638435364,-2.44638729095,0.0398823529412,0.0,0.0,0.0,0.0,0.0,0.0,0.0,0.0,0.0,0.0,0.0,0.0,0.0,0.0,0.0
9.900170,-1.29552447796,0.885644853115,1.83746039867,-0.532977640629,1.53587830067,-0.902638435364,-2.44638729095,0.0398823529412,0.0,0.0,0.0,0.0,0.0,0.0,0.0,0.0,0.0,0.0,0.0,0.0,0.0,0.0,0.0
9.933487,-1.29552447796,0.885644853115,1.83746039867,-0.532977640629,1.53587830067,-0.902638435364,-2.44638729095,0.0398823529412,0.0,0.0,0.0,0.0,0.0,0.0,0.0,0.0,0.0,0.0,0.0,0.0,0.0,0.0,0.0
9.966797,-1.29552447796,0.885644853115,1.83746039867,-0.532977640629,1.53587830067,-0.902638435364,-2.44638729095,0.0398823529412,0.0,0.0,0.0,0.0,0.0,0.0,0.0,0.0,0.0,0.0,0.0,0.0,0.0,0.0,0.0
10.000346,-1.29552447796,0.885644853115,1.83746039867,-0.532977640629,1.53587830067,-0.902638435364,-2.44638729095,0.0398823529412,0.0,0.0,0.0,0.0,0.0,0.0,0.0,0.0,0.0,0.0,0.0,0.0,0.0,0.0,0.0
10.033498,-1.29552447796,0.885644853115,1.83746039867,-0.532977640629,1.53587830067,-0.902638435364,-2.44638729095,0.0398823529412,0.0,0.0,0.0,0.0,0.0,0.0,0.0,0.0,0.0,0.0,0.0,0.0,0.0,0.0,0.0
10.066847,-1.29552447796,0.885644853115,1.83746039867,-0.532977640629,1.53587830067,-0.902638435364,-2.44638729095,0.0398823529412,0.0,0.0,0.0,0.0,0.0,0.0,0.0,0.0,0.0,0.0,0.0,0.0,0.0,0.0,0.0
10.100143,-1.29552447796,0.885644853115,1.83746039867,-0.532977640629,1.53587830067,-0.902638435364,-2.44638729095,0.0398823529412,0.0,0.0,0.0,0.0,0.0,0.0,0.0,0.0,0.0,0.0,0.0,0.0,0.0,0.0,0.0
10.133474,-1.29552447796,0.885644853115,1.83746039867,-0.532977640629,1.53587830067,-0.902638435364,-2.44638729095,0.0398823529412,0.0,0.0,0.0,0.0,0.0,0.0,0.0,0.0,0.0,0.0,0.0,0.0,0.0,0.0,0.0
10.166814,-1.29552447796,0.885644853115,1.83746039867,-0.532977640629,1.53587830067,-0.902638435364,-2.44638729095,0.0398823529412,0.0,0.0,0.0,0.0,0.0,0.0,0.0,0.0,0.0,0.0,0.0,0.0,0.0,0.0,0.0
10.200314,-1.29552447796,0.885644853115,1.83746039867,-0.532977640629,1.53587830067,-0.902638435364,-2.44638729095,0.0398823529412,0.0,0.0,0.0,0.0,0.0,0.0,0.0,0.0,0.0,0.0,0.0,0.0,0.0,0.0,0.0
10.233470,-1.29552447796,0.885644853115,1.83746039867,-0.532977640629,1.53587830067,-0.902638435364,-2.44638729095,0.0398823529412,0.0,0.0,0.0,0.0,0.0,0.0,0.0,0.0,0.0,0.0,0.0,0.0,0.0,0.0,0.0
10.269016,-1.29552447796,0.885644853115,1.83746039867,-0.532977640629,1.53587830067,-0.902638435364,-2.44638729095,0.0398823529412,0.0,0.0,0.0,0.0,0.0,0.0,0.0,0.0,0.0,0.0,0.0,0.0,0.0,0.0,0.0
10.300244,-1.29552447796,0.885644853115,1.83746039867,-0.532977640629,1.53587830067,-0.902638435364,-2.44638729095,0.0398823529412,0.0,0.0,0.0,0.0,0.0,0.0,0.0,0.0,0.0,0.0,0.0,0.0,0.0,0.0,0.0
10.333484,-1.29552447796,0.885644853115,1.83746039867,-0.532977640629,1.53587830067,-0.902638435364,-2.44638729095,0.0398823529412,0.0,0.0,0.0,0.0,0.0,0.0,0.0,0.0,0.0,0.0,0.0,0.0,0.0,0.0,0.0
10.366802,-1.29552447796,0.885644853115,1.83746039867,-0.532977640629,1.53587830067,-0.902638435364,-2.44638729095,0.0398823529412,0.0,0.0,0.0,0.0,0.0,0.0,0.0,0.0,0.0,0.0,0.0,0.0,0.0,0.0,0.0
10.400646,-1.29552447796,0.885644853115,1.83746039867,-0.532977640629,1.53587830067,-0.902638435364,-2.44638729095,0.0398823529412,0.0,0.0,0.0,0.0,0.0,0.0,0.0,0.0,0.0,0.0,0.0,0.0,0.0,0.0,0.0
10.433503,-1.29552447796,0.885644853115,1.83746039867,-0.532977640629,1.53587830067,-0.902638435364,-2.44638729095,0.0398823529412,0.0,0.0,0.0,0.0,0.0,0.0,0.0,0.0,0.0,0.0,0.0,0.0,0.0,0.0,0.0
10.466801,-1.29552447796,0.885644853115,1.83746039867,-0.532977640629,1.53587830067,-0.902638435364,-2.44638729095,0.0398823529412,0.0,0.0,0.0,0.0,0.0,0.0,0.0,0.0,0.0,0.0,0.0,0.0,0.0,0.0,0.0
10.500185,-1.29552447796,0.885644853115,1.83746039867,-0.532977640629,1.53587830067,-0.902638435364,-2.44638729095,0.0398823529412,0.0,0.0,0.0,0.0,0.0,0.0,0.0,0.0,0.0,0.0,0.0,0.0,0.0,0.0,0.0
10.533465,-1.29552447796,0.885644853115,1.83746039867,-0.532977640629,1.53587830067,-0.902638435364,-2.44638729095,0.0398823529412,0.0,0.0,0.0,0.0,0.0,0.0,0.0,0.0,0.0,0.0,0.0,0.0,0.0,0.0,0.0
10.566833,-1.29552447796,0.885644853115,1.83746039867,-0.532977640629,1.53587830067,-0.902638435364,-2.44638729095,0.0398823529412,0.0,0.0,0.0,0.0,0.0,0.0,0.0,0.0,0.0,0.0,0.0,0.0,0.0,0.0,0.0
10.600254,-1.29552447796,0.885644853115,1.83746039867,-0.532977640629,1.53587830067,-0.902638435364,-2.44638729095,0.0398823529412,0.0,0.0,0.0,0.0,0.0,0.0,0.0,0.0,0.0,0.0,0.0,0.0,0.0,0.0,0.0
10.633499,-1.29552447796,0.885644853115,1.83746039867,-0.532977640629,1.53587830067,-0.902638435364,-2.44638729095,0.0398823529412,0.0,0.0,0.0,0.0,0.0,0.0,0.0,0.0,0.0,0.0,0.0,0.0,0.0,0.0,0.0
10.666815,-1.29552447796,0.885644853115,1.83746039867,-0.532977640629,1.53587830067,-0.902638435364,-2.44638729095,0.0398823529412,0.0,0.0,0.0,0.0,0.0,0.0,0.0,0.0,0.0,0.0,0.0,0.0,0.0,0.0,0.0
10.700141,-1.29552447796,0.885644853115,1.83746039867,-0.532977640629,1.53587830067,-0.902638435364,-2.44638729095,0.0398823529412,0.0,0.0,0.0,0.0,0.0,0.0,0.0,0.0,0.0,0.0,0.0,0.0,0.0,0.0,0.0
10.733480,-1.29552447796,0.885644853115,1.83746039867,-0.532977640629,1.53587830067,-0.902638435364,-2.44638729095,0.0398823529412,0.0,0.0,0.0,0.0,0.0,0.0,0.0,0.0,0.0,0.0,0.0,0.0,0.0,0.0,0.0
10.766877,-1.29552447796,0.885644853115,1.83746039867,-0.532977640629,1.53587830067,-0.902638435364,-2.44638729095,0.0398823529412,0.0,0.0,0.0,0.0,0.0,0.0,0.0,0.0,0.0,0.0,0.0,0.0,0.0,0.0,0.0
10.800123,-1.29552447796,0.885644853115,1.83746039867,-0.532977640629,1.53587830067,-0.902638435364,-2.44638729095,0.0398823529412,0.0,0.0,0.0,0.0,0.0,0.0,0.0,0.0,0.0,0.0,0.0,0.0,0.0,0.0,0.0
10.833492,-1.29552447796,0.885644853115,1.83746039867,-0.532977640629,1.53587830067,-0.902638435364,-2.44638729095,0.0398823529412,0.0,0.0,0.0,0.0,0.0,0.0,0.0,0.0,0.0,0.0,0.0,0.0,0.0,0.0,0.0
10.866824,-1.29552447796,0.885644853115,1.83746039867,-0.532977640629,1.53587830067,-0.902638435364,-2.44638729095,0.0398823529412,0.0,0.0,0.0,0.0,0.0,0.0,0.0,0.0,0.0,0.0,0.0,0.0,0.0,0.0,0.0
10.900328,-1.29552447796,0.885644853115,1.83746039867,-0.532977640629,1.53587830067,-0.902638435364,-2.44638729095,0.0398823529412,0.0,0.0,0.0,0.0,0.0,0.0,0.0,0.0,0.0,0.0,0.0,0.0,0.0,0.0,0.0
10.933486,-1.29552447796,0.885644853115,1.83746039867,-0.532977640629,1.53587830067,-0.902638435364,-2.44638729095,0.0398823529412,0.0,0.0,0.0,0.0,0.0,0.0,0.0,0.0,0.0,0.0,0.0,0.0,0.0,0.0,0.0
10.966781,-1.29552447796,0.885644853115,1.83746039867,-0.532977640629,1.53587830067,-0.902638435364,-2.44638729095,0.0398823529412,0.0,0.0,0.0,0.0,0.0,0.0,0.0,0.0,0.0,0.0,0.0,0.0,0.0,0.0,0.0
11.000146,-1.29552447796,0.885644853115,1.83746039867,-0.532977640629,1.53587830067,-0.902638435364,-2.44638729095,0.0398823529412,0.0,0.0,0.0,0.0,0.0,0.0,0.0,0.0,0.0,0.0,0.0,0.0,0.0,0.0,0.0
11.033498,-1.29552447796,0.885644853115,1.83746039867,-0.532977640629,1.53587830067,-0.902638435364,-2.44638729095,0.0398823529412,0.0,0.0,0.0,0.0,0.0,0.0,0.0,0.0,0.0,0.0,0.0,0.0,0.0,0.0,0.0
11.066811,-1.29552447796,0.885644853115,1.83746039867,-0.532977640629,1.53587830067,-0.902638435364,-2.44638729095,0.0398823529412,0.0,0.0,0.0,0.0,0.0,0.0,0.0,0.0,0.0,0.0,0.0,0.0,0.0,0.0,0.0
11.100219,-1.29552447796,0.885644853115,1.83746039867,-0.532977640629,1.53587830067,-0.902638435364,-2.44638729095,0.0398823529412,0.0,0.0,0.0,0.0,0.0,0.0,0.0,0.0,0.0,0.0,0.0,0.0,0.0,0.0,0.0
11.133477,-1.29552447796,0.885644853115,1.83746039867,-0.532977640629,1.53587830067,-0.902638435364,-2.44638729095,0.0398823529412,0.0,0.0,0.0,0.0,0.0,0.0,0.0,0.0,0.0,0.0,0.0,0.0,0.0,0.0,0.0
11.166824,-1.29552447796,0.885644853115,1.83746039867,-0.532977640629,1.53587830067,-0.902638435364,-2.44638729095,0.0398823529412,0.0,0.0,0.0,0.0,0.0,0.0,0.0,0.0,0.0,0.0,0.0,0.0,0.0,0.0,0.0
11.200152,-1.29552447796,0.885644853115,1.83746039867,-0.532977640629,1.53587830067,-0.902638435364,-2.44638729095,0.0398823529412,0.0,0.0,0.0,0.0,0.0,0.0,0.0,0.0,0.0,0.0,0.0,0.0,0.0,0.0,0.0
11.233456,-1.29552447796,0.885644853115,1.83746039867,-0.532977640629,1.53587830067,-0.902638435364,-2.44638729095,0.0398823529412,0.0,0.0,0.0,0.0,0.0,0.0,0.0,0.0,0.0,0.0,0.0,0.0,0.0,0.0,0.0
11.267662,-1.29552447796,0.885644853115,1.83746039867,-0.532977640629,1.53587830067,-0.902638435364,-2.44638729095,0.0398823529412,0.0,0.0,0.0,0.0,0.0,0.0,0.0,0.0,0.0,0.0,0.0,0.0,0.0,0.0,0.0
11.300133,-1.29552447796,0.885644853115,1.83746039867,-0.532977640629,1.53587830067,-0.902638435364,-2.44638729095,0.0398823529412,0.0,0.0,0.0,0.0,0.0,0.0,0.0,0.0,0.0,0.0,0.0,0.0,0.0,0.0,0.0
11.333453,-1.29552447796,0.885644853115,1.83746039867,-0.532977640629,1.53587830067,-0.902638435364,-2.44638729095,0.0398823529412,0.0,0.0,0.0,0.0,0.0,0.0,0.0,0.0,0.0,0.0,0.0,0.0,0.0,0.0,0.0
11.366812,-1.29552447796,0.885644853115,1.83746039867,-0.532977640629,1.53587830067,-0.902638435364,-2.44638729095,0.0398823529412,0.0,0.0,0.0,0.0,0.0,0.0,0.0,0.0,0.0,0.0,0.0,0.0,0.0,0.0,0.0
11.400112,-1.29552447796,0.885644853115,1.83746039867,-0.532977640629,1.53587830067,-0.902638435364,-2.44638729095,0.0398823529412,0.0,0.0,0.0,0.0,0.0,0.0,0.0,0.0,0.0,0.0,0.0,0.0,0.0,0.0,0.0
11.433485,-1.29552447796,0.885644853115,1.83746039867,-0.532977640629,1.53587830067,-0.902638435364,-2.44638729095,0.0398823529412,0.0,0.0,0.0,0.0,0.0,0.0,0.0,0.0,0.0,0.0,0.0,0.0,0.0,0.0,0.0
11.466813,-1.29552447796,0.885644853115,1.83746039867,-0.532977640629,1.53587830067,-0.902638435364,-2.44638729095,0.0398823529412,0.0,0.0,0.0,0.0,0.0,0.0,0.0,0.0,0.0,0.0,0.0,0.0,0.0,0.0,0.0
11.500166,-1.29552447796,0.885644853115,1.83746039867,-0.532977640629,1.53587830067,-0.902638435364,-2.44638729095,0.0398823529412,0.0,0.0,0.0,0.0,0.0,0.0,0.0,0.0,0.0,0.0,0.0,0.0,0.0,0.0,0.0
11.533463,-1.29552447796,0.885644853115,1.83746039867,-0.532977640629,1.53587830067,-0.902638435364,-2.44638729095,0.0398823529412,0.0,0.0,0.0,0.0,0.0,0.0,0.0,0.0,0.0,0.0,0.0,0.0,0.0,0.0,0.0
11.566811,-1.29552447796,0.885644853115,1.83746039867,-0.532977640629,1.53587830067,-0.902638435364,-2.44638729095,0.0398823529412,0.0,0.0,0.0,0.0,0.0,0.0,0.0,0.0,0.0,0.0,0.0,0.0,0.0,0.0,0.0
11.600381,-1.29552447796,0.885644853115,1.83746039867,-0.532977640629,1.53587830067,-0.902638435364,-2.44638729095,0.0398823529412,0.0,0.0,0.0,0.0,0.0,0.0,0.0,0.0,0.0,0.0,0.0,0.0,0.0,0.0,0.0
11.633476,-1.29552447796,0.885644853115,1.83746039867,-0.532977640629,1.53587830067,-0.902638435364,-2.44638729095,0.0398823529412,0.0,0.0,0.0,0.0,0.0,0.0,0.0,0.0,0.0,0.0,0.0,0.0,0.0,0.0,0.0
11.666799,-1.29552447796,0.885644853115,1.83746039867,-0.532977640629,1.53587830067,-0.902638435364,-2.44638729095,0.0398823529412,0.0,0.0,0.0,0.0,0.0,0.0,0.0,0.0,0.0,0.0,0.0,0.0,0.0,0.0,0.0
11.700387,-1.29552447796,0.885644853115,1.83746039867,-0.532977640629,1.53587830067,-0.902638435364,-2.44638729095,0.0398823529412,0.0,0.0,0.0,0.0,0.0,0.0,0.0,0.0,0.0,0.0,0.0,0.0,0.0,0.0,0.0
11.733512,-1.29552447796,0.885644853115,1.83746039867,-0.532977640629,1.53587830067,-0.902638435364,-2.44638729095,0.0398823529412,0.0,0.0,0.0,0.0,0.0,0.0,0.0,0.0,0.0,0.0,0.0,0.0,0.0,0.0,0.0
11.766812,-1.29552447796,0.885644853115,1.83746039867,-0.532977640629,1.53587830067,-0.902638435364,-2.44638729095,0.0398823529412,0.0,0.0,0.0,0.0,0.0,0.0,0.0,0.0,0.0,0.0,0.0,0.0,0.0,0.0,0.0
11.800101,-1.29552447796,0.885644853115,1.83746039867,-0.532977640629,1.53587830067,-0.902638435364,-2.44638729095,0.0398823529412,0.0,0.0,0.0,0.0,0.0,0.0,0.0,0.0,0.0,0.0,0.0,0.0,0.0,0.0,0.0
11.833480,-1.29552447796,0.885644853115,1.83746039867,-0.532977640629,1.53587830067,-0.902638435364,-2.44638729095,0.0398823529412,0.0,0.0,0.0,0.0,0.0,0.0,0.0,0.0,0.0,0.0,0.0,0.0,0.0,0.0,0.0
11.866783,-1.29552447796,0.885644853115,1.83746039867,-0.532977640629,1.53587830067,-0.902638435364,-2.44638729095,0.0398823529412,0.0,0.0,0.0,0.0,0.0,0.0,0.0,0.0,0.0,0.0,0.0,0.0,0.0,0.0,0.0
11.900137,-1.29552447796,0.885644853115,1.83746039867,-0.532977640629,1.53587830067,-0.902638435364,-2.44638729095,0.0398823529412,0.0,0.0,0.0,0.0,0.0,0.0,0.0,0.0,0.0,0.0,0.0,0.0,0.0,0.0,0.0
11.933487,-1.29552447796,0.885644853115,1.83746039867,-0.532977640629,1.53587830067,-0.902638435364,-2.44638729095,0.0398823529412,0.0,0.0,0.0,0.0,0.0,0.0,0.0,0.0,0.0,0.0,0.0,0.0,0.0,0.0,0.0
11.966800,-1.29552447796,0.885644853115,1.83746039867,-0.532977640629,1.53587830067,-0.902638435364,-2.44638729095,0.0398823529412,0.0,0.0,0.0,0.0,0.0,0.0,0.0,0.0,0.0,0.0,0.0,0.0,0.0,0.0,0.0
12.000201,-1.29552447796,0.885644853115,1.83746039867,-0.532977640629,1.53587830067,-0.902638435364,-2.44638729095,0.0398823529412,0.0,0.0,0.0,0.0,0.0,0.0,0.0,0.0,0.0,0.0,0.0,0.0,0.0,0.0,0.0
12.033454,-1.29552447796,0.885644853115,1.83746039867,-0.532977640629,1.53587830067,-0.902638435364,-2.44638729095,0.0398823529412,0.0,0.0,0.0,0.0,0.0,0.0,0.0,0.0,0.0,0.0,0.0,0.0,0.0,0.0,0.0
12.066815,-1.29552447796,0.885644853115,1.83746039867,-0.532977640629,1.53587830067,-0.902638435364,-2.44638729095,0.0398823529412,0.0,0.0,0.0,0.0,0.0,0.0,0.0,0.0,0.0,0.0,0.0,0.0,0.0,0.0,0.0
12.100130,-1.29552447796,0.885644853115,1.83746039867,-0.532977640629,1.53587830067,-0.902638435364,-2.44638729095,0.0398823529412,0.0,0.0,0.0,0.0,0.0,0.0,0.0,0.0,0.0,0.0,0.0,0.0,0.0,0.0,0.0
12.133459,-1.29552447796,0.885644853115,1.83746039867,-0.532977640629,1.53587830067,-0.902638435364,-2.44638729095,0.0398823529412,0.0,0.0,0.0,0.0,0.0,0.0,0.0,0.0,0.0,0.0,0.0,0.0,0.0,0.0,0.0
12.166827,-1.29552447796,0.885644853115,1.83746039867,-0.532977640629,1.53587830067,-0.902638435364,-2.44638729095,0.0398823529412,0.0,0.0,0.0,0.0,0.0,0.0,0.0,0.0,0.0,0.0,0.0,0.0,0.0,0.0,0.0
12.200116,-1.29552447796,0.885644853115,1.83746039867,-0.532977640629,1.53587830067,-0.902638435364,-2.44638729095,0.0398823529412,0.0,0.0,0.0,0.0,0.0,0.0,0.0,0.0,0.0,0.0,0.0,0.0,0.0,0.0,0.0
12.233480,-1.29552447796,0.885644853115,1.83746039867,-0.532977640629,1.53587830067,-0.902638435364,-2.44638729095,0.0398823529412,0.0,0.0,0.0,0.0,0.0,0.0,0.0,0.0,0.0,0.0,0.0,0.0,0.0,0.0,0.0
12.266789,-1.29552447796,0.885644853115,1.83746039867,-0.532977640629,1.53587830067,-0.902638435364,-2.44638729095,0.0398823529412,0.0,0.0,0.0,0.0,0.0,0.0,0.0,0.0,0.0,0.0,0.0,0.0,0.0,0.0,0.0
12.300101,-1.29552447796,0.885644853115,1.83746039867,-0.532977640629,1.53587830067,-0.902638435364,-2.44638729095,0.0398823529412,0.0,0.0,0.0,0.0,0.0,0.0,0.0,0.0,0.0,0.0,0.0,0.0,0.0,0.0,0.0
12.333444,-1.29552447796,0.885644853115,1.83746039867,-0.532977640629,1.53587830067,-0.902638435364,-2.44638729095,0.0398823529412,0.0,0.0,0.0,0.0,0.0,0.0,0.0,0.0,0.0,0.0,0.0,0.0,0.0,0.0,0.0
12.366795,-1.29552447796,0.885644853115,1.83746039867,-0.532977640629,1.53587830067,-0.902638435364,-2.44638729095,0.0398823529412,0.0,0.0,0.0,0.0,0.0,0.0,0.0,0.0,0.0,0.0,0.0,0.0,0.0,0.0,0.0
12.400103,-1.29552447796,0.885644853115,1.83746039867,-0.532977640629,1.53587830067,-0.902638435364,-2.44638729095,0.0398823529412,0.0,0.0,0.0,0.0,0.0,0.0,0.0,0.0,0.0,0.0,0.0,0.0,0.0,0.0,0.0
12.433433,-1.29552447796,0.885644853115,1.83746039867,-0.532977640629,1.53587830067,-0.902638435364,-2.44638729095,0.0398823529412,0.0,0.0,0.0,0.0,0.0,0.0,0.0,0.0,0.0,0.0,0.0,0.0,0.0,0.0,0.0
12.466791,-1.29552447796,0.885644853115,1.83746039867,-0.532977640629,1.53587830067,-0.902638435364,-2.44638729095,0.0398823529412,0.0,0.0,0.0,0.0,0.0,0.0,0.0,0.0,0.0,0.0,0.0,0.0,0.0,0.0,0.0
12.500100,-1.29552447796,0.885644853115,1.83746039867,-0.532977640629,1.53587830067,-0.902638435364,-2.44638729095,0.0398823529412,0.0,0.0,0.0,0.0,0.0,0.0,0.0,0.0,0.0,0.0,0.0,0.0,0.0,0.0,0.0
12.533454,-1.29552447796,0.885644853115,1.83746039867,-0.532977640629,1.53587830067,-0.902638435364,-2.44638729095,0.0398823529412,0.0,0.0,0.0,0.0,0.0,0.0,0.0,0.0,0.0,0.0,0.0,0.0,0.0,0.0,0.0
12.566767,-1.29552447796,0.885644853115,1.83746039867,-0.532977640629,1.53587830067,-0.902638435364,-2.44638729095,0.0398823529412,0.0,0.0,0.0,0.0,0.0,0.0,0.0,0.0,0.0,0.0,0.0,0.0,0.0,0.0,0.0
12.600101,-1.29552447796,0.885644853115,1.83746039867,-0.532977640629,1.53587830067,-0.902638435364,-2.44638729095,0.0398823529412,0.0,0.0,0.0,0.0,0.0,0.0,0.0,0.0,0.0,0.0,0.0,0.0,0.0,0.0,0.0
12.633448,-1.29552447796,0.885644853115,1.83746039867,-0.532977640629,1.53587830067,-0.902638435364,-2.44638729095,0.0398823529412,0.0,0.0,0.0,0.0,0.0,0.0,0.0,0.0,0.0,0.0,0.0,0.0,0.0,0.0,0.0
12.666802,-1.29552447796,0.885644853115,1.83746039867,-0.532977640629,1.53587830067,-0.902638435364,-2.44638729095,0.0398823529412,0.0,0.0,0.0,0.0,0.0,0.0,0.0,0.0,0.0,0.0,0.0,0.0,0.0,0.0,0.0
12.700112,-1.29552447796,0.885644853115,1.83746039867,-0.532977640629,1.53587830067,-0.902638435364,-2.44638729095,0.0398823529412,0.0,0.0,0.0,0.0,0.0,0.0,0.0,0.0,0.0,0.0,0.0,0.0,0.0,0.0,0.0
12.733500,-1.29552447796,0.885644853115,1.83746039867,-0.532977640629,1.53587830067,-0.902638435364,-2.44638729095,0.0398823529412,0.0,0.0,0.0,0.0,0.0,0.0,0.0,0.0,0.0,0.0,0.0,0.0,0.0,0.0,0.0
12.766794,-1.29552447796,0.885644853115,1.83746039867,-0.532977640629,1.53587830067,-0.902638435364,-2.44638729095,0.0398823529412,0.0,0.0,0.0,0.0,0.0,0.0,0.0,0.0,0.0,0.0,0.0,0.0,0.0,0.0,0.0
12.800108,-1.29552447796,0.885644853115,1.83746039867,-0.532977640629,1.53587830067,-0.902638435364,-2.44638729095,0.0398823529412,0.0,0.0,0.0,0.0,0.0,0.0,0.0,0.0,0.0,0.0,0.0,0.0,0.0,0.0,0.0
12.833448,-1.29552447796,0.885644853115,1.83746039867,-0.532977640629,1.53587830067,-0.902638435364,-2.44638729095,0.0398823529412,0.0,0.0,0.0,0.0,0.0,0.0,0.0,0.0,0.0,0.0,0.0,0.0,0.0,0.0,0.0
12.866786,-1.29552447796,0.885644853115,1.83746039867,-0.532977640629,1.53587830067,-0.902638435364,-2.44638729095,0.0398823529412,0.0,0.0,0.0,0.0,0.0,0.0,0.0,0.0,0.0,0.0,0.0,0.0,0.0,0.0,0.0
12.900127,-1.29552447796,0.885644853115,1.83746039867,-0.532977640629,1.53587830067,-0.902638435364,-2.44638729095,0.0398823529412,0.0,0.0,0.0,0.0,0.0,0.0,0.0,0.0,0.0,0.0,0.0,0.0,0.0,0.0,0.0
12.933452,-1.29552447796,0.885644853115,1.83746039867,-0.532977640629,1.53587830067,-0.902638435364,-2.44638729095,0.0398823529412,0.0,0.0,0.0,0.0,0.0,0.0,0.0,0.0,0.0,0.0,0.0,0.0,0.0,0.0,0.0
12.966788,-1.29552447796,0.885644853115,1.83746039867,-0.532977640629,1.53587830067,-0.902638435364,-2.44638729095,0.0398823529412,0.0,0.0,0.0,0.0,0.0,0.0,0.0,0.0,0.0,0.0,0.0,0.0,0.0,0.0,0.0
13.000131,-1.29552447796,0.885644853115,1.83746039867,-0.532977640629,1.53587830067,-0.902638435364,-2.44638729095,0.0398823529412,0.0,0.0,0.0,0.0,0.0,0.0,0.0,0.0,0.0,0.0,0.0,0.0,0.0,0.0,0.0
13.033443,-1.29552447796,0.885644853115,1.83746039867,-0.532977640629,1.53587830067,-0.902638435364,-2.44638729095,0.0398823529412,0.0,0.0,0.0,0.0,0.0,0.0,0.0,0.0,0.0,0.0,0.0,0.0,0.0,0.0,0.0
13.066795,-1.29552447796,0.885644853115,1.83746039867,-0.532977640629,1.53587830067,-0.902638435364,-2.44638729095,0.0398823529412,0.0,0.0,0.0,0.0,0.0,0.0,0.0,0.0,0.0,0.0,0.0,0.0,0.0,0.0,0.0
13.100108,-1.29552447796,0.885644853115,1.83746039867,-0.532977640629,1.53587830067,-0.902638435364,-2.44638729095,0.0398823529412,0.0,0.0,0.0,0.0,0.0,0.0,0.0,0.0,0.0,0.0,0.0,0.0,0.0,0.0,0.0
13.133435,-1.29552447796,0.885644853115,1.83746039867,-0.532977640629,1.53587830067,-0.902638435364,-2.44638729095,0.0398823529412,0.0,0.0,0.0,0.0,0.0,0.0,0.0,0.0,0.0,0.0,0.0,0.0,0.0,0.0,0.0
13.166776,-1.29552447796,0.885644853115,1.83746039867,-0.532977640629,1.53587830067,-0.902638435364,-2.44638729095,0.0398823529412,0.0,0.0,0.0,0.0,0.0,0.0,0.0,0.0,0.0,0.0,0.0,0.0,0.0,0.0,0.0
13.200113,-1.29552447796,0.885644853115,1.83746039867,-0.532977640629,1.53587830067,-0.902638435364,-2.44638729095,0.0398823529412,0.0,0.0,0.0,0.0,0.0,0.0,0.0,0.0,0.0,0.0,0.0,0.0,0.0,0.0,0.0
13.233441,-1.29552447796,0.885644853115,1.83746039867,-0.532977640629,1.53587830067,-0.902638435364,-2.44638729095,0.0398823529412,0.0,0.0,0.0,0.0,0.0,0.0,0.0,0.0,0.0,0.0,0.0,0.0,0.0,0.0,0.0
13.266775,-1.29552447796,0.885644853115,1.83746039867,-0.532977640629,1.53587830067,-0.902638435364,-2.44638729095,0.0398823529412,0.0,0.0,0.0,0.0,0.0,0.0,0.0,0.0,0.0,0.0,0.0,0.0,0.0,0.0,0.0
13.300105,-1.29552447796,0.885644853115,1.83746039867,-0.532977640629,1.53587830067,-0.902638435364,-2.44638729095,0.0398823529412,0.0,0.0,0.0,0.0,0.0,0.0,0.0,0.0,0.0,0.0,0.0,0.0,0.0,0.0,0.0
13.333507,-1.29552447796,0.885644853115,1.83746039867,-0.532977640629,1.53587830067,-0.902638435364,-2.44638729095,0.0398823529412,0.0,0.0,0.0,0.0,0.0,0.0,0.0,0.0,0.0,0.0,0.0,0.0,0.0,0.0,0.0
13.366791,-1.29552447796,0.885644853115,1.83746039867,-0.532977640629,1.53587830067,-0.902638435364,-2.44638729095,0.0398823529412,0.0,0.0,0.0,0.0,0.0,0.0,0.0,0.0,0.0,0.0,0.0,0.0,0.0,0.0,0.0
13.400098,-1.29552447796,0.885644853115,1.83746039867,-0.532977640629,1.53587830067,-0.902638435364,-2.44638729095,0.0398823529412,0.0,0.0,0.0,0.0,0.0,0.0,0.0,0.0,0.0,0.0,0.0,0.0,0.0,0.0,0.0
13.433435,-1.29552447796,0.885644853115,1.83746039867,-0.532977640629,1.53587830067,-0.902638435364,-2.44638729095,0.0398823529412,0.0,0.0,0.0,0.0,0.0,0.0,0.0,0.0,0.0,0.0,0.0,0.0,0.0,0.0,0.0
13.466790,-1.29552447796,0.885644853115,1.83746039867,-0.532977640629,1.53587830067,-0.902638435364,-2.44638729095,0.0398823529412,0.0,0.0,0.0,0.0,0.0,0.0,0.0,0.0,0.0,0.0,0.0,0.0,0.0,0.0,0.0
13.500104,-1.29552447796,0.885644853115,1.83746039867,-0.532977640629,1.53587830067,-0.902638435364,-2.44638729095,0.0398823529412,0.0,0.0,0.0,0.0,0.0,0.0,0.0,0.0,0.0,0.0,0.0,0.0,0.0,0.0,0.0
13.533488,-1.29552447796,0.885644853115,1.83746039867,-0.532977640629,1.53587830067,-0.902638435364,-2.44638729095,0.0398823529412,0.0,0.0,0.0,0.0,0.0,0.0,0.0,0.0,0.0,0.0,0.0,0.0,0.0,0.0,0.0
13.566801,-1.29552447796,0.885644853115,1.83746039867,-0.532977640629,1.53587830067,-0.902638435364,-2.44638729095,0.0398823529412,0.0,0.0,0.0,0.0,0.0,0.0,0.0,0.0,0.0,0.0,0.0,0.0,0.0,0.0,0.0
13.600107,-1.29552447796,0.885644853115,1.83746039867,-0.532977640629,1.53587830067,-0.902638435364,-2.44638729095,0.0398823529412,0.0,0.0,0.0,0.0,0.0,0.0,0.0,0.0,0.0,0.0,0.0,0.0,0.0,0.0,0.0
13.633446,-1.29552447796,0.885644853115,1.83746039867,-0.532977640629,1.53587830067,-0.902638435364,-2.44638729095,0.0398823529412,0.0,0.0,0.0,0.0,0.0,0.0,0.0,0.0,0.0,0.0,0.0,0.0,0.0,0.0,0.0
13.666799,-1.29552447796,0.885644853115,1.83746039867,-0.532977640629,1.53587830067,-0.902638435364,-2.44638729095,0.0398823529412,0.0,0.0,0.0,0.0,0.0,0.0,0.0,0.0,0.0,0.0,0.0,0.0,0.0,0.0,0.0
13.700101,-1.29552447796,0.885644853115,1.83746039867,-0.532977640629,1.53587830067,-0.902638435364,-2.44638729095,0.0398823529412,0.0,0.0,0.0,0.0,0.0,0.0,0.0,0.0,0.0,0.0,0.0,0.0,0.0,0.0,0.0
13.733444,-1.29552447796,0.885644853115,1.83746039867,-0.532977640629,1.53587830067,-0.902638435364,-2.44638729095,0.0398823529412,0.0,0.0,0.0,0.0,0.0,0.0,0.0,0.0,0.0,0.0,0.0,0.0,0.0,0.0,0.0
13.766826,-1.29552447796,0.885644853115,1.83746039867,-0.532977640629,1.53587830067,-0.902638435364,-2.44638729095,0.0398823529412,0.0,0.0,0.0,0.0,0.0,0.0,0.0,0.0,0.0,0.0,0.0,0.0,0.0,0.0,0.0
13.800119,-1.29552447796,0.885644853115,1.83746039867,-0.532977640629,1.53587830067,-0.902638435364,-2.44638729095,0.0398823529412,0.0,0.0,0.0,0.0,0.0,0.0,0.0,0.0,0.0,0.0,0.0,0.0,0.0,0.0,0.0
13.833470,-1.29552447796,0.885644853115,1.83746039867,-0.532977640629,1.53587830067,-0.902638435364,-2.44638729095,0.0398823529412,0.0,0.0,0.0,0.0,0.0,0.0,0.0,0.0,0.0,0.0,0.0,0.0,0.0,0.0,0.0
13.866813,-1.29552447796,0.885644853115,1.83746039867,-0.532977640629,1.53587830067,-0.902638435364,-2.44638729095,0.0398823529412,0.0,0.0,0.0,0.0,0.0,0.0,0.0,0.0,0.0,0.0,0.0,0.0,0.0,0.0,0.0
13.900241,-1.29552447796,0.885644853115,1.83746039867,-0.532977640629,1.53587830067,-0.902638435364,-2.44638729095,0.0398823529412,0.0,0.0,0.0,0.0,0.0,0.0,0.0,0.0,0.0,0.0,0.0,0.0,0.0,0.0,0.0
13.933482,-1.29552447796,0.885644853115,1.83746039867,-0.532977640629,1.53587830067,-0.902638435364,-2.44638729095,0.0398823529412,0.0,0.0,0.0,0.0,0.0,0.0,0.0,0.0,0.0,0.0,0.0,0.0,0.0,0.0,0.0
13.966807,-1.29552447796,0.885644853115,1.83746039867,-0.532977640629,1.53587830067,-0.902638435364,-2.44638729095,0.0398823529412,0.0,0.0,0.0,0.0,0.0,0.0,0.0,0.0,0.0,0.0,0.0,0.0,0.0,0.0,0.0
14.000071,-1.29552447796,0.885644853115,1.83746039867,-0.532977640629,1.53587830067,-0.902638435364,-2.44638729095,0.0398823529412,0.0,0.0,0.0,0.0,0.0,0.0,0.0,0.0,0.0,0.0,0.0,0.0,0.0,0.0,0.0
14.033537,-1.29552447796,0.885644853115,1.83746039867,-0.532977640629,1.53587830067,-0.902638435364,-2.44638729095,0.0398823529412,0.0,0.0,0.0,0.0,0.0,0.0,0.0,0.0,0.0,0.0,0.0,0.0,0.0,0.0,0.0
14.066802,-1.29552447796,0.885644853115,1.83746039867,-0.532977640629,1.53587830067,-0.902638435364,-2.44638729095,0.0398823529412,0.0,0.0,0.0,0.0,0.0,0.0,0.0,0.0,0.0,0.0,0.0,0.0,0.0,0.0,0.0
14.100165,-1.29552447796,0.885644853115,1.83746039867,-0.532977640629,1.53587830067,-0.902638435364,-2.44638729095,0.0398823529412,0.0,0.0,0.0,0.0,0.0,0.0,0.0,0.0,0.0,0.0,0.0,0.0,0.0,0.0,0.0
14.133473,-1.29552447796,0.885644853115,1.83746039867,-0.532977640629,1.53587830067,-0.902638435364,-2.44638729095,0.0398823529412,0.0,0.0,0.0,0.0,0.0,0.0,0.0,0.0,0.0,0.0,0.0,0.0,0.0,0.0,0.0
14.166824,-1.29552447796,0.885644853115,1.83746039867,-0.532977640629,1.53587830067,-0.902638435364,-2.44638729095,0.0398823529412,0.0,0.0,0.0,0.0,0.0,0.0,0.0,0.0,0.0,0.0,0.0,0.0,0.0,0.0,0.0
14.200126,-1.29552447796,0.885644853115,1.83746039867,-0.532977640629,1.53587830067,-0.902638435364,-2.44638729095,0.0398823529412,0.0,0.0,0.0,0.0,0.0,0.0,0.0,0.0,0.0,0.0,0.0,0.0,0.0,0.0,0.0
14.233462,-1.29552447796,0.885644853115,1.83746039867,-0.532977640629,1.53587830067,-0.902638435364,-2.44638729095,0.0398823529412,0.0,0.0,0.0,0.0,0.0,0.0,0.0,0.0,0.0,0.0,0.0,0.0,0.0,0.0,0.0
14.266839,-1.29552447796,0.885644853115,1.83746039867,-0.532977640629,1.53587830067,-0.902638435364,-2.44638729095,0.0398823529412,0.0,0.0,0.0,0.0,0.0,0.0,0.0,0.0,0.0,0.0,0.0,0.0,0.0,0.0,0.0
14.300229,-1.29552447796,0.885644853115,1.83746039867,-0.532977640629,1.53587830067,-0.902638435364,-2.44638729095,0.0398823529412,0.0,0.0,0.0,0.0,0.0,0.0,0.0,0.0,0.0,0.0,0.0,0.0,0.0,0.0,0.0
14.333485,-1.29552447796,0.885644853115,1.83746039867,-0.532977640629,1.53587830067,-0.902638435364,-2.44638729095,0.0398823529412,0.0,0.0,0.0,0.0,0.0,0.0,0.0,0.0,0.0,0.0,0.0,0.0,0.0,0.0,0.0
14.366821,-1.29552447796,0.885644853115,1.83746039867,-0.532977640629,1.53587830067,-0.902638435364,-2.44638729095,0.0398823529412,0.0,0.0,0.0,0.0,0.0,0.0,0.0,0.0,0.0,0.0,0.0,0.0,0.0,0.0,0.0
14.400123,-1.29552447796,0.885644853115,1.83746039867,-0.532977640629,1.53587830067,-0.902638435364,-2.44638729095,0.0398823529412,0.0,0.0,0.0,0.0,0.0,0.0,0.0,0.0,0.0,0.0,0.0,0.0,0.0,0.0,0.0
14.433534,-1.29552447796,0.885644853115,1.83746039867,-0.532977640629,1.53587830067,-0.902638435364,-2.44638729095,0.0398823529412,0.0,0.0,0.0,0.0,0.0,0.0,0.0,0.0,0.0,0.0,0.0,0.0,0.0,0.0,0.0
14.466842,-1.29552447796,0.885644853115,1.83746039867,-0.532977640629,1.53587830067,-0.902638435364,-2.44638729095,0.0398823529412,0.0,0.0,0.0,0.0,0.0,0.0,0.0,0.0,0.0,0.0,0.0,0.0,0.0,0.0,0.0
14.500136,-1.29552447796,0.885644853115,1.83746039867,-0.532977640629,1.53587830067,-0.902638435364,-2.44638729095,0.0398823529412,0.0,0.0,0.0,0.0,0.0,0.0,0.0,0.0,0.0,0.0,0.0,0.0,0.0,0.0,0.0
14.533507,-1.29552447796,0.885644853115,1.83746039867,-0.532977640629,1.53587830067,-0.902638435364,-2.44638729095,0.0398823529412,0.0,0.0,0.0,0.0,0.0,0.0,0.0,0.0,0.0,0.0,0.0,0.0,0.0,0.0,0.0
14.566773,-1.29552447796,0.885644853115,1.83746039867,-0.532977640629,1.53587830067,-0.902638435364,-2.44638729095,0.0398823529412,0.0,0.0,0.0,0.0,0.0,0.0,0.0,0.0,0.0,0.0,0.0,0.0,0.0,0.0,0.0
14.600126,-1.29552447796,0.885644853115,1.83746039867,-0.532977640629,1.53587830067,-0.902638435364,-2.44638729095,0.0398823529412,0.0,0.0,0.0,0.0,0.0,0.0,0.0,0.0,0.0,0.0,0.0,0.0,0.0,0.0,0.0
14.633473,-1.29552447796,0.885644853115,1.83746039867,-0.532977640629,1.53587830067,-0.902638435364,-2.44638729095,0.0398823529412,0.0,0.0,0.0,0.0,0.0,0.0,0.0,0.0,0.0,0.0,0.0,0.0,0.0,0.0,0.0
14.666788,-1.29552447796,0.885644853115,1.83746039867,-0.532977640629,1.53587830067,-0.902638435364,-2.44638729095,0.0398823529412,0.0,0.0,0.0,0.0,0.0,0.0,0.0,0.0,0.0,0.0,0.0,0.0,0.0,0.0,0.0
14.700125,-1.29552447796,0.885644853115,1.83746039867,-0.532977640629,1.53587830067,-0.902638435364,-2.44638729095,0.0398823529412,0.0,0.0,0.0,0.0,0.0,0.0,0.0,0.0,0.0,0.0,0.0,0.0,0.0,0.0,0.0
14.733514,-1.29552447796,0.885644853115,1.83746039867,-0.532977640629,1.53587830067,-0.902638435364,-2.44638729095,0.0398823529412,0.0,0.0,0.0,0.0,0.0,0.0,0.0,0.0,0.0,0.0,0.0,0.0,0.0,0.0,0.0
14.766793,-1.29552447796,0.885644853115,1.83746039867,-0.532977640629,1.53587830067,-0.902638435364,-2.44638729095,0.0398823529412,0.0,0.0,0.0,0.0,0.0,0.0,0.0,0.0,0.0,0.0,0.0,0.0,0.0,0.0,0.0
14.800107,-1.29552447796,0.885644853115,1.83746039867,-0.532977640629,1.53587830067,-0.902638435364,-2.44638729095,0.0398823529412,0.0,0.0,0.0,0.0,0.0,0.0,0.0,0.0,0.0,0.0,0.0,0.0,0.0,0.0,0.0
14.833448,-1.29552447796,0.885644853115,1.83746039867,-0.532977640629,1.53587830067,-0.902638435364,-2.44638729095,0.0398823529412,0.0,0.0,0.0,0.0,0.0,0.0,0.0,0.0,0.0,0.0,0.0,0.0,0.0,0.0,0.0
14.866796,-1.29552447796,0.885644853115,1.83746039867,-0.532977640629,1.53587830067,-0.902638435364,-2.44638729095,0.0398823529412,0.0,0.0,0.0,0.0,0.0,0.0,0.0,0.0,0.0,0.0,0.0,0.0,0.0,0.0,0.0
14.900108,-1.29552447796,0.885644853115,1.83746039867,-0.532977640629,1.53587830067,-0.902638435364,-2.44638729095,0.0398823529412,0.0,0.0,0.0,0.0,0.0,0.0,0.0,0.0,0.0,0.0,0.0,0.0,0.0,0.0,0.0
14.933465,-1.29552447796,0.885644853115,1.83746039867,-0.532977640629,1.53587830067,-0.902638435364,-2.44638729095,0.0398823529412,0.0,0.0,0.0,0.0,0.0,0.0,0.0,0.0,0.0,0.0,0.0,0.0,0.0,0.0,0.0
14.966986,-1.29552447796,0.885644853115,1.83746039867,-0.532977640629,1.53587830067,-0.902638435364,-2.44638729095,0.0398823529412,0.0,0.0,0.0,0.0,0.0,0.0,0.0,0.0,0.0,0.0,0.0,0.0,0.0,0.0,0.0
15.000143,-1.29552447796,0.885644853115,1.83746039867,-0.532977640629,1.53587830067,-0.902638435364,-2.44638729095,0.0398823529412,0.0,0.0,0.0,0.0,0.0,0.0,0.0,0.0,0.0,0.0,0.0,0.0,0.0,0.0,0.0
15.033469,-1.29552447796,0.885644853115,1.83746039867,-0.532977640629,1.53587830067,-0.902638435364,-2.44638729095,0.0398823529412,0.0,0.0,0.0,0.0,0.0,0.0,0.0,0.0,0.0,0.0,0.0,0.0,0.0,0.0,0.0
15.066823,-1.29552447796,0.885644853115,1.83746039867,-0.532977640629,1.53587830067,-0.902638435364,-2.44638729095,0.0398823529412,0.0,0.0,0.0,0.0,0.0,0.0,0.0,0.0,0.0,0.0,0.0,0.0,0.0,0.0,0.0
15.100143,-1.29552447796,0.885644853115,1.83746039867,-0.532977640629,1.53587830067,-0.902638435364,-2.44638729095,0.0398823529412,0.0,0.0,0.0,0.0,0.0,0.0,0.0,0.0,0.0,0.0,0.0,0.0,0.0,0.0,0.0
15.133477,-1.29552447796,0.885644853115,1.83746039867,-0.532977640629,1.53587830067,-0.902638435364,-2.44638729095,0.0398823529412,0.0,0.0,0.0,0.0,0.0,0.0,0.0,0.0,0.0,0.0,0.0,0.0,0.0,0.0,0.0
15.166817,-1.29552447796,0.885644853115,1.83746039867,-0.532977640629,1.53587830067,-0.902638435364,-2.44638729095,0.0398823529412,0.0,0.0,0.0,0.0,0.0,0.0,0.0,0.0,0.0,0.0,0.0,0.0,0.0,0.0,0.0
15.200348,-1.29552447796,0.885644853115,1.83746039867,-0.532977640629,1.53587830067,-0.902638435364,-2.44638729095,0.0398823529412,0.0,0.0,0.0,0.0,0.0,0.0,0.0,0.0,0.0,0.0,0.0,0.0,0.0,0.0,0.0
15.233441,-1.29552447796,0.885644853115,1.83746039867,-0.532977640629,1.53587830067,-0.902638435364,-2.44638729095,0.0398823529412,0.0,0.0,0.0,0.0,0.0,0.0,0.0,0.0,0.0,0.0,0.0,0.0,0.0,0.0,0.0
15.266806,-1.29552447796,0.885644853115,1.83746039867,-0.532977640629,1.53587830067,-0.902638435364,-2.44638729095,0.0398823529412,0.0,0.0,0.0,0.0,0.0,0.0,0.0,0.0,0.0,0.0,0.0,0.0,0.0,0.0,0.0
15.300184,-1.29552447796,0.885644853115,1.83746039867,-0.532977640629,1.53587830067,-0.902638435364,-2.44638729095,0.0398823529412,0.0,0.0,0.0,0.0,0.0,0.0,0.0,0.0,0.0,0.0,0.0,0.0,0.0,0.0,0.0
15.333573,-1.29552447796,0.885644853115,1.83746039867,-0.532977640629,1.53587830067,-0.902638435364,-2.44638729095,0.0398823529412,0.0,0.0,0.0,0.0,0.0,0.0,0.0,0.0,0.0,0.0,0.0,0.0,0.0,0.0,0.0
15.366837,-1.29552447796,0.885644853115,1.83746039867,-0.532977640629,1.53587830067,-0.902638435364,-2.44638729095,0.0398823529412,0.0,0.0,0.0,0.0,0.0,0.0,0.0,0.0,0.0,0.0,0.0,0.0,0.0,0.0,0.0
15.400209,-1.29552447796,0.885644853115,1.83746039867,-0.532977640629,1.53587830067,-0.902638435364,-2.44638729095,0.0398823529412,0.0,0.0,0.0,0.0,0.0,0.0,0.0,0.0,0.0,0.0,0.0,0.0,0.0,0.0,0.0
15.433465,-1.29552447796,0.885644853115,1.83746039867,-0.532977640629,1.53587830067,-0.902638435364,-2.44638729095,0.0398823529412,0.0,0.0,0.0,0.0,0.0,0.0,0.0,0.0,0.0,0.0,0.0,0.0,0.0,0.0,0.0
15.466801,-1.29552447796,0.885644853115,1.83746039867,-0.532977640629,1.53587830067,-0.902638435364,-2.44638729095,0.0398823529412,0.0,0.0,0.0,0.0,0.0,0.0,0.0,0.0,0.0,0.0,0.0,0.0,0.0,0.0,0.0
15.500108,-1.29552447796,0.885644853115,1.83746039867,-0.532977640629,1.53587830067,-0.902638435364,-2.44638729095,0.0398823529412,0.0,0.0,0.0,0.0,0.0,0.0,0.0,0.0,0.0,0.0,0.0,0.0,0.0,0.0,0.0
15.533473,-1.29552447796,0.885644853115,1.83746039867,-0.532977640629,1.53587830067,-0.902638435364,-2.44638729095,0.0398823529412,0.0,0.0,0.0,0.0,0.0,0.0,0.0,0.0,0.0,0.0,0.0,0.0,0.0,0.0,0.0
15.566830,-1.29552447796,0.885644853115,1.83746039867,-0.532977640629,1.53587830067,-0.902638435364,-2.44638729095,0.0398823529412,0.0,0.0,0.0,0.0,0.0,0.0,0.0,0.0,0.0,0.0,0.0,0.0,0.0,0.0,0.0
15.600163,-1.29552447796,0.885644853115,1.83746039867,-0.532977640629,1.53587830067,-0.902638435364,-2.44638729095,0.0398823529412,0.0,0.0,0.0,0.0,0.0,0.0,0.0,0.0,0.0,0.0,0.0,0.0,0.0,0.0,0.0
15.633498,-1.29552447796,0.885644853115,1.83746039867,-0.532977640629,1.53587830067,-0.902638435364,-2.44638729095,0.0398823529412,0.0,0.0,0.0,0.0,0.0,0.0,0.0,0.0,0.0,0.0,0.0,0.0,0.0,0.0,0.0
15.666810,-1.29552447796,0.885644853115,1.83746039867,-0.532977640629,1.53587830067,-0.902638435364,-2.44638729095,0.0398823529412,0.0,0.0,0.0,0.0,0.0,0.0,0.0,0.0,0.0,0.0,0.0,0.0,0.0,0.0,0.0
15.700334,-1.29552447796,0.885644853115,1.83746039867,-0.532977640629,1.53587830067,-0.902638435364,-2.44638729095,0.0398823529412,0.0,0.0,0.0,0.0,0.0,0.0,0.0,0.0,0.0,0.0,0.0,0.0,0.0,0.0,0.0
15.733558,-1.29552447796,0.885644853115,1.83746039867,-0.532977640629,1.53587830067,-0.902638435364,-2.44638729095,0.0398823529412,0.0,0.0,0.0,0.0,0.0,0.0,0.0,0.0,0.0,0.0,0.0,0.0,0.0,0.0,0.0
15.766826,-1.29552447796,0.885644853115,1.83746039867,-0.532977640629,1.53587830067,-0.902638435364,-2.44638729095,0.0398823529412,0.0,0.0,0.0,0.0,0.0,0.0,0.0,0.0,0.0,0.0,0.0,0.0,0.0,0.0,0.0
15.800161,-1.29552447796,0.885644853115,1.83746039867,-0.532977640629,1.53587830067,-0.902638435364,-2.44638729095,0.0398823529412,0.0,0.0,0.0,0.0,0.0,0.0,0.0,0.0,0.0,0.0,0.0,0.0,0.0,0.0,0.0
15.833473,-1.29552447796,0.885644853115,1.83746039867,-0.532977640629,1.53587830067,-0.902638435364,-2.44638729095,0.0398823529412,0.0,0.0,0.0,0.0,0.0,0.0,0.0,0.0,0.0,0.0,0.0,0.0,0.0,0.0,0.0
15.866811,-1.29552447796,0.885644853115,1.83746039867,-0.532977640629,1.53587830067,-0.902638435364,-2.44638729095,0.0398823529412,0.0,0.0,0.0,0.0,0.0,0.0,0.0,0.0,0.0,0.0,0.0,0.0,0.0,0.0,0.0
15.900115,-1.29552447796,0.885644853115,1.83746039867,-0.532977640629,1.53587830067,-0.902638435364,-2.44638729095,0.0398823529412,0.0,0.0,0.0,0.0,0.0,0.0,0.0,0.0,0.0,0.0,0.0,0.0,0.0,0.0,0.0
15.933463,-1.29552447796,0.885644853115,1.83746039867,-0.532977640629,1.53587830067,-0.902638435364,-2.44638729095,0.0398823529412,0.0,0.0,0.0,0.0,0.0,0.0,0.0,0.0,0.0,0.0,0.0,0.0,0.0,0.0,0.0
15.966809,-1.29552447796,0.885644853115,1.83746039867,-0.532977640629,1.53587830067,-0.902638435364,-2.44638729095,0.0398823529412,0.0,0.0,0.0,0.0,0.0,0.0,0.0,0.0,0.0,0.0,0.0,0.0,0.0,0.0,0.0
16.000315,-1.29552447796,0.885644853115,1.83746039867,-0.532977640629,1.53587830067,-0.902638435364,-2.44638729095,0.0398823529412,0.0,0.0,0.0,0.0,0.0,0.0,0.0,0.0,0.0,0.0,0.0,0.0,0.0,0.0,0.0
16.033492,-1.29552447796,0.885644853115,1.83746039867,-0.532977640629,1.53587830067,-0.902638435364,-2.44638729095,0.0398823529412,0.0,0.0,0.0,0.0,0.0,0.0,0.0,0.0,0.0,0.0,0.0,0.0,0.0,0.0,0.0
16.066811,-1.29552447796,0.885644853115,1.83746039867,-0.532977640629,1.53587830067,-0.902638435364,-2.44638729095,0.0398823529412,0.0,0.0,0.0,0.0,0.0,0.0,0.0,0.0,0.0,0.0,0.0,0.0,0.0,0.0,0.0
16.100159,-1.29552447796,0.885644853115,1.83746039867,-0.532977640629,1.53587830067,-0.902638435364,-2.44638729095,0.0398823529412,0.0,0.0,0.0,0.0,0.0,0.0,0.0,0.0,0.0,0.0,0.0,0.0,0.0,0.0,0.0
16.133500,-1.29552447796,0.885644853115,1.83746039867,-0.532977640629,1.53587830067,-0.902638435364,-2.44638729095,0.0398823529412,0.0,0.0,0.0,0.0,0.0,0.0,0.0,0.0,0.0,0.0,0.0,0.0,0.0,0.0,0.0
16.166798,-1.29552447796,0.885644853115,1.83746039867,-0.532977640629,1.53587830067,-0.902638435364,-2.44638729095,0.0398823529412,0.0,0.0,0.0,0.0,0.0,0.0,0.0,0.0,0.0,0.0,0.0,0.0,0.0,0.0,0.0
16.200253,-1.29552447796,0.885644853115,1.83746039867,-0.532977640629,1.53587830067,-0.902638435364,-2.44638729095,0.0398823529412,0.0,0.0,0.0,0.0,0.0,0.0,0.0,0.0,0.0,0.0,0.0,0.0,0.0,0.0,0.0
16.233447,-1.29552447796,0.885644853115,1.83746039867,-0.532977640629,1.53587830067,-0.902638435364,-2.44638729095,0.0398823529412,0.0,0.0,0.0,0.0,0.0,0.0,0.0,0.0,0.0,0.0,0.0,0.0,0.0,0.0,0.0
16.266798,-1.29552447796,0.885644853115,1.83746039867,-0.532977640629,1.53587830067,-0.902638435364,-2.44638729095,0.0398823529412,0.0,0.0,0.0,0.0,0.0,0.0,0.0,0.0,0.0,0.0,0.0,0.0,0.0,0.0,0.0
16.300101,-1.29552447796,0.885644853115,1.83746039867,-0.532977640629,1.53587830067,-0.902638435364,-2.44638729095,0.0398823529412,0.0,0.0,0.0,0.0,0.0,0.0,0.0,0.0,0.0,0.0,0.0,0.0,0.0,0.0,0.0
16.333496,-1.29552447796,0.885644853115,1.83746039867,-0.532977640629,1.53587830067,-0.902638435364,-2.44638729095,0.0398823529412,0.0,0.0,0.0,0.0,0.0,0.0,0.0,0.0,0.0,0.0,0.0,0.0,0.0,0.0,0.0
16.366806,-1.29552447796,0.885644853115,1.83746039867,-0.532977640629,1.53587830067,-0.902638435364,-2.44638729095,0.0398823529412,0.0,0.0,0.0,0.0,0.0,0.0,0.0,0.0,0.0,0.0,0.0,0.0,0.0,0.0,0.0
16.400128,-1.29552447796,0.885644853115,1.83746039867,-0.532977640629,1.53587830067,-0.902638435364,-2.44638729095,0.0398823529412,0.0,0.0,0.0,0.0,0.0,0.0,0.0,0.0,0.0,0.0,0.0,0.0,0.0,0.0,0.0
16.433492,-1.29552447796,0.885644853115,1.83746039867,-0.532977640629,1.53587830067,-0.902638435364,-2.44638729095,0.0398823529412,0.0,0.0,0.0,0.0,0.0,0.0,0.0,0.0,0.0,0.0,0.0,0.0,0.0,0.0,0.0
16.466833,-1.29552447796,0.885644853115,1.83746039867,-0.532977640629,1.53587830067,-0.902638435364,-2.44638729095,0.0398823529412,0.0,0.0,0.0,0.0,0.0,0.0,0.0,0.0,0.0,0.0,0.0,0.0,0.0,0.0,0.0
16.500152,-1.29552447796,0.885644853115,1.83746039867,-0.532977640629,1.53587830067,-0.902638435364,-2.44638729095,0.0398823529412,0.0,0.0,0.0,0.0,0.0,0.0,0.0,0.0,0.0,0.0,0.0,0.0,0.0,0.0,0.0
16.533456,-1.29552447796,0.885644853115,1.83746039867,-0.532977640629,1.53587830067,-0.902638435364,-2.44638729095,0.0398823529412,0.0,0.0,0.0,0.0,0.0,0.0,0.0,0.0,0.0,0.0,0.0,0.0,0.0,0.0,0.0
16.566816,-1.29552447796,0.885644853115,1.83746039867,-0.532977640629,1.53587830067,-0.902638435364,-2.44638729095,0.0398823529412,0.0,0.0,0.0,0.0,0.0,0.0,0.0,0.0,0.0,0.0,0.0,0.0,0.0,0.0,0.0
16.600265,-1.29552447796,0.885644853115,1.83746039867,-0.532977640629,1.53587830067,-0.902638435364,-2.44638729095,0.0398823529412,0.0,0.0,0.0,0.0,0.0,0.0,0.0,0.0,0.0,0.0,0.0,0.0,0.0,0.0,0.0
16.633486,-1.29552447796,0.885644853115,1.83746039867,-0.532977640629,1.53587830067,-0.902638435364,-2.44638729095,0.0398823529412,0.0,0.0,0.0,0.0,0.0,0.0,0.0,0.0,0.0,0.0,0.0,0.0,0.0,0.0,0.0
16.666773,-1.29552447796,0.885644853115,1.83746039867,-0.532977640629,1.53587830067,-0.902638435364,-2.44638729095,0.0398823529412,0.0,0.0,0.0,0.0,0.0,0.0,0.0,0.0,0.0,0.0,0.0,0.0,0.0,0.0,0.0
16.700118,-1.29552447796,0.885644853115,1.83746039867,-0.532977640629,1.53587830067,-0.902638435364,-2.44638729095,0.0398823529412,0.0,0.0,0.0,0.0,0.0,0.0,0.0,0.0,0.0,0.0,0.0,0.0,0.0,0.0,0.0
16.733680,-1.29552447796,0.885644853115,1.83746039867,-0.532977640629,1.53587830067,-0.902638435364,-2.44638729095,0.0398823529412,0.0,0.0,0.0,0.0,0.0,0.0,0.0,0.0,0.0,0.0,0.0,0.0,0.0,0.0,0.0
16.766813,-1.29552447796,0.885644853115,1.83746039867,-0.532977640629,1.53587830067,-0.902638435364,-2.44638729095,0.0398823529412,0.0,0.0,0.0,0.0,0.0,0.0,0.0,0.0,0.0,0.0,0.0,0.0,0.0,0.0,0.0
16.800293,-1.29552447796,0.885644853115,1.83746039867,-0.532977640629,1.53587830067,-0.902638435364,-2.44638729095,0.0398823529412,0.0,0.0,0.0,0.0,0.0,0.0,0.0,0.0,0.0,0.0,0.0,0.0,0.0,0.0,0.0
16.833449,-1.29552447796,0.885644853115,1.83746039867,-0.532977640629,1.53587830067,-0.902638435364,-2.44638729095,0.0398823529412,0.0,0.0,0.0,0.0,0.0,0.0,0.0,0.0,0.0,0.0,0.0,0.0,0.0,0.0,0.0
16.866877,-1.29552447796,0.885644853115,1.83746039867,-0.532977640629,1.53587830067,-0.902638435364,-2.44638729095,0.0398823529412,0.0,0.0,0.0,0.0,0.0,0.0,0.0,0.0,0.0,0.0,0.0,0.0,0.0,0.0,0.0
16.900123,-1.29552447796,0.885644853115,1.83746039867,-0.532977640629,1.53587830067,-0.902638435364,-2.44638729095,0.0398823529412,0.0,0.0,0.0,0.0,0.0,0.0,0.0,0.0,0.0,0.0,0.0,0.0,0.0,0.0,0.0
16.933440,-1.29552447796,0.885644853115,1.83746039867,-0.532977640629,1.53587830067,-0.902638435364,-2.44638729095,0.0398823529412,0.0,0.0,0.0,0.0,0.0,0.0,0.0,0.0,0.0,0.0,0.0,0.0,0.0,0.0,0.0
16.966810,-1.29552447796,0.885644853115,1.83746039867,-0.532977640629,1.53587830067,-0.902638435364,-2.44638729095,0.0398823529412,0.0,0.0,0.0,0.0,0.0,0.0,0.0,0.0,0.0,0.0,0.0,0.0,0.0,0.0,0.0
17.000114,-1.29552447796,0.885644853115,1.83746039867,-0.532977640629,1.53587830067,-0.902638435364,-2.44638729095,0.0398823529412,0.0,0.0,0.0,0.0,0.0,0.0,0.0,0.0,0.0,0.0,0.0,0.0,0.0,0.0,0.0
17.033467,-1.29552447796,0.885644853115,1.83746039867,-0.532977640629,1.53587830067,-0.902638435364,-2.44638729095,0.0398823529412,0.0,0.0,0.0,0.0,0.0,0.0,0.0,0.0,0.0,0.0,0.0,0.0,0.0,0.0,0.0
17.066811,-1.29552447796,0.885644853115,1.83746039867,-0.532977640629,1.53587830067,-0.902638435364,-2.44638729095,0.0398823529412,0.0,0.0,0.0,0.0,0.0,0.0,0.0,0.0,0.0,0.0,0.0,0.0,0.0,0.0,0.0
17.100446,-1.29552447796,0.885644853115,1.83746039867,-0.532977640629,1.53587830067,-0.902638435364,-2.44638729095,0.0398823529412,0.0,0.0,0.0,0.0,0.0,0.0,0.0,0.0,0.0,0.0,0.0,0.0,0.0,0.0,0.0
17.133458,-1.29552447796,0.885644853115,1.83746039867,-0.532977640629,1.53587830067,-0.902638435364,-2.44638729095,0.0398823529412,0.0,0.0,0.0,0.0,0.0,0.0,0.0,0.0,0.0,0.0,0.0,0.0,0.0,0.0,0.0
17.166796,-1.29552447796,0.885644853115,1.83746039867,-0.532977640629,1.53587830067,-0.902638435364,-2.44638729095,0.0398823529412,0.0,0.0,0.0,0.0,0.0,0.0,0.0,0.0,0.0,0.0,0.0,0.0,0.0,0.0,0.0
17.200216,-1.29552447796,0.885644853115,1.83746039867,-0.532977640629,1.53587830067,-0.902638435364,-2.44638729095,0.0398823529412,0.0,0.0,0.0,0.0,0.0,0.0,0.0,0.0,0.0,0.0,0.0,0.0,0.0,0.0,0.0
17.233503,-1.29552447796,0.885644853115,1.83746039867,-0.532977640629,1.53587830067,-0.902638435364,-2.44638729095,0.0398823529412,0.0,0.0,0.0,0.0,0.0,0.0,0.0,0.0,0.0,0.0,0.0,0.0,0.0,0.0,0.0
17.266844,-1.29552447796,0.885644853115,1.83746039867,-0.532977640629,1.53587830067,-0.902638435364,-2.44638729095,0.0398823529412,0.0,0.0,0.0,0.0,0.0,0.0,0.0,0.0,0.0,0.0,0.0,0.0,0.0,0.0,0.0
17.300108,-1.29552447796,0.885644853115,1.83746039867,-0.532977640629,1.53587830067,-0.902638435364,-2.44638729095,0.0398823529412,0.0,0.0,0.0,0.0,0.0,0.0,0.0,0.0,0.0,0.0,0.0,0.0,0.0,0.0,0.0
17.333469,-1.29552447796,0.885644853115,1.83746039867,-0.532977640629,1.53587830067,-0.902638435364,-2.44638729095,0.0398823529412,0.0,0.0,0.0,0.0,0.0,0.0,0.0,0.0,0.0,0.0,0.0,0.0,0.0,0.0,0.0
17.366812,-1.29552447796,0.885644853115,1.83746039867,-0.532977640629,1.53587830067,-0.902638435364,-2.44638729095,0.0398823529412,0.0,0.0,0.0,0.0,0.0,0.0,0.0,0.0,0.0,0.0,0.0,0.0,0.0,0.0,0.0
