IRLabUoB/boris-robot/boris_tools/scripts/contact_trajectories/suitcase_trajectory01.csv
time,left_arm_0_joint,left_arm_1_joint,left_arm_2_joint,left_arm_3_joint,left_arm_4_joint,left_arm_5_joint,left_arm_6_joint,left_hand_synergy_joint,right_arm_0_joint,right_arm_1_joint,right_arm_2_joint,right_arm_3_joint,right_arm_4_joint,right_arm_5_joint,right_arm_6_joint,right_hand_synergy_joint,head_neck_pitch_joint,head_neck_roll_joint,head_neck_yaw_joint,head_head_tilt_joint,head_eyes_tilt_joint,head_left_eye_joint,head_right_eye_joint
0.000139,-1.53367507458,0.887332320213,1.48002886772,-0.565164446831,2.74571180344,-1.29950630665,1.4688321352,0.0757647058824,0.0,0.0,0.0,0.0,0.0,0.0,0.0,0.0,0.0,0.0,0.0,0.0,0.0,0.0,0.0
0.033551,-1.53367507458,0.887332320213,1.48002886772,-0.565164446831,2.74571180344,-1.29950630665,1.4688321352,0.0757647058824,0.0,0.0,0.0,0.0,0.0,0.0,0.0,0.0,0.0,0.0,0.0,0.0,0.0,0.0,0.0
0.066891,-1.53367507458,0.887332320213,1.48002886772,-0.565164446831,2.74571180344,-1.29950630665,1.4688321352,0.0757647058824,0.0,0.0,0.0,0.0,0.0,0.0,0.0,0.0,0.0,0.0,0.0,0.0,0.0,0.0,0.0
0.100150,-1.53367507458,0.887332320213,1.48002886772,-0.565164446831,2.74571180344,-1.29950630665,1.4688321352,0.0757647058824,0.0,0.0,0.0,0.0,0.0,0.0,0.0,0.0,0.0,0.0,0.0,0.0,0.0,0.0,0.0
0.133457,-1.53367507458,0.887332320213,1.48002886772,-0.565164446831,2.74571180344,-1.29950630665,1.4688321352,0.0757647058824,0.0,0.0,0.0,0.0,0.0,0.0,0.0,0.0,0.0,0.0,0.0,0.0,0.0,0.0,0.0
0.166826,-1.53367507458,0.887332320213,1.48002886772,-0.565164446831,2.74571180344,-1.29950630665,1.4688321352,0.0757647058824,0.0,0.0,0.0,0.0,0.0,0.0,0.0,0.0,0.0,0.0,0.0,0.0,0.0,0.0,0.0
0.200257,-1.53367507458,0.887332320213,1.48002886772,-0.565164446831,2.74571180344,-1.29950630665,1.4688321352,0.0757647058824,0.0,0.0,0.0,0.0,0.0,0.0,0.0,0.0,0.0,0.0,0.0,0.0,0.0,0.0,0.0
0.233502,-1.53367507458,0.887332320213,1.48002886772,-0.565164446831,2.74571180344,-1.29950630665,1.4688321352,0.0757647058824,0.0,0.0,0.0,0.0,0.0,0.0,0.0,0.0,0.0,0.0,0.0,0.0,0.0,0.0,0.0
0.266898,-1.53367507458,0.887332320213,1.48002886772,-0.565164446831,2.74571180344,-1.29950630665,1.4688321352,0.0757647058824,0.0,0.0,0.0,0.0,0.0,0.0,0.0,0.0,0.0,0.0,0.0,0.0,0.0,0.0,0.0
0.300118,-1.53367507458,0.887332320213,1.48002886772,-0.565164446831,2.74571180344,-1.29950630665,1.4688321352,0.0757647058824,0.0,0.0,0.0,0.0,0.0,0.0,0.0,0.0,0.0,0.0,0.0,0.0,0.0,0.0,0.0
0.333447,-1.53367507458,0.887332320213,1.48002886772,-0.565164446831,2.74571180344,-1.29950630665,1.4688321352,0.0757647058824,0.0,0.0,0.0,0.0,0.0,0.0,0.0,0.0,0.0,0.0,0.0,0.0,0.0,0.0,0.0
0.367025,-1.53367507458,0.887332320213,1.48002886772,-0.565164446831,2.74571180344,-1.29950630665,1.4688321352,0.0757647058824,0.0,0.0,0.0,0.0,0.0,0.0,0.0,0.0,0.0,0.0,0.0,0.0,0.0,0.0,0.0
0.400170,-1.53367507458,0.887332320213,1.48002886772,-0.565164446831,2.74571180344,-1.29950630665,1.4688321352,0.0757647058824,0.0,0.0,0.0,0.0,0.0,0.0,0.0,0.0,0.0,0.0,0.0,0.0,0.0,0.0,0.0
0.433507,-1.53367507458,0.887332320213,1.48002886772,-0.565164446831,2.74571180344,-1.29950630665,1.4688321352,0.0757647058824,0.0,0.0,0.0,0.0,0.0,0.0,0.0,0.0,0.0,0.0,0.0,0.0,0.0,0.0,0.0
0.466868,-1.53367507458,0.887332320213,1.48002886772,-0.565164446831,2.74571180344,-1.29950630665,1.4688321352,0.0757647058824,0.0,0.0,0.0,0.0,0.0,0.0,0.0,0.0,0.0,0.0,0.0,0.0,0.0,0.0,0.0
0.500145,-1.53367507458,0.887332320213,1.48002886772,-0.565164446831,2.74571180344,-1.29950630665,1.4688321352,0.0757647058824,0.0,0.0,0.0,0.0,0.0,0.0,0.0,0.0,0.0,0.0,0.0,0.0,0.0,0.0,0.0
0.533511,-1.53367507458,0.887332320213,1.48002886772,-0.565164446831,2.74571180344,-1.29950630665,1.4688321352,0.0757647058824,0.0,0.0,0.0,0.0,0.0,0.0,0.0,0.0,0.0,0.0,0.0,0.0,0.0,0.0,0.0
0.566891,-1.53367507458,0.887332320213,1.48002886772,-0.565164446831,2.74571180344,-1.29950630665,1.4688321352,0.0757647058824,0.0,0.0,0.0,0.0,0.0,0.0,0.0,0.0,0.0,0.0,0.0,0.0,0.0,0.0,0.0
0.600124,-1.53367507458,0.887332320213,1.48002886772,-0.565164446831,2.74571180344,-1.29950630665,1.4688321352,0.0757647058824,0.0,0.0,0.0,0.0,0.0,0.0,0.0,0.0,0.0,0.0,0.0,0.0,0.0,0.0,0.0
0.633613,-1.53367507458,0.887332320213,1.48002886772,-0.565164446831,2.74571180344,-1.29950630665,1.4688321352,0.0757647058824,0.0,0.0,0.0,0.0,0.0,0.0,0.0,0.0,0.0,0.0,0.0,0.0,0.0,0.0,0.0
0.666837,-1.53367507458,0.887332320213,1.48002886772,-0.565164446831,2.74571180344,-1.29950630665,1.4688321352,0.0757647058824,0.0,0.0,0.0,0.0,0.0,0.0,0.0,0.0,0.0,0.0,0.0,0.0,0.0,0.0,0.0
0.700108,-1.53367507458,0.887332320213,1.48002886772,-0.565164446831,2.74571180344,-1.29950630665,1.4688321352,0.0757647058824,0.0,0.0,0.0,0.0,0.0,0.0,0.0,0.0,0.0,0.0,0.0,0.0,0.0,0.0,0.0
0.733505,-1.53367507458,0.887332320213,1.48002886772,-0.565164446831,2.74571180344,-1.29950630665,1.4688321352,0.0757647058824,0.0,0.0,0.0,0.0,0.0,0.0,0.0,0.0,0.0,0.0,0.0,0.0,0.0,0.0,0.0
0.766915,-1.53367507458,0.887332320213,1.48002886772,-0.565164446831,2.74571180344,-1.29950630665,1.4688321352,0.0757647058824,0.0,0.0,0.0,0.0,0.0,0.0,0.0,0.0,0.0,0.0,0.0,0.0,0.0,0.0,0.0
0.800140,-1.53367507458,0.887332320213,1.48002886772,-0.565164446831,2.74571180344,-1.29950630665,1.4688321352,0.0757647058824,0.0,0.0,0.0,0.0,0.0,0.0,0.0,0.0,0.0,0.0,0.0,0.0,0.0,0.0,0.0
0.833462,-1.53367507458,0.887332320213,1.48002886772,-0.565164446831,2.74571180344,-1.29950630665,1.4688321352,0.0757647058824,0.0,0.0,0.0,0.0,0.0,0.0,0.0,0.0,0.0,0.0,0.0,0.0,0.0,0.0,0.0
0.866896,-1.53367507458,0.887332320213,1.48002886772,-0.565164446831,2.74571180344,-1.29950630665,1.4688321352,0.0757647058824,0.0,0.0,0.0,0.0,0.0,0.0,0.0,0.0,0.0,0.0,0.0,0.0,0.0,0.0,0.0
0.900069,-1.53367507458,0.887332320213,1.48002886772,-0.565164446831,2.74571180344,-1.29950630665,1.4688321352,0.0757647058824,0.0,0.0,0.0,0.0,0.0,0.0,0.0,0.0,0.0,0.0,0.0,0.0,0.0,0.0,0.0
0.933441,-1.53367507458,0.887332320213,1.48002886772,-0.565164446831,2.74571180344,-1.29950630665,1.4688321352,0.0757647058824,0.0,0.0,0.0,0.0,0.0,0.0,0.0,0.0,0.0,0.0,0.0,0.0,0.0,0.0,0.0
0.966823,-1.53367507458,0.887332320213,1.48002886772,-0.565164446831,2.74571180344,-1.29950630665,1.4688321352,0.0757647058824,0.0,0.0,0.0,0.0,0.0,0.0,0.0,0.0,0.0,0.0,0.0,0.0,0.0,0.0,0.0
1.000130,-1.53367507458,0.887332320213,1.48002886772,-0.565164446831,2.74571180344,-1.29950630665,1.4688321352,0.0757647058824,0.0,0.0,0.0,0.0,0.0,0.0,0.0,0.0,0.0,0.0,0.0,0.0,0.0,0.0,0.0
1.033511,-1.53367507458,0.887332320213,1.48002886772,-0.565164446831,2.74571180344,-1.29950630665,1.4688321352,0.0757647058824,0.0,0.0,0.0,0.0,0.0,0.0,0.0,0.0,0.0,0.0,0.0,0.0,0.0,0.0,0.0
1.066845,-1.53367507458,0.887332320213,1.48002886772,-0.565164446831,2.74571180344,-1.29950630665,1.4688321352,0.0757647058824,0.0,0.0,0.0,0.0,0.0,0.0,0.0,0.0,0.0,0.0,0.0,0.0,0.0,0.0,0.0
1.100153,-1.53367507458,0.887332320213,1.48002886772,-0.565164446831,2.74571180344,-1.29950630665,1.4688321352,0.0757647058824,0.0,0.0,0.0,0.0,0.0,0.0,0.0,0.0,0.0,0.0,0.0,0.0,0.0,0.0,0.0
1.133497,-1.53367507458,0.887332320213,1.48002886772,-0.565164446831,2.74571180344,-1.29950630665,1.4688321352,0.0757647058824,0.0,0.0,0.0,0.0,0.0,0.0,0.0,0.0,0.0,0.0,0.0,0.0,0.0,0.0,0.0
1.168677,-1.53367507458,0.887332320213,1.48002886772,-0.565164446831,2.74571180344,-1.29950630665,1.4688321352,0.0757647058824,0.0,0.0,0.0,0.0,0.0,0.0,0.0,0.0,0.0,0.0,0.0,0.0,0.0,0.0,0.0
1.200116,-1.53367507458,0.887332320213,1.48002886772,-0.565164446831,2.74571180344,-1.29950630665,1.4688321352,0.0757647058824,0.0,0.0,0.0,0.0,0.0,0.0,0.0,0.0,0.0,0.0,0.0,0.0,0.0,0.0,0.0
1.233530,-1.53367507458,0.887332320213,1.48002886772,-0.565164446831,2.74571180344,-1.29950630665,1.4688321352,0.0757647058824,0.0,0.0,0.0,0.0,0.0,0.0,0.0,0.0,0.0,0.0,0.0,0.0,0.0,0.0,0.0
1.266890,-1.53367507458,0.887332320213,1.48002886772,-0.565164446831,2.74571180344,-1.29950630665,1.4688321352,0.0757647058824,0.0,0.0,0.0,0.0,0.0,0.0,0.0,0.0,0.0,0.0,0.0,0.0,0.0,0.0,0.0
1.300133,-1.53367507458,0.887332320213,1.48002886772,-0.565164446831,2.74571180344,-1.29950630665,1.4688321352,0.0757647058824,0.0,0.0,0.0,0.0,0.0,0.0,0.0,0.0,0.0,0.0,0.0,0.0,0.0,0.0,0.0
1.333463,-1.53367507458,0.887332320213,1.48002886772,-0.565164446831,2.74571180344,-1.29950630665,1.4688321352,0.0757647058824,0.0,0.0,0.0,0.0,0.0,0.0,0.0,0.0,0.0,0.0,0.0,0.0,0.0,0.0,0.0
1.366870,-1.53367507458,0.887332320213,1.48002886772,-0.565164446831,2.74571180344,-1.29950630665,1.4688321352,0.0757647058824,0.0,0.0,0.0,0.0,0.0,0.0,0.0,0.0,0.0,0.0,0.0,0.0,0.0,0.0,0.0
1.400112,-1.53367507458,0.887332320213,1.48002886772,-0.565164446831,2.74571180344,-1.29950630665,1.4688321352,0.0757647058824,0.0,0.0,0.0,0.0,0.0,0.0,0.0,0.0,0.0,0.0,0.0,0.0,0.0,0.0,0.0
1.433492,-1.53367507458,0.887332320213,1.48002886772,-0.565164446831,2.74571180344,-1.29950630665,1.4688321352,0.0757647058824,0.0,0.0,0.0,0.0,0.0,0.0,0.0,0.0,0.0,0.0,0.0,0.0,0.0,0.0,0.0
1.466818,-1.53367507458,0.887332320213,1.48002886772,-0.565164446831,2.74571180344,-1.29950630665,1.4688321352,0.0757647058824,0.0,0.0,0.0,0.0,0.0,0.0,0.0,0.0,0.0,0.0,0.0,0.0,0.0,0.0,0.0
1.500070,-1.53367507458,0.887332320213,1.48002886772,-0.565164446831,2.74571180344,-1.29950630665,1.4688321352,0.0757647058824,0.0,0.0,0.0,0.0,0.0,0.0,0.0,0.0,0.0,0.0,0.0,0.0,0.0,0.0,0.0
1.533476,-1.53367507458,0.887332320213,1.48002886772,-0.565164446831,2.74571180344,-1.29950630665,1.4688321352,0.0757647058824,0.0,0.0,0.0,0.0,0.0,0.0,0.0,0.0,0.0,0.0,0.0,0.0,0.0,0.0,0.0
1.566835,-1.53367507458,0.887332320213,1.48002886772,-0.565164446831,2.74571180344,-1.29950630665,1.4688321352,0.0757647058824,0.0,0.0,0.0,0.0,0.0,0.0,0.0,0.0,0.0,0.0,0.0,0.0,0.0,0.0,0.0
1.600136,-1.53367507458,0.887332320213,1.48002886772,-0.565164446831,2.74571180344,-1.29950630665,1.4688321352,0.0757647058824,0.0,0.0,0.0,0.0,0.0,0.0,0.0,0.0,0.0,0.0,0.0,0.0,0.0,0.0,0.0
1.633490,-1.53367507458,0.887332320213,1.48002886772,-0.565164446831,2.74571180344,-1.29950630665,1.4688321352,0.0757647058824,0.0,0.0,0.0,0.0,0.0,0.0,0.0,0.0,0.0,0.0,0.0,0.0,0.0,0.0,0.0
1.666895,-1.53367507458,0.887332320213,1.48002886772,-0.565164446831,2.74571180344,-1.29950630665,1.4688321352,0.0757647058824,0.0,0.0,0.0,0.0,0.0,0.0,0.0,0.0,0.0,0.0,0.0,0.0,0.0,0.0,0.0
1.700128,-1.53367507458,0.887332320213,1.48002886772,-0.565164446831,2.74571180344,-1.29950630665,1.4688321352,0.0757647058824,0.0,0.0,0.0,0.0,0.0,0.0,0.0,0.0,0.0,0.0,0.0,0.0,0.0,0.0,0.0
1.733483,-1.53367507458,0.887332320213,1.48002886772,-0.565164446831,2.74571180344,-1.29950630665,1.4688321352,0.0757647058824,0.0,0.0,0.0,0.0,0.0,0.0,0.0,0.0,0.0,0.0,0.0,0.0,0.0,0.0,0.0
1.766843,-1.53367507458,0.887332320213,1.48002886772,-0.565164446831,2.74571180344,-1.29950630665,1.4688321352,0.0757647058824,0.0,0.0,0.0,0.0,0.0,0.0,0.0,0.0,0.0,0.0,0.0,0.0,0.0,0.0,0.0
1.800134,-1.53367507458,0.887332320213,1.48002886772,-0.565164446831,2.74571180344,-1.29950630665,1.4688321352,0.0757647058824,0.0,0.0,0.0,0.0,0.0,0.0,0.0,0.0,0.0,0.0,0.0,0.0,0.0,0.0,0.0
1.833498,-1.53367507458,0.887332320213,1.48002886772,-0.565164446831,2.74571180344,-1.29950630665,1.4688321352,0.0757647058824,0.0,0.0,0.0,0.0,0.0,0.0,0.0,0.0,0.0,0.0,0.0,0.0,0.0,0.0,0.0
1.866858,-1.53367507458,0.887332320213,1.48002886772,-0.565164446831,2.74571180344,-1.29950630665,1.4688321352,0.0757647058824,0.0,0.0,0.0,0.0,0.0,0.0,0.0,0.0,0.0,0.0,0.0,0.0,0.0,0.0,0.0
1.900136,-1.53367507458,0.887332320213,1.48002886772,-0.565164446831,2.74571180344,-1.29950630665,1.4688321352,0.0757647058824,0.0,0.0,0.0,0.0,0.0,0.0,0.0,0.0,0.0,0.0,0.0,0.0,0.0,0.0,0.0
1.933529,-1.53367507458,0.887332320213,1.48002886772,-0.565164446831,2.74571180344,-1.29950630665,1.4688321352,0.0757647058824,0.0,0.0,0.0,0.0,0.0,0.0,0.0,0.0,0.0,0.0,0.0,0.0,0.0,0.0,0.0
1.966880,-1.53367507458,0.887332320213,1.48002886772,-0.565164446831,2.74571180344,-1.29950630665,1.4688321352,0.0757647058824,0.0,0.0,0.0,0.0,0.0,0.0,0.0,0.0,0.0,0.0,0.0,0.0,0.0,0.0,0.0
2.000117,-1.53367507458,0.887332320213,1.48002886772,-0.565164446831,2.74571180344,-1.29950630665,1.4688321352,0.0757647058824,0.0,0.0,0.0,0.0,0.0,0.0,0.0,0.0,0.0,0.0,0.0,0.0,0.0,0.0,0.0
2.033490,-1.53367507458,0.887332320213,1.48002886772,-0.565164446831,2.74571180344,-1.29950630665,1.4688321352,0.0757647058824,0.0,0.0,0.0,0.0,0.0,0.0,0.0,0.0,0.0,0.0,0.0,0.0,0.0,0.0,0.0
2.066860,-1.53367507458,0.887332320213,1.48002886772,-0.565164446831,2.74571180344,-1.29950630665,1.4688321352,0.0757647058824,0.0,0.0,0.0,0.0,0.0,0.0,0.0,0.0,0.0,0.0,0.0,0.0,0.0,0.0,0.0
2.100381,-1.53367507458,0.887332320213,1.48002886772,-0.565164446831,2.74571180344,-1.29950630665,1.4688321352,0.0757647058824,0.0,0.0,0.0,0.0,0.0,0.0,0.0,0.0,0.0,0.0,0.0,0.0,0.0,0.0,0.0
2.133533,-1.53367507458,0.887332320213,1.48002886772,-0.565164446831,2.74571180344,-1.29950630665,1.4688321352,0.0757647058824,0.0,0.0,0.0,0.0,0.0,0.0,0.0,0.0,0.0,0.0,0.0,0.0,0.0,0.0,0.0
2.166838,-1.53367507458,0.887332320213,1.48002886772,-0.565164446831,2.74571180344,-1.29950630665,1.4688321352,0.0757647058824,0.0,0.0,0.0,0.0,0.0,0.0,0.0,0.0,0.0,0.0,0.0,0.0,0.0,0.0,0.0
2.200117,-1.53367507458,0.887332320213,1.48002886772,-0.565164446831,2.74571180344,-1.29950630665,1.4688321352,0.0757647058824,0.0,0.0,0.0,0.0,0.0,0.0,0.0,0.0,0.0,0.0,0.0,0.0,0.0,0.0,0.0
2.233501,-1.53367507458,0.887332320213,1.48002886772,-0.565164446831,2.74571180344,-1.29950630665,1.4688321352,0.0757647058824,0.0,0.0,0.0,0.0,0.0,0.0,0.0,0.0,0.0,0.0,0.0,0.0,0.0,0.0,0.0
2.266953,-1.53367507458,0.887332320213,1.48002886772,-0.565164446831,2.74571180344,-1.29950630665,1.4688321352,0.0757647058824,0.0,0.0,0.0,0.0,0.0,0.0,0.0,0.0,0.0,0.0,0.0,0.0,0.0,0.0,0.0
2.300152,-1.53367507458,0.887332320213,1.48002886772,-0.565164446831,2.74571180344,-1.29950630665,1.4688321352,0.0757647058824,0.0,0.0,0.0,0.0,0.0,0.0,0.0,0.0,0.0,0.0,0.0,0.0,0.0,0.0,0.0
2.333492,-1.53367507458,0.887332320213,1.48002886772,-0.565164446831,2.74571180344,-1.29950630665,1.4688321352,0.0757647058824,0.0,0.0,0.0,0.0,0.0,0.0,0.0,0.0,0.0,0.0,0.0,0.0,0.0,0.0,0.0
2.366874,-1.53367507458,0.887332320213,1.48002886772,-0.565164446831,2.74571180344,-1.29950630665,1.4688321352,0.0757647058824,0.0,0.0,0.0,0.0,0.0,0.0,0.0,0.0,0.0,0.0,0.0,0.0,0.0,0.0,0.0
2.400148,-1.53367507458,0.887332320213,1.48002886772,-0.565164446831,2.74571180344,-1.29950630665,1.4688321352,0.0757647058824,0.0,0.0,0.0,0.0,0.0,0.0,0.0,0.0,0.0,0.0,0.0,0.0,0.0,0.0,0.0
2.433502,-1.53367507458,0.887332320213,1.48002886772,-0.565164446831,2.74571180344,-1.29950630665,1.4688321352,0.0757647058824,0.0,0.0,0.0,0.0,0.0,0.0,0.0,0.0,0.0,0.0,0.0,0.0,0.0,0.0,0.0
2.466857,-1.53367507458,0.887332320213,1.48002886772,-0.565164446831,2.74571180344,-1.29950630665,1.4688321352,0.0757647058824,0.0,0.0,0.0,0.0,0.0,0.0,0.0,0.0,0.0,0.0,0.0,0.0,0.0,0.0,0.0
2.500119,-1.53367507458,0.887332320213,1.48002886772,-0.565164446831,2.74571180344,-1.29950630665,1.4688321352,0.0757647058824,0.0,0.0,0.0,0.0,0.0,0.0,0.0,0.0,0.0,0.0,0.0,0.0,0.0,0.0,0.0
2.533489,-1.53367507458,0.887332320213,1.48002886772,-0.565164446831,2.74571180344,-1.29950630665,1.4688321352,0.0757647058824,0.0,0.0,0.0,0.0,0.0,0.0,0.0,0.0,0.0,0.0,0.0,0.0,0.0,0.0,0.0
2.566843,-1.53367507458,0.887332320213,1.48002886772,-0.565164446831,2.74571180344,-1.29950630665,1.4688321352,0.0757647058824,0.0,0.0,0.0,0.0,0.0,0.0,0.0,0.0,0.0,0.0,0.0,0.0,0.0,0.0,0.0
2.600129,-1.53367507458,0.887332320213,1.48002886772,-0.565164446831,2.74571180344,-1.29950630665,1.4688321352,0.0757647058824,0.0,0.0,0.0,0.0,0.0,0.0,0.0,0.0,0.0,0.0,0.0,0.0,0.0,0.0,0.0
2.633488,-1.53367507458,0.887332320213,1.48002886772,-0.565164446831,2.74571180344,-1.29950630665,1.4688321352,0.0756470588235,0.0,0.0,0.0,0.0,0.0,0.0,0.0,0.0,0.0,0.0,0.0,0.0,0.0,0.0,0.0
2.666831,-1.53367507458,0.887332320213,1.48002886772,-0.565164446831,2.74571180344,-1.29950630665,1.4688321352,0.0756470588235,0.0,0.0,0.0,0.0,0.0,0.0,0.0,0.0,0.0,0.0,0.0,0.0,0.0,0.0,0.0
2.700106,-1.53367507458,0.887332320213,1.48002886772,-0.565164446831,2.74571180344,-1.29950630665,1.4688321352,0.0756470588235,0.0,0.0,0.0,0.0,0.0,0.0,0.0,0.0,0.0,0.0,0.0,0.0,0.0,0.0,0.0
2.733475,-1.53367507458,0.887332320213,1.48002886772,-0.565164446831,2.74571180344,-1.29950630665,1.4688321352,0.0756470588235,0.0,0.0,0.0,0.0,0.0,0.0,0.0,0.0,0.0,0.0,0.0,0.0,0.0,0.0,0.0
2.766885,-1.53367507458,0.887332320213,1.48002886772,-0.565164446831,2.74571180344,-1.29950630665,1.4688321352,0.0756470588235,0.0,0.0,0.0,0.0,0.0,0.0,0.0,0.0,0.0,0.0,0.0,0.0,0.0,0.0,0.0
2.800132,-1.53367507458,0.887332320213,1.48002886772,-0.565164446831,2.74571180344,-1.29950630665,1.4688321352,0.0756470588235,0.0,0.0,0.0,0.0,0.0,0.0,0.0,0.0,0.0,0.0,0.0,0.0,0.0,0.0,0.0
2.833489,-1.53367507458,0.887332320213,1.48002886772,-0.565164446831,2.74571180344,-1.29950630665,1.4688321352,0.0756470588235,0.0,0.0,0.0,0.0,0.0,0.0,0.0,0.0,0.0,0.0,0.0,0.0,0.0,0.0,0.0
2.866928,-1.53367507458,0.887332320213,1.48002886772,-0.565164446831,2.74571180344,-1.29950630665,1.4688321352,0.0756470588235,0.0,0.0,0.0,0.0,0.0,0.0,0.0,0.0,0.0,0.0,0.0,0.0,0.0,0.0,0.0
2.900129,-1.53367507458,0.887332320213,1.48002886772,-0.565164446831,2.74571180344,-1.29950630665,1.4688321352,0.0756470588235,0.0,0.0,0.0,0.0,0.0,0.0,0.0,0.0,0.0,0.0,0.0,0.0,0.0,0.0,0.0
2.933475,-1.53367507458,0.887332320213,1.48002886772,-0.565164446831,2.74571180344,-1.29950630665,1.4688321352,0.0756470588235,0.0,0.0,0.0,0.0,0.0,0.0,0.0,0.0,0.0,0.0,0.0,0.0,0.0,0.0,0.0
2.966829,-1.53367507458,0.887332320213,1.48002886772,-0.565164446831,2.74571180344,-1.29950630665,1.4688321352,0.0756470588235,0.0,0.0,0.0,0.0,0.0,0.0,0.0,0.0,0.0,0.0,0.0,0.0,0.0,0.0,0.0
3.000130,-1.53367507458,0.887332320213,1.48002886772,-0.565164446831,2.74571180344,-1.29950630665,1.4688321352,0.0756470588235,0.0,0.0,0.0,0.0,0.0,0.0,0.0,0.0,0.0,0.0,0.0,0.0,0.0,0.0,0.0
3.033517,-1.53367507458,0.887332320213,1.48002886772,-0.565164446831,2.74571180344,-1.29950630665,1.4688321352,0.0756470588235,0.0,0.0,0.0,0.0,0.0,0.0,0.0,0.0,0.0,0.0,0.0,0.0,0.0,0.0,0.0
3.066898,-1.53367507458,0.887332320213,1.48002886772,-0.565164446831,2.74571180344,-1.29950630665,1.4688321352,0.0756470588235,0.0,0.0,0.0,0.0,0.0,0.0,0.0,0.0,0.0,0.0,0.0,0.0,0.0,0.0,0.0
3.100177,-1.53367507458,0.887332320213,1.48002886772,-0.565164446831,2.74571180344,-1.29950630665,1.4688321352,0.0756470588235,0.0,0.0,0.0,0.0,0.0,0.0,0.0,0.0,0.0,0.0,0.0,0.0,0.0,0.0,0.0
3.133514,-1.53367507458,0.887332320213,1.48002886772,-0.565164446831,2.74571180344,-1.29950630665,1.4688321352,0.0756470588235,0.0,0.0,0.0,0.0,0.0,0.0,0.0,0.0,0.0,0.0,0.0,0.0,0.0,0.0,0.0
3.166869,-1.53367507458,0.887332320213,1.48002886772,-0.565164446831,2.74571180344,-1.29950630665,1.4688321352,0.0756470588235,0.0,0.0,0.0,0.0,0.0,0.0,0.0,0.0,0.0,0.0,0.0,0.0,0.0,0.0,0.0
3.200144,-1.53367507458,0.887332320213,1.48002886772,-0.565164446831,2.74571180344,-1.29950630665,1.4688321352,0.0756470588235,0.0,0.0,0.0,0.0,0.0,0.0,0.0,0.0,0.0,0.0,0.0,0.0,0.0,0.0,0.0
3.233486,-1.53367507458,0.887332320213,1.48002886772,-0.565164446831,2.74571180344,-1.29950630665,1.4688321352,0.0756470588235,0.0,0.0,0.0,0.0,0.0,0.0,0.0,0.0,0.0,0.0,0.0,0.0,0.0,0.0,0.0
3.266835,-1.53367507458,0.887332320213,1.48002886772,-0.565164446831,2.74571180344,-1.29950630665,1.4688321352,0.0756470588235,0.0,0.0,0.0,0.0,0.0,0.0,0.0,0.0,0.0,0.0,0.0,0.0,0.0,0.0,0.0
3.300135,-1.53367507458,0.887332320213,1.48002886772,-0.565164446831,2.74571180344,-1.29950630665,1.4688321352,0.0756470588235,0.0,0.0,0.0,0.0,0.0,0.0,0.0,0.0,0.0,0.0,0.0,0.0,0.0,0.0,0.0
3.333448,-1.53367507458,0.887332320213,1.48002886772,-0.565164446831,2.74571180344,-1.29950630665,1.4688321352,0.0756470588235,0.0,0.0,0.0,0.0,0.0,0.0,0.0,0.0,0.0,0.0,0.0,0.0,0.0,0.0,0.0
3.366838,-1.53367507458,0.887332320213,1.48002886772,-0.565164446831,2.74571180344,-1.29950630665,1.4688321352,0.0756470588235,0.0,0.0,0.0,0.0,0.0,0.0,0.0,0.0,0.0,0.0,0.0,0.0,0.0,0.0,0.0
3.400127,-1.53367507458,0.887332320213,1.48002886772,-0.565164446831,2.74571180344,-1.29950630665,1.4688321352,0.0756470588235,0.0,0.0,0.0,0.0,0.0,0.0,0.0,0.0,0.0,0.0,0.0,0.0,0.0,0.0,0.0
3.433500,-1.53367507458,0.887332320213,1.48002886772,-0.565164446831,2.74571180344,-1.29950630665,1.4688321352,0.0756470588235,0.0,0.0,0.0,0.0,0.0,0.0,0.0,0.0,0.0,0.0,0.0,0.0,0.0,0.0,0.0
3.466875,-1.53367507458,0.887332320213,1.48002886772,-0.565164446831,2.74571180344,-1.29950630665,1.4688321352,0.0756470588235,0.0,0.0,0.0,0.0,0.0,0.0,0.0,0.0,0.0,0.0,0.0,0.0,0.0,0.0,0.0
3.500137,-1.53367507458,0.887332320213,1.48002886772,-0.565164446831,2.74571180344,-1.29950630665,1.4688321352,0.0756470588235,0.0,0.0,0.0,0.0,0.0,0.0,0.0,0.0,0.0,0.0,0.0,0.0,0.0,0.0,0.0
3.533460,-1.53367507458,0.887332320213,1.48002886772,-0.565164446831,2.74571180344,-1.29950630665,1.4688321352,0.0756470588235,0.0,0.0,0.0,0.0,0.0,0.0,0.0,0.0,0.0,0.0,0.0,0.0,0.0,0.0,0.0
3.566831,-1.53367507458,0.887332320213,1.48002886772,-0.565164446831,2.74571180344,-1.29950630665,1.4688321352,0.0756470588235,0.0,0.0,0.0,0.0,0.0,0.0,0.0,0.0,0.0,0.0,0.0,0.0,0.0,0.0,0.0
3.600155,-1.53367507458,0.887332320213,1.48002886772,-0.565164446831,2.74571180344,-1.29950630665,1.4688321352,0.0756470588235,0.0,0.0,0.0,0.0,0.0,0.0,0.0,0.0,0.0,0.0,0.0,0.0,0.0,0.0,0.0
3.633515,-1.53367507458,0.887332320213,1.48002886772,-0.565164446831,2.74571180344,-1.29950630665,1.4688321352,0.0756470588235,0.0,0.0,0.0,0.0,0.0,0.0,0.0,0.0,0.0,0.0,0.0,0.0,0.0,0.0,0.0
3.666876,-1.53367507458,0.887332320213,1.48002886772,-0.565164446831,2.74571180344,-1.29950630665,1.4688321352,0.0756470588235,0.0,0.0,0.0,0.0,0.0,0.0,0.0,0.0,0.0,0.0,0.0,0.0,0.0,0.0,0.0
3.700091,-1.53367507458,0.887332320213,1.48002886772,-0.565164446831,2.74571180344,-1.29950630665,1.4688321352,0.0756470588235,0.0,0.0,0.0,0.0,0.0,0.0,0.0,0.0,0.0,0.0,0.0,0.0,0.0,0.0,0.0
3.733481,-1.53367507458,0.887332320213,1.48002886772,-0.565164446831,2.74571180344,-1.29950630665,1.4688321352,0.0756470588235,0.0,0.0,0.0,0.0,0.0,0.0,0.0,0.0,0.0,0.0,0.0,0.0,0.0,0.0,0.0
3.766831,-1.53367507458,0.887332320213,1.48002886772,-0.565164446831,2.74571180344,-1.29950630665,1.4688321352,0.0756470588235,0.0,0.0,0.0,0.0,0.0,0.0,0.0,0.0,0.0,0.0,0.0,0.0,0.0,0.0,0.0
3.800130,-1.53367507458,0.887332320213,1.48002886772,-0.565164446831,2.74571180344,-1.29950630665,1.4688321352,0.0756470588235,0.0,0.0,0.0,0.0,0.0,0.0,0.0,0.0,0.0,0.0,0.0,0.0,0.0,0.0,0.0
3.833480,-1.53367507458,0.887332320213,1.48002886772,-0.565164446831,2.74571180344,-1.29950630665,1.4688321352,0.0756470588235,0.0,0.0,0.0,0.0,0.0,0.0,0.0,0.0,0.0,0.0,0.0,0.0,0.0,0.0,0.0
3.866834,-1.53367507458,0.887332320213,1.48002886772,-0.565164446831,2.74571180344,-1.29950630665,1.4688321352,0.0756470588235,0.0,0.0,0.0,0.0,0.0,0.0,0.0,0.0,0.0,0.0,0.0,0.0,0.0,0.0,0.0
3.900126,-1.53367507458,0.887332320213,1.48002886772,-0.565164446831,2.74571180344,-1.29950630665,1.4688321352,0.0756470588235,0.0,0.0,0.0,0.0,0.0,0.0,0.0,0.0,0.0,0.0,0.0,0.0,0.0,0.0,0.0
3.933474,-1.53367507458,0.887332320213,1.48002886772,-0.565164446831,2.74571180344,-1.29950630665,1.4688321352,0.0756470588235,0.0,0.0,0.0,0.0,0.0,0.0,0.0,0.0,0.0,0.0,0.0,0.0,0.0,0.0,0.0
3.966873,-1.53367507458,0.887332320213,1.48002886772,-0.565164446831,2.74571180344,-1.29950630665,1.4688321352,0.0756470588235,0.0,0.0,0.0,0.0,0.0,0.0,0.0,0.0,0.0,0.0,0.0,0.0,0.0,0.0,0.0
4.000105,-1.53367507458,0.887332320213,1.48002886772,-0.565164446831,2.74571180344,-1.29950630665,1.4688321352,0.0756470588235,0.0,0.0,0.0,0.0,0.0,0.0,0.0,0.0,0.0,0.0,0.0,0.0,0.0,0.0,0.0
4.033518,-1.53367507458,0.887332320213,1.48002886772,-0.565164446831,2.74571180344,-1.29950630665,1.4688321352,0.0756470588235,0.0,0.0,0.0,0.0,0.0,0.0,0.0,0.0,0.0,0.0,0.0,0.0,0.0,0.0,0.0
4.066862,-1.53367507458,0.887332320213,1.48002886772,-0.565164446831,2.74571180344,-1.29950630665,1.4688321352,0.0756470588235,0.0,0.0,0.0,0.0,0.0,0.0,0.0,0.0,0.0,0.0,0.0,0.0,0.0,0.0,0.0
4.100124,-1.53367507458,0.887332320213,1.48002886772,-0.565164446831,2.74571180344,-1.29950630665,1.4688321352,0.0756470588235,0.0,0.0,0.0,0.0,0.0,0.0,0.0,0.0,0.0,0.0,0.0,0.0,0.0,0.0,0.0
4.133488,-1.53367507458,0.887332320213,1.48002886772,-0.565164446831,2.74571180344,-1.29950630665,1.4688321352,0.0756470588235,0.0,0.0,0.0,0.0,0.0,0.0,0.0,0.0,0.0,0.0,0.0,0.0,0.0,0.0,0.0
4.166860,-1.53367507458,0.887332320213,1.48002886772,-0.565164446831,2.74571180344,-1.29950630665,1.4688321352,0.0756470588235,0.0,0.0,0.0,0.0,0.0,0.0,0.0,0.0,0.0,0.0,0.0,0.0,0.0,0.0,0.0
4.200119,-1.53367507458,0.887332320213,1.48002886772,-0.565164446831,2.74571180344,-1.29950630665,1.4688321352,0.0756470588235,0.0,0.0,0.0,0.0,0.0,0.0,0.0,0.0,0.0,0.0,0.0,0.0,0.0,0.0,0.0
4.233535,-1.53367507458,0.887332320213,1.48002886772,-0.565164446831,2.74571180344,-1.29950630665,1.4688321352,0.0756470588235,0.0,0.0,0.0,0.0,0.0,0.0,0.0,0.0,0.0,0.0,0.0,0.0,0.0,0.0,0.0
4.266841,-1.53367507458,0.887332320213,1.48002886772,-0.565164446831,2.74571180344,-1.29950630665,1.4688321352,0.0756470588235,0.0,0.0,0.0,0.0,0.0,0.0,0.0,0.0,0.0,0.0,0.0,0.0,0.0,0.0,0.0
4.300076,-1.53367507458,0.887332320213,1.48002886772,-0.565164446831,2.74571180344,-1.29950630665,1.4688321352,0.0756470588235,0.0,0.0,0.0,0.0,0.0,0.0,0.0,0.0,0.0,0.0,0.0,0.0,0.0,0.0,0.0
4.333449,-1.53367507458,0.887332320213,1.48002886772,-0.565164446831,2.74571180344,-1.29950630665,1.4688321352,0.0756470588235,0.0,0.0,0.0,0.0,0.0,0.0,0.0,0.0,0.0,0.0,0.0,0.0,0.0,0.0,0.0
4.366837,-1.53367507458,0.887332320213,1.48002886772,-0.565164446831,2.74571180344,-1.29950630665,1.4688321352,0.0756470588235,0.0,0.0,0.0,0.0,0.0,0.0,0.0,0.0,0.0,0.0,0.0,0.0,0.0,0.0,0.0
4.400093,-1.53367507458,0.887332320213,1.48002886772,-0.565164446831,2.74571180344,-1.29950630665,1.4688321352,0.0756470588235,0.0,0.0,0.0,0.0,0.0,0.0,0.0,0.0,0.0,0.0,0.0,0.0,0.0,0.0,0.0
4.433469,-1.53367507458,0.887332320213,1.48002886772,-0.565164446831,2.74571180344,-1.29950630665,1.4688321352,0.0756470588235,0.0,0.0,0.0,0.0,0.0,0.0,0.0,0.0,0.0,0.0,0.0,0.0,0.0,0.0,0.0
4.466830,-1.53367507458,0.887332320213,1.48002886772,-0.565164446831,2.74571180344,-1.29950630665,1.4688321352,0.0756470588235,0.0,0.0,0.0,0.0,0.0,0.0,0.0,0.0,0.0,0.0,0.0,0.0,0.0,0.0,0.0
4.500133,-1.53367507458,0.887332320213,1.48002886772,-0.565164446831,2.74571180344,-1.29950630665,1.4688321352,0.0756470588235,0.0,0.0,0.0,0.0,0.0,0.0,0.0,0.0,0.0,0.0,0.0,0.0,0.0,0.0,0.0
4.533547,-1.53367507458,0.887332320213,1.48002886772,-0.565164446831,2.74571180344,-1.29950630665,1.4688321352,0.0756470588235,0.0,0.0,0.0,0.0,0.0,0.0,0.0,0.0,0.0,0.0,0.0,0.0,0.0,0.0,0.0
4.566805,-1.53367507458,0.887332320213,1.48002886772,-0.565164446831,2.74571180344,-1.29950630665,1.4688321352,0.0756470588235,0.0,0.0,0.0,0.0,0.0,0.0,0.0,0.0,0.0,0.0,0.0,0.0,0.0,0.0,0.0
4.600128,-1.53367507458,0.887332320213,1.48002886772,-0.565164446831,2.74571180344,-1.29950630665,1.4688321352,0.0756470588235,0.0,0.0,0.0,0.0,0.0,0.0,0.0,0.0,0.0,0.0,0.0,0.0,0.0,0.0,0.0
4.633474,-1.53367507458,0.887332320213,1.48002886772,-0.565164446831,2.74571180344,-1.29950630665,1.4688321352,0.0756470588235,0.0,0.0,0.0,0.0,0.0,0.0,0.0,0.0,0.0,0.0,0.0,0.0,0.0,0.0,0.0
4.666912,-1.53367507458,0.887332320213,1.48002886772,-0.565164446831,2.74571180344,-1.29950630665,1.4688321352,0.0756470588235,0.0,0.0,0.0,0.0,0.0,0.0,0.0,0.0,0.0,0.0,0.0,0.0,0.0,0.0,0.0
4.700153,-1.53367507458,0.887332320213,1.48002886772,-0.565164446831,2.74571180344,-1.29950630665,1.4688321352,0.0756470588235,0.0,0.0,0.0,0.0,0.0,0.0,0.0,0.0,0.0,0.0,0.0,0.0,0.0,0.0,0.0
4.733467,-1.53367507458,0.887332320213,1.48002886772,-0.565164446831,2.74571180344,-1.29950630665,1.4688321352,0.0756470588235,0.0,0.0,0.0,0.0,0.0,0.0,0.0,0.0,0.0,0.0,0.0,0.0,0.0,0.0,0.0
4.766831,-1.53367507458,0.887332320213,1.48002886772,-0.565164446831,2.74571180344,-1.29950630665,1.4688321352,0.0756470588235,0.0,0.0,0.0,0.0,0.0,0.0,0.0,0.0,0.0,0.0,0.0,0.0,0.0,0.0,0.0
4.800104,-1.53367507458,0.887332320213,1.48002886772,-0.565164446831,2.74571180344,-1.29950630665,1.4688321352,0.0756470588235,0.0,0.0,0.0,0.0,0.0,0.0,0.0,0.0,0.0,0.0,0.0,0.0,0.0,0.0,0.0
4.833483,-1.53367507458,0.887332320213,1.48002886772,-0.565164446831,2.74571180344,-1.29950630665,1.4688321352,0.0756470588235,0.0,0.0,0.0,0.0,0.0,0.0,0.0,0.0,0.0,0.0,0.0,0.0,0.0,0.0,0.0
4.866919,-1.53367507458,0.887332320213,1.48002886772,-0.565164446831,2.74571180344,-1.29950630665,1.4688321352,0.0756470588235,0.0,0.0,0.0,0.0,0.0,0.0,0.0,0.0,0.0,0.0,0.0,0.0,0.0,0.0,0.0
4.900138,-1.53367507458,0.887332320213,1.48002886772,-0.565164446831,2.74571180344,-1.29950630665,1.4688321352,0.0756470588235,0.0,0.0,0.0,0.0,0.0,0.0,0.0,0.0,0.0,0.0,0.0,0.0,0.0,0.0,0.0
4.933603,-1.53367507458,0.887332320213,1.48002886772,-0.565164446831,2.74571180344,-1.29950630665,1.4688321352,0.0756470588235,0.0,0.0,0.0,0.0,0.0,0.0,0.0,0.0,0.0,0.0,0.0,0.0,0.0,0.0,0.0
4.966919,-1.53367507458,0.887332320213,1.48002886772,-0.565164446831,2.74571180344,-1.29950630665,1.4688321352,0.0756470588235,0.0,0.0,0.0,0.0,0.0,0.0,0.0,0.0,0.0,0.0,0.0,0.0,0.0,0.0,0.0
5.000087,-1.53367507458,0.887332320213,1.48002886772,-0.565164446831,2.74571180344,-1.29950630665,1.4688321352,0.0756470588235,0.0,0.0,0.0,0.0,0.0,0.0,0.0,0.0,0.0,0.0,0.0,0.0,0.0,0.0,0.0
5.033467,-1.53367507458,0.887332320213,1.48002886772,-0.565164446831,2.74571180344,-1.29950630665,1.4688321352,0.0756470588235,0.0,0.0,0.0,0.0,0.0,0.0,0.0,0.0,0.0,0.0,0.0,0.0,0.0,0.0,0.0
5.066848,-1.53367507458,0.887332320213,1.48002886772,-0.565164446831,2.74571180344,-1.29950630665,1.4688321352,0.0756470588235,0.0,0.0,0.0,0.0,0.0,0.0,0.0,0.0,0.0,0.0,0.0,0.0,0.0,0.0,0.0
5.100136,-1.53367507458,0.887332320213,1.48002886772,-0.565164446831,2.74571180344,-1.29950630665,1.4688321352,0.0756470588235,0.0,0.0,0.0,0.0,0.0,0.0,0.0,0.0,0.0,0.0,0.0,0.0,0.0,0.0,0.0
5.133446,-1.53367507458,0.887332320213,1.48002886772,-0.565164446831,2.74571180344,-1.29950630665,1.4688321352,0.0756470588235,0.0,0.0,0.0,0.0,0.0,0.0,0.0,0.0,0.0,0.0,0.0,0.0,0.0,0.0,0.0
5.170058,-1.53367507458,0.887332320213,1.48002886772,-0.565164446831,2.74571180344,-1.29950630665,1.4688321352,0.0756470588235,0.0,0.0,0.0,0.0,0.0,0.0,0.0,0.0,0.0,0.0,0.0,0.0,0.0,0.0,0.0
5.200140,-1.53367507458,0.887332320213,1.48002886772,-0.565164446831,2.74571180344,-1.29950630665,1.4688321352,0.0756470588235,0.0,0.0,0.0,0.0,0.0,0.0,0.0,0.0,0.0,0.0,0.0,0.0,0.0,0.0,0.0
5.233506,-1.53367507458,0.887332320213,1.48002886772,-0.565164446831,2.74571180344,-1.29950630665,1.4688321352,0.0756470588235,0.0,0.0,0.0,0.0,0.0,0.0,0.0,0.0,0.0,0.0,0.0,0.0,0.0,0.0,0.0
5.267087,-1.53367507458,0.887332320213,1.48002886772,-0.565164446831,2.74571180344,-1.29950630665,1.4688321352,0.0756470588235,0.0,0.0,0.0,0.0,0.0,0.0,0.0,0.0,0.0,0.0,0.0,0.0,0.0,0.0,0.0
5.300126,-1.53367507458,0.887332320213,1.48002886772,-0.565164446831,2.74571180344,-1.29950630665,1.4688321352,0.0756470588235,0.0,0.0,0.0,0.0,0.0,0.0,0.0,0.0,0.0,0.0,0.0,0.0,0.0,0.0,0.0
5.333509,-1.53367507458,0.887332320213,1.48002886772,-0.565164446831,2.74571180344,-1.29950630665,1.4688321352,0.0756470588235,0.0,0.0,0.0,0.0,0.0,0.0,0.0,0.0,0.0,0.0,0.0,0.0,0.0,0.0,0.0
5.366848,-1.53367507458,0.887332320213,1.48002886772,-0.565164446831,2.74571180344,-1.29950630665,1.4688321352,0.0756470588235,0.0,0.0,0.0,0.0,0.0,0.0,0.0,0.0,0.0,0.0,0.0,0.0,0.0,0.0,0.0
5.400127,-1.53367507458,0.887332320213,1.48002886772,-0.565164446831,2.74571180344,-1.29950630665,1.4688321352,0.0756470588235,0.0,0.0,0.0,0.0,0.0,0.0,0.0,0.0,0.0,0.0,0.0,0.0,0.0,0.0,0.0
5.433554,-1.53367507458,0.887332320213,1.48002886772,-0.565164446831,2.74571180344,-1.29950630665,1.4688321352,0.0756470588235,0.0,0.0,0.0,0.0,0.0,0.0,0.0,0.0,0.0,0.0,0.0,0.0,0.0,0.0,0.0
5.466833,-1.53367507458,0.887332320213,1.48002886772,-0.565164446831,2.74571180344,-1.29950630665,1.4688321352,0.0756470588235,0.0,0.0,0.0,0.0,0.0,0.0,0.0,0.0,0.0,0.0,0.0,0.0,0.0,0.0,0.0
5.500242,-1.53367507458,0.887332320213,1.48002886772,-0.565164446831,2.74571180344,-1.29950630665,1.4688321352,0.0756470588235,0.0,0.0,0.0,0.0,0.0,0.0,0.0,0.0,0.0,0.0,0.0,0.0,0.0,0.0,0.0
5.533490,-1.53367507458,0.887332320213,1.48002886772,-0.565164446831,2.74571180344,-1.29950630665,1.4688321352,0.0756470588235,0.0,0.0,0.0,0.0,0.0,0.0,0.0,0.0,0.0,0.0,0.0,0.0,0.0,0.0,0.0
5.566921,-1.53367507458,0.887332320213,1.48002886772,-0.565164446831,2.74571180344,-1.29950630665,1.4688321352,0.0756470588235,0.0,0.0,0.0,0.0,0.0,0.0,0.0,0.0,0.0,0.0,0.0,0.0,0.0,0.0,0.0
5.600149,-1.53367507458,0.887332320213,1.48002886772,-0.565164446831,2.74571180344,-1.29950630665,1.4688321352,0.0756470588235,0.0,0.0,0.0,0.0,0.0,0.0,0.0,0.0,0.0,0.0,0.0,0.0,0.0,0.0,0.0
5.633491,-1.53367507458,0.887332320213,1.48002886772,-0.565164446831,2.74571180344,-1.29950630665,1.4688321352,0.0756470588235,0.0,0.0,0.0,0.0,0.0,0.0,0.0,0.0,0.0,0.0,0.0,0.0,0.0,0.0,0.0
5.666838,-1.53367507458,0.887332320213,1.48002886772,-0.565164446831,2.74571180344,-1.29950630665,1.4688321352,0.0756470588235,0.0,0.0,0.0,0.0,0.0,0.0,0.0,0.0,0.0,0.0,0.0,0.0,0.0,0.0,0.0
5.700130,-1.53367507458,0.887332320213,1.48002886772,-0.565164446831,2.74571180344,-1.29950630665,1.4688321352,0.0756470588235,0.0,0.0,0.0,0.0,0.0,0.0,0.0,0.0,0.0,0.0,0.0,0.0,0.0,0.0,0.0
5.733482,-1.53367507458,0.887332320213,1.48002886772,-0.565164446831,2.74571180344,-1.29950630665,1.4688321352,0.0756470588235,0.0,0.0,0.0,0.0,0.0,0.0,0.0,0.0,0.0,0.0,0.0,0.0,0.0,0.0,0.0
5.766826,-1.53367507458,0.887332320213,1.48002886772,-0.565164446831,2.74571180344,-1.29950630665,1.4688321352,0.0756470588235,0.0,0.0,0.0,0.0,0.0,0.0,0.0,0.0,0.0,0.0,0.0,0.0,0.0,0.0,0.0
5.800130,-1.53367507458,0.887332320213,1.48002886772,-0.565164446831,2.74571180344,-1.29950630665,1.4688321352,0.0756470588235,0.0,0.0,0.0,0.0,0.0,0.0,0.0,0.0,0.0,0.0,0.0,0.0,0.0,0.0,0.0
5.833487,-1.53367507458,0.887332320213,1.48002886772,-0.565164446831,2.74571180344,-1.29950630665,1.4688321352,0.0756470588235,0.0,0.0,0.0,0.0,0.0,0.0,0.0,0.0,0.0,0.0,0.0,0.0,0.0,0.0,0.0
5.866899,-1.53367507458,0.887332320213,1.48002886772,-0.565164446831,2.74571180344,-1.29950630665,1.4688321352,0.0756470588235,0.0,0.0,0.0,0.0,0.0,0.0,0.0,0.0,0.0,0.0,0.0,0.0,0.0,0.0,0.0
5.900097,-1.53367507458,0.887332320213,1.48002886772,-0.565164446831,2.74571180344,-1.29950630665,1.4688321352,0.0756470588235,0.0,0.0,0.0,0.0,0.0,0.0,0.0,0.0,0.0,0.0,0.0,0.0,0.0,0.0,0.0
5.933527,-1.53367507458,0.887332320213,1.48002886772,-0.565164446831,2.74571180344,-1.29950630665,1.4688321352,0.0756470588235,0.0,0.0,0.0,0.0,0.0,0.0,0.0,0.0,0.0,0.0,0.0,0.0,0.0,0.0,0.0
5.966836,-1.53367507458,0.887332320213,1.48002886772,-0.565164446831,2.74571180344,-1.29950630665,1.4688321352,0.0756470588235,0.0,0.0,0.0,0.0,0.0,0.0,0.0,0.0,0.0,0.0,0.0,0.0,0.0,0.0,0.0
6.000114,-1.53367507458,0.887332320213,1.48002886772,-0.565164446831,2.74571180344,-1.29950630665,1.4688321352,0.0756470588235,0.0,0.0,0.0,0.0,0.0,0.0,0.0,0.0,0.0,0.0,0.0,0.0,0.0,0.0,0.0
6.033511,-1.53367507458,0.887332320213,1.48002886772,-0.565164446831,2.74571180344,-1.29950630665,1.4688321352,0.0756470588235,0.0,0.0,0.0,0.0,0.0,0.0,0.0,0.0,0.0,0.0,0.0,0.0,0.0,0.0,0.0
6.066840,-1.53367507458,0.887332320213,1.48002886772,-0.565164446831,2.74571180344,-1.29950630665,1.4688321352,0.0756470588235,0.0,0.0,0.0,0.0,0.0,0.0,0.0,0.0,0.0,0.0,0.0,0.0,0.0,0.0,0.0
6.100171,-1.53367507458,0.887332320213,1.48002886772,-0.565164446831,2.74571180344,-1.29950630665,1.4688321352,0.0756470588235,0.0,0.0,0.0,0.0,0.0,0.0,0.0,0.0,0.0,0.0,0.0,0.0,0.0,0.0,0.0
6.133507,-1.53367507458,0.887332320213,1.48002886772,-0.565164446831,2.74571180344,-1.29950630665,1.4688321352,0.0756470588235,0.0,0.0,0.0,0.0,0.0,0.0,0.0,0.0,0.0,0.0,0.0,0.0,0.0,0.0,0.0
6.166955,-1.53367507458,0.887332320213,1.48002886772,-0.565164446831,2.74571180344,-1.29950630665,1.4688321352,0.0756470588235,0.0,0.0,0.0,0.0,0.0,0.0,0.0,0.0,0.0,0.0,0.0,0.0,0.0,0.0,0.0
6.200190,-1.53367507458,0.887332320213,1.48002886772,-0.565164446831,2.74571180344,-1.29950630665,1.4688321352,0.0756470588235,0.0,0.0,0.0,0.0,0.0,0.0,0.0,0.0,0.0,0.0,0.0,0.0,0.0,0.0,0.0
6.233514,-1.53367507458,0.887332320213,1.48002886772,-0.565164446831,2.74571180344,-1.29950630665,1.4688321352,0.0756470588235,0.0,0.0,0.0,0.0,0.0,0.0,0.0,0.0,0.0,0.0,0.0,0.0,0.0,0.0,0.0
6.266983,-1.53367507458,0.887332320213,1.48002886772,-0.565164446831,2.74571180344,-1.29950630665,1.4688321352,0.0756470588235,0.0,0.0,0.0,0.0,0.0,0.0,0.0,0.0,0.0,0.0,0.0,0.0,0.0,0.0,0.0
6.300147,-1.53367507458,0.887332320213,1.48002886772,-0.565164446831,2.74571180344,-1.29950630665,1.4688321352,0.0756470588235,0.0,0.0,0.0,0.0,0.0,0.0,0.0,0.0,0.0,0.0,0.0,0.0,0.0,0.0,0.0
6.333458,-1.53367507458,0.887332320213,1.48002886772,-0.565164446831,2.74571180344,-1.29950630665,1.4688321352,0.0756470588235,0.0,0.0,0.0,0.0,0.0,0.0,0.0,0.0,0.0,0.0,0.0,0.0,0.0,0.0,0.0
6.366821,-1.53367507458,0.887332320213,1.48002886772,-0.565164446831,2.74571180344,-1.29950630665,1.4688321352,0.0756470588235,0.0,0.0,0.0,0.0,0.0,0.0,0.0,0.0,0.0,0.0,0.0,0.0,0.0,0.0,0.0
6.400136,-1.53367507458,0.887332320213,1.48002886772,-0.565164446831,2.74571180344,-1.29950630665,1.4688321352,0.0756470588235,0.0,0.0,0.0,0.0,0.0,0.0,0.0,0.0,0.0,0.0,0.0,0.0,0.0,0.0,0.0
6.433494,-1.53367507458,0.887332320213,1.48002886772,-0.565164446831,2.74571180344,-1.29950630665,1.4688321352,0.0756470588235,0.0,0.0,0.0,0.0,0.0,0.0,0.0,0.0,0.0,0.0,0.0,0.0,0.0,0.0,0.0
6.466944,-1.53367507458,0.887332320213,1.48002886772,-0.565164446831,2.74571180344,-1.29950630665,1.4688321352,0.0756470588235,0.0,0.0,0.0,0.0,0.0,0.0,0.0,0.0,0.0,0.0,0.0,0.0,0.0,0.0,0.0
6.500115,-1.53367507458,0.887332320213,1.48002886772,-0.565164446831,2.74571180344,-1.29950630665,1.4688321352,0.0756470588235,0.0,0.0,0.0,0.0,0.0,0.0,0.0,0.0,0.0,0.0,0.0,0.0,0.0,0.0,0.0
6.533512,-1.53367507458,0.887332320213,1.48002886772,-0.565164446831,2.74571180344,-1.29950630665,1.4688321352,0.0756470588235,0.0,0.0,0.0,0.0,0.0,0.0,0.0,0.0,0.0,0.0,0.0,0.0,0.0,0.0,0.0
6.566897,-1.53367507458,0.887332320213,1.48002886772,-0.565164446831,2.74571180344,-1.29950630665,1.4688321352,0.0756470588235,0.0,0.0,0.0,0.0,0.0,0.0,0.0,0.0,0.0,0.0,0.0,0.0,0.0,0.0,0.0
6.600113,-1.53367507458,0.887332320213,1.48002886772,-0.565164446831,2.74571180344,-1.29950630665,1.4688321352,0.0756470588235,0.0,0.0,0.0,0.0,0.0,0.0,0.0,0.0,0.0,0.0,0.0,0.0,0.0,0.0,0.0
6.633458,-1.53367507458,0.887332320213,1.48002886772,-0.565164446831,2.74571180344,-1.29950630665,1.4688321352,0.0756470588235,0.0,0.0,0.0,0.0,0.0,0.0,0.0,0.0,0.0,0.0,0.0,0.0,0.0,0.0,0.0
6.666876,-1.53367507458,0.887332320213,1.48002886772,-0.565164446831,2.74571180344,-1.29950630665,1.4688321352,0.0756470588235,0.0,0.0,0.0,0.0,0.0,0.0,0.0,0.0,0.0,0.0,0.0,0.0,0.0,0.0,0.0
6.700148,-1.53367507458,0.887332320213,1.48002886772,-0.565164446831,2.74571180344,-1.29950630665,1.4688321352,0.0756470588235,0.0,0.0,0.0,0.0,0.0,0.0,0.0,0.0,0.0,0.0,0.0,0.0,0.0,0.0,0.0
6.733525,-1.53367507458,0.887332320213,1.48002886772,-0.565164446831,2.74571180344,-1.29950630665,1.4688321352,0.0756470588235,0.0,0.0,0.0,0.0,0.0,0.0,0.0,0.0,0.0,0.0,0.0,0.0,0.0,0.0,0.0
6.766869,-1.53367507458,0.887332320213,1.48002886772,-0.565164446831,2.74571180344,-1.29950630665,1.4688321352,0.0756470588235,0.0,0.0,0.0,0.0,0.0,0.0,0.0,0.0,0.0,0.0,0.0,0.0,0.0,0.0,0.0
6.800135,-1.53367507458,0.887332320213,1.48002886772,-0.565164446831,2.74571180344,-1.29950630665,1.4688321352,0.0756470588235,0.0,0.0,0.0,0.0,0.0,0.0,0.0,0.0,0.0,0.0,0.0,0.0,0.0,0.0,0.0
6.833463,-1.53367507458,0.887332320213,1.48002886772,-0.565164446831,2.74571180344,-1.29950630665,1.4688321352,0.0756470588235,0.0,0.0,0.0,0.0,0.0,0.0,0.0,0.0,0.0,0.0,0.0,0.0,0.0,0.0,0.0
6.866829,-1.53367507458,0.887332320213,1.48002886772,-0.565164446831,2.74571180344,-1.29950630665,1.4688321352,0.0756470588235,0.0,0.0,0.0,0.0,0.0,0.0,0.0,0.0,0.0,0.0,0.0,0.0,0.0,0.0,0.0
6.900196,-1.53367507458,0.887332320213,1.48002886772,-0.565164446831,2.74571180344,-1.29950630665,1.4688321352,0.0756470588235,0.0,0.0,0.0,0.0,0.0,0.0,0.0,0.0,0.0,0.0,0.0,0.0,0.0,0.0,0.0
6.933482,-1.53367507458,0.887332320213,1.48002886772,-0.565164446831,2.74571180344,-1.29950630665,1.4688321352,0.0756470588235,0.0,0.0,0.0,0.0,0.0,0.0,0.0,0.0,0.0,0.0,0.0,0.0,0.0,0.0,0.0
6.966820,-1.53367507458,0.887332320213,1.48002886772,-0.565164446831,2.74571180344,-1.29950630665,1.4688321352,0.0756470588235,0.0,0.0,0.0,0.0,0.0,0.0,0.0,0.0,0.0,0.0,0.0,0.0,0.0,0.0,0.0
7.000132,-1.53367507458,0.887332320213,1.48002886772,-0.565164446831,2.74571180344,-1.29950630665,1.4688321352,0.0756470588235,0.0,0.0,0.0,0.0,0.0,0.0,0.0,0.0,0.0,0.0,0.0,0.0,0.0,0.0,0.0
7.033491,-1.53367507458,0.887332320213,1.48002886772,-0.565164446831,2.74571180344,-1.29950630665,1.4688321352,0.0756470588235,0.0,0.0,0.0,0.0,0.0,0.0,0.0,0.0,0.0,0.0,0.0,0.0,0.0,0.0,0.0
7.066853,-1.53367507458,0.887332320213,1.48002886772,-0.565164446831,2.74571180344,-1.29950630665,1.4688321352,0.0756470588235,0.0,0.0,0.0,0.0,0.0,0.0,0.0,0.0,0.0,0.0,0.0,0.0,0.0,0.0,0.0
7.100116,-1.53367507458,0.887332320213,1.48002886772,-0.565164446831,2.74571180344,-1.29950630665,1.4688321352,0.0756470588235,0.0,0.0,0.0,0.0,0.0,0.0,0.0,0.0,0.0,0.0,0.0,0.0,0.0,0.0,0.0
7.133491,-1.53367507458,0.887332320213,1.48002886772,-0.565164446831,2.74571180344,-1.29950630665,1.4688321352,0.0756470588235,0.0,0.0,0.0,0.0,0.0,0.0,0.0,0.0,0.0,0.0,0.0,0.0,0.0,0.0,0.0
7.166874,-1.53367507458,0.887332320213,1.48002886772,-0.565164446831,2.74571180344,-1.29950630665,1.4688321352,0.0756470588235,0.0,0.0,0.0,0.0,0.0,0.0,0.0,0.0,0.0,0.0,0.0,0.0,0.0,0.0,0.0
7.200167,-1.53367507458,0.887332320213,1.48002886772,-0.565164446831,2.74571180344,-1.29950630665,1.4688321352,0.0756470588235,0.0,0.0,0.0,0.0,0.0,0.0,0.0,0.0,0.0,0.0,0.0,0.0,0.0,0.0,0.0
7.233488,-1.53367507458,0.887332320213,1.48002886772,-0.565164446831,2.74571180344,-1.29950630665,1.4688321352,0.0756470588235,0.0,0.0,0.0,0.0,0.0,0.0,0.0,0.0,0.0,0.0,0.0,0.0,0.0,0.0,0.0
7.266835,-1.53367507458,0.887332320213,1.48002886772,-0.565164446831,2.74571180344,-1.29950630665,1.4688321352,0.0756470588235,0.0,0.0,0.0,0.0,0.0,0.0,0.0,0.0,0.0,0.0,0.0,0.0,0.0,0.0,0.0
7.300127,-1.53367507458,0.887332320213,1.48002886772,-0.565164446831,2.74571180344,-1.29950630665,1.4688321352,0.0756470588235,0.0,0.0,0.0,0.0,0.0,0.0,0.0,0.0,0.0,0.0,0.0,0.0,0.0,0.0,0.0
7.333517,-1.53367507458,0.887332320213,1.48002886772,-0.565164446831,2.74571180344,-1.29950630665,1.4688321352,0.0756470588235,0.0,0.0,0.0,0.0,0.0,0.0,0.0,0.0,0.0,0.0,0.0,0.0,0.0,0.0,0.0
7.366815,-1.53367507458,0.887332320213,1.48002886772,-0.565164446831,2.74571180344,-1.29950630665,1.4688321352,0.0756470588235,0.0,0.0,0.0,0.0,0.0,0.0,0.0,0.0,0.0,0.0,0.0,0.0,0.0,0.0,0.0
7.400129,-1.53367507458,0.887332320213,1.48002886772,-0.565164446831,2.74571180344,-1.29950630665,1.4688321352,0.0756470588235,0.0,0.0,0.0,0.0,0.0,0.0,0.0,0.0,0.0,0.0,0.0,0.0,0.0,0.0,0.0
7.433502,-1.53367507458,0.887332320213,1.48002886772,-0.565164446831,2.74571180344,-1.29950630665,1.4688321352,0.0756470588235,0.0,0.0,0.0,0.0,0.0,0.0,0.0,0.0,0.0,0.0,0.0,0.0,0.0,0.0,0.0
7.466932,-1.53367507458,0.887332320213,1.48002886772,-0.565164446831,2.74571180344,-1.29950630665,1.4688321352,0.0756470588235,0.0,0.0,0.0,0.0,0.0,0.0,0.0,0.0,0.0,0.0,0.0,0.0,0.0,0.0,0.0
7.500143,-1.53367507458,0.887332320213,1.48002886772,-0.565164446831,2.74571180344,-1.29950630665,1.4688321352,0.0756470588235,0.0,0.0,0.0,0.0,0.0,0.0,0.0,0.0,0.0,0.0,0.0,0.0,0.0,0.0,0.0
7.533491,-1.53367507458,0.887332320213,1.48002886772,-0.565164446831,2.74571180344,-1.29950630665,1.4688321352,0.0756470588235,0.0,0.0,0.0,0.0,0.0,0.0,0.0,0.0,0.0,0.0,0.0,0.0,0.0,0.0,0.0
7.566832,-1.53367507458,0.887332320213,1.48002886772,-0.565164446831,2.74571180344,-1.29950630665,1.4688321352,0.0756470588235,0.0,0.0,0.0,0.0,0.0,0.0,0.0,0.0,0.0,0.0,0.0,0.0,0.0,0.0,0.0
7.600132,-1.53367507458,0.887332320213,1.48002886772,-0.565164446831,2.74571180344,-1.29950630665,1.4688321352,0.0756470588235,0.0,0.0,0.0,0.0,0.0,0.0,0.0,0.0,0.0,0.0,0.0,0.0,0.0,0.0,0.0
7.633498,-1.53367507458,0.887332320213,1.48002886772,-0.565164446831,2.74571180344,-1.29950630665,1.4688321352,0.0756470588235,0.0,0.0,0.0,0.0,0.0,0.0,0.0,0.0,0.0,0.0,0.0,0.0,0.0,0.0,0.0
7.666861,-1.53367507458,0.887332320213,1.48002886772,-0.565164446831,2.74571180344,-1.29950630665,1.4688321352,0.0756470588235,0.0,0.0,0.0,0.0,0.0,0.0,0.0,0.0,0.0,0.0,0.0,0.0,0.0,0.0,0.0
7.700139,-1.53367507458,0.887332320213,1.48002886772,-0.565164446831,2.74571180344,-1.29950630665,1.4688321352,0.0756470588235,0.0,0.0,0.0,0.0,0.0,0.0,0.0,0.0,0.0,0.0,0.0,0.0,0.0,0.0,0.0
7.733541,-1.53367507458,0.887332320213,1.48002886772,-0.565164446831,2.74571180344,-1.29950630665,1.4688321352,0.0756470588235,0.0,0.0,0.0,0.0,0.0,0.0,0.0,0.0,0.0,0.0,0.0,0.0,0.0,0.0,0.0
7.766866,-1.53367507458,0.887332320213,1.48002886772,-0.565164446831,2.74571180344,-1.29950630665,1.4688321352,0.0756470588235,0.0,0.0,0.0,0.0,0.0,0.0,0.0,0.0,0.0,0.0,0.0,0.0,0.0,0.0,0.0
7.800145,-1.53367507458,0.887332320213,1.48002886772,-0.565164446831,2.74571180344,-1.29950630665,1.4688321352,0.0756470588235,0.0,0.0,0.0,0.0,0.0,0.0,0.0,0.0,0.0,0.0,0.0,0.0,0.0,0.0,0.0
7.833483,-1.53367507458,0.887332320213,1.48002886772,-0.565164446831,2.74571180344,-1.29950630665,1.4688321352,0.0756470588235,0.0,0.0,0.0,0.0,0.0,0.0,0.0,0.0,0.0,0.0,0.0,0.0,0.0,0.0,0.0
7.866950,-1.53367507458,0.887332320213,1.48002886772,-0.565164446831,2.74571180344,-1.29950630665,1.4688321352,0.0756470588235,0.0,0.0,0.0,0.0,0.0,0.0,0.0,0.0,0.0,0.0,0.0,0.0,0.0,0.0,0.0
7.900135,-1.53367507458,0.887332320213,1.48002886772,-0.565164446831,2.74571180344,-1.29950630665,1.4688321352,0.0756470588235,0.0,0.0,0.0,0.0,0.0,0.0,0.0,0.0,0.0,0.0,0.0,0.0,0.0,0.0,0.0
7.933542,-1.53367507458,0.887332320213,1.48002886772,-0.565164446831,2.74571180344,-1.29950630665,1.4688321352,0.0756470588235,0.0,0.0,0.0,0.0,0.0,0.0,0.0,0.0,0.0,0.0,0.0,0.0,0.0,0.0,0.0
7.966881,-1.53367507458,0.887332320213,1.48002886772,-0.565164446831,2.74571180344,-1.29950630665,1.4688321352,0.0756470588235,0.0,0.0,0.0,0.0,0.0,0.0,0.0,0.0,0.0,0.0,0.0,0.0,0.0,0.0,0.0
8.000133,-1.53367507458,0.887332320213,1.48002886772,-0.565164446831,2.74571180344,-1.29950630665,1.4688321352,0.0756470588235,0.0,0.0,0.0,0.0,0.0,0.0,0.0,0.0,0.0,0.0,0.0,0.0,0.0,0.0,0.0
8.033471,-1.53367507458,0.887332320213,1.48002886772,-0.565164446831,2.74571180344,-1.29950630665,1.4688321352,0.0756470588235,0.0,0.0,0.0,0.0,0.0,0.0,0.0,0.0,0.0,0.0,0.0,0.0,0.0,0.0,0.0
8.066936,-1.53367507458,0.887332320213,1.48002886772,-0.565164446831,2.74571180344,-1.29950630665,1.4688321352,0.0756470588235,0.0,0.0,0.0,0.0,0.0,0.0,0.0,0.0,0.0,0.0,0.0,0.0,0.0,0.0,0.0
8.100125,-1.53367507458,0.887332320213,1.48002886772,-0.565164446831,2.74571180344,-1.29950630665,1.4688321352,0.0756470588235,0.0,0.0,0.0,0.0,0.0,0.0,0.0,0.0,0.0,0.0,0.0,0.0,0.0,0.0,0.0
8.133473,-1.53367507458,0.887332320213,1.48002886772,-0.565164446831,2.74571180344,-1.29950630665,1.4688321352,0.0756470588235,0.0,0.0,0.0,0.0,0.0,0.0,0.0,0.0,0.0,0.0,0.0,0.0,0.0,0.0,0.0
8.166819,-1.53367507458,0.887332320213,1.48002886772,-0.565164446831,2.74571180344,-1.29950630665,1.4688321352,0.0756470588235,0.0,0.0,0.0,0.0,0.0,0.0,0.0,0.0,0.0,0.0,0.0,0.0,0.0,0.0,0.0
8.200162,-1.53367507458,0.887332320213,1.48002886772,-0.565164446831,2.74571180344,-1.29950630665,1.4688321352,0.0756470588235,0.0,0.0,0.0,0.0,0.0,0.0,0.0,0.0,0.0,0.0,0.0,0.0,0.0,0.0,0.0
8.233479,-1.53367507458,0.887332320213,1.48002886772,-0.565164446831,2.74571180344,-1.29950630665,1.4688321352,0.0756470588235,0.0,0.0,0.0,0.0,0.0,0.0,0.0,0.0,0.0,0.0,0.0,0.0,0.0,0.0,0.0
8.266813,-1.53367507458,0.887332320213,1.48002886772,-0.565164446831,2.74571180344,-1.29950630665,1.4688321352,0.0756470588235,0.0,0.0,0.0,0.0,0.0,0.0,0.0,0.0,0.0,0.0,0.0,0.0,0.0,0.0,0.0
8.300117,-1.53367507458,0.887332320213,1.48002886772,-0.565164446831,2.74571180344,-1.29950630665,1.4688321352,0.0756470588235,0.0,0.0,0.0,0.0,0.0,0.0,0.0,0.0,0.0,0.0,0.0,0.0,0.0,0.0,0.0
8.333477,-1.53367507458,0.887332320213,1.48002886772,-0.565164446831,2.74571180344,-1.29950630665,1.4688321352,0.0756470588235,0.0,0.0,0.0,0.0,0.0,0.0,0.0,0.0,0.0,0.0,0.0,0.0,0.0,0.0,0.0
8.366870,-1.53367507458,0.887332320213,1.48002886772,-0.565164446831,2.74571180344,-1.29950630665,1.4688321352,0.0756470588235,0.0,0.0,0.0,0.0,0.0,0.0,0.0,0.0,0.0,0.0,0.0,0.0,0.0,0.0,0.0
8.400118,-1.53367507458,0.887332320213,1.48002886772,-0.565164446831,2.74571180344,-1.29950630665,1.4688321352,0.0756470588235,0.0,0.0,0.0,0.0,0.0,0.0,0.0,0.0,0.0,0.0,0.0,0.0,0.0,0.0,0.0
8.433505,-1.53367507458,0.887332320213,1.48002886772,-0.565164446831,2.74571180344,-1.29950630665,1.4688321352,0.0756470588235,0.0,0.0,0.0,0.0,0.0,0.0,0.0,0.0,0.0,0.0,0.0,0.0,0.0,0.0,0.0
8.466857,-1.53367507458,0.887332320213,1.48002886772,-0.565164446831,2.74571180344,-1.29950630665,1.4688321352,0.0756470588235,0.0,0.0,0.0,0.0,0.0,0.0,0.0,0.0,0.0,0.0,0.0,0.0,0.0,0.0,0.0
8.500144,-1.53367507458,0.887332320213,1.48002886772,-0.565164446831,2.74571180344,-1.29950630665,1.4688321352,0.0756470588235,0.0,0.0,0.0,0.0,0.0,0.0,0.0,0.0,0.0,0.0,0.0,0.0,0.0,0.0,0.0
8.533569,-1.53367507458,0.887332320213,1.48002886772,-0.565164446831,2.74571180344,-1.29950630665,1.4688321352,0.0756470588235,0.0,0.0,0.0,0.0,0.0,0.0,0.0,0.0,0.0,0.0,0.0,0.0,0.0,0.0,0.0
8.566855,-1.53367507458,0.887332320213,1.48002886772,-0.565164446831,2.74571180344,-1.29950630665,1.4688321352,0.0756470588235,0.0,0.0,0.0,0.0,0.0,0.0,0.0,0.0,0.0,0.0,0.0,0.0,0.0,0.0,0.0
8.600157,-1.53367507458,0.887332320213,1.48002886772,-0.565164446831,2.74571180344,-1.29950630665,1.4688321352,0.0756470588235,0.0,0.0,0.0,0.0,0.0,0.0,0.0,0.0,0.0,0.0,0.0,0.0,0.0,0.0,0.0
8.633489,-1.53367507458,0.887332320213,1.48002886772,-0.565164446831,2.74571180344,-1.29950630665,1.4688321352,0.0756470588235,0.0,0.0,0.0,0.0,0.0,0.0,0.0,0.0,0.0,0.0,0.0,0.0,0.0,0.0,0.0
8.666894,-1.53367626667,0.887499690056,1.48003137112,-0.565164446831,2.74571585655,-1.29950976372,1.46884083748,0.0756470588235,0.0,0.0,0.0,0.0,0.0,0.0,0.0,0.0,0.0,0.0,0.0,0.0,0.0,0.0,0.0
8.700197,-1.53367745876,0.887825608253,1.48003137112,-0.565164446831,2.74571585655,-1.29950976372,1.46884083748,0.0756470588235,0.0,0.0,0.0,0.0,0.0,0.0,0.0,0.0,0.0,0.0,0.0,0.0,0.0,0.0,0.0
8.733494,-1.53367888927,0.888188719749,1.48003137112,-0.565164446831,2.74571585655,-1.29950976372,1.46884083748,0.0756470588235,0.0,0.0,0.0,0.0,0.0,0.0,0.0,0.0,0.0,0.0,0.0,0.0,0.0,0.0,0.0
8.766903,-1.53367507458,0.888703763485,1.48003268242,-0.565178573132,2.74572014809,-1.29951155186,1.46884083748,0.0756470588235,0.0,0.0,0.0,0.0,0.0,0.0,0.0,0.0,0.0,0.0,0.0,0.0,0.0,0.0,0.0
8.800132,-1.53360593319,0.889556586742,1.48003268242,-0.565261602402,2.74572205544,-1.29951834679,1.46884083748,0.0756470588235,0.0,0.0,0.0,0.0,0.0,0.0,0.0,0.0,0.0,0.0,0.0,0.0,0.0,0.0,0.0
8.833502,-1.53346395493,0.890391230583,1.48003268242,-0.565536439419,2.74572849274,-1.29951989651,1.46884083748,0.0756470588235,0.0,0.0,0.0,0.0,0.0,0.0,0.0,0.0,0.0,0.0,0.0,0.0,0.0,0.0,0.0
8.866880,-1.53313159943,0.891489326954,1.48003137112,-0.566327631474,2.74572634697,-1.29954218864,1.46884083748,0.0756470588235,0.0,0.0,0.0,0.0,0.0,0.0,0.0,0.0,0.0,0.0,0.0,0.0,0.0,0.0,0.0
8.900114,-1.53277873993,0.893341600895,1.48000073433,-0.56876039505,2.74572014809,-1.29959869385,1.46884083748,0.0756470588235,0.0,0.0,0.0,0.0,0.0,0.0,0.0,0.0,0.0,0.0,0.0,0.0,0.0,0.0,0.0
8.933453,-1.53227245808,0.894926786423,1.47958278656,-0.570978283882,2.74571585655,-1.3000228405,1.46884083748,0.0756470588235,0.0,0.0,0.0,0.0,0.0,0.0,0.0,0.0,0.0,0.0,0.0,0.0,0.0,0.0,0.0
8.966942,-1.53142106533,0.896505534649,1.4784245491,-0.573125839233,2.74570798874,-1.30133545399,1.46884083748,0.0756470588235,0.0,0.0,0.0,0.0,0.0,0.0,0.0,0.0,0.0,0.0,0.0,0.0,0.0,0.0,0.0
9.000143,-1.53022348881,0.898520052433,1.47645711899,-0.57611066103,2.74544405937,-1.3059169054,1.4688423872,0.0756470588235,0.0,0.0,0.0,0.0,0.0,0.0,0.0,0.0,0.0,0.0,0.0,0.0,0.0,0.0,0.0
9.033520,-1.52956259251,0.900023341179,1.47489762306,-0.578407824039,2.74430680275,-1.30890130997,1.46884417534,0.0756470588235,0.0,0.0,0.0,0.0,0.0,0.0,0.0,0.0,0.0,0.0,0.0,0.0,0.0,0.0,0.0
9.066888,-1.52911901474,0.901515185833,1.4731515646,-0.580332934856,2.74266433716,-1.31063640118,1.46884417534,0.0756470588235,0.0,0.0,0.0,0.0,0.0,0.0,0.0,0.0,0.0,0.0,0.0,0.0,0.0,0.0,0.0
9.100156,-1.5289028883,0.903566896915,1.47098994255,-0.582609653473,2.7409260273,-1.31278884411,1.46884763241,0.0756470588235,0.0,0.0,0.0,0.0,0.0,0.0,0.0,0.0,0.0,0.0,0.0,0.0,0.0,0.0,0.0
9.133494,-1.5289400816,0.905053496361,1.46921563148,-0.584206283092,2.73997068405,-1.31502521038,1.46885788441,0.0756470588235,0.0,0.0,0.0,0.0,0.0,0.0,0.0,0.0,0.0,0.0,0.0,0.0,0.0,0.0,0.0
9.166863,-1.52894127369,0.906655192375,1.46757161617,-0.585888504982,2.73869228363,-1.31744205952,1.46887481213,0.0756470588235,0.0,0.0,0.0,0.0,0.0,0.0,0.0,0.0,0.0,0.0,0.0,0.0,0.0,0.0,0.0
9.200167,-1.52893507481,0.908277392387,1.46575391293,-0.587898075581,2.73759007454,-1.32021331787,1.46893799305,0.0756470588235,0.0,0.0,0.0,0.0,0.0,0.0,0.0,0.0,0.0,0.0,0.0,0.0,0.0,0.0,0.0
9.233833,-1.52888643742,0.910504281521,1.46339154243,-0.590825378895,2.73590660095,-1.32437241077,1.46906912327,0.0756470588235,0.0,0.0,0.0,0.0,0.0,0.0,0.0,0.0,0.0,0.0,0.0,0.0,0.0,0.0,0.0
9.266870,-1.52887225151,0.91105645895,1.46278440952,-0.591626882553,2.73547697067,-1.32527053356,1.46906912327,0.0756470588235,0.0,0.0,0.0,0.0,0.0,0.0,0.0,0.0,0.0,0.0,0.0,0.0,0.0,0.0,0.0
9.300153,-1.52877640724,0.91438138485,1.4592217207,-0.596040904522,2.73327660561,-1.32946503162,1.46906912327,0.0756470588235,0.0,0.0,0.0,0.0,0.0,0.0,0.0,0.0,0.0,0.0,0.0,0.0,0.0,0.0,0.0
9.333529,-1.52866637707,0.916073858738,1.45738220215,-0.597994148731,2.73213505745,-1.33110654354,1.46907091141,0.0756470588235,0.0,0.0,0.0,0.0,0.0,0.0,0.0,0.0,0.0,0.0,0.0,0.0,0.0,0.0,0.0
9.366888,-1.52863585949,0.917766392231,1.4555439949,-0.599997282028,2.73051118851,-1.33223831654,1.46906912327,0.0756470588235,0.0,0.0,0.0,0.0,0.0,0.0,0.0,0.0,0.0,0.0,0.0,0.0,0.0,0.0,0.0
9.400142,-1.5286346674,0.919940829277,1.45290291309,-0.602354586124,2.7284822464,-1.33315515518,1.46906912327,0.0756470588235,0.0,0.0,0.0,0.0,0.0,0.0,0.0,0.0,0.0,0.0,0.0,0.0,0.0,0.0,0.0
9.433504,-1.52865231037,0.921514451504,1.45111465454,-0.603813111782,2.7270116806,-1.33347392082,1.46906733513,0.0756470588235,0.0,0.0,0.0,0.0,0.0,0.0,0.0,0.0,0.0,0.0,0.0,0.0,0.0,0.0,0.0
9.466862,-1.52865755558,0.923053503036,1.44930315018,-0.605017185211,2.72564148903,-1.33348083496,1.46906733513,0.0756470588235,0.0,0.0,0.0,0.0,0.0,0.0,0.0,0.0,0.0,0.0,0.0,0.0,0.0,0.0,0.0
9.500108,-1.52865755558,0.92520493269,1.44702017307,-0.607307910919,2.72386622429,-1.33353531361,1.46906733513,0.0756470588235,0.0,0.0,0.0,0.0,0.0,0.0,0.0,0.0,0.0,0.0,0.0,0.0,0.0,0.0,0.0
9.533519,-1.52864742279,0.926828384399,1.44525504112,-0.609490036964,2.7225856781,-1.33377563953,1.46906733513,0.0756470588235,0.0,0.0,0.0,0.0,0.0,0.0,0.0,0.0,0.0,0.0,0.0,0.0,0.0,0.0,0.0
9.566937,-1.52842116356,0.928514420986,1.44359171391,-0.611966192722,2.72131729126,-1.33420348167,1.46906733513,0.0756470588235,0.0,0.0,0.0,0.0,0.0,0.0,0.0,0.0,0.0,0.0,0.0,0.0,0.0,0.0,0.0
9.600130,-1.52779853344,0.930729806423,1.44111430645,-0.614856421947,2.7199857235,-1.33513224125,1.46906912327,0.0756470588235,0.0,0.0,0.0,0.0,0.0,0.0,0.0,0.0,0.0,0.0,0.0,0.0,0.0,0.0,0.0
9.633476,-1.52731919289,0.932378828526,1.43935680389,-0.616851866245,2.71854996681,-1.33562660217,1.46910309792,0.0756470588235,0.0,0.0,0.0,0.0,0.0,0.0,0.0,0.0,0.0,0.0,0.0,0.0,0.0,0.0,0.0
9.666822,-1.52697265148,0.933912873268,1.43764257431,-0.618866562843,2.71748661995,-1.33607661724,1.46940326691,0.0756470588235,0.0,0.0,0.0,0.0,0.0,0.0,0.0,0.0,0.0,0.0,0.0,0.0,0.0,0.0,0.0
9.700103,-1.52688574791,0.935708761215,1.43587577343,-0.621393740177,2.71615934372,-1.33782541752,1.47024190426,0.0756470588235,0.0,0.0,0.0,0.0,0.0,0.0,0.0,0.0,0.0,0.0,0.0,0.0,0.0,0.0,0.0
9.733472,-1.52691650391,0.936728954315,1.43468439579,-0.622941792011,2.71559071541,-1.34031033516,1.47125756741,0.0756470588235,0.0,0.0,0.0,0.0,0.0,0.0,0.0,0.0,0.0,0.0,0.0,0.0,0.0,0.0,0.0
9.766807,-1.52692270279,0.937745153904,1.43360817432,-0.624171555042,2.71481752396,-1.34302890301,1.47278320789,0.0756470588235,0.0,0.0,0.0,0.0,0.0,0.0,0.0,0.0,0.0,0.0,0.0,0.0,0.0,0.0,0.0
9.800133,-1.52692270279,0.939298391342,1.43191683292,-0.625997006893,2.71378278732,-1.34592473507,1.47421646118,0.0756470588235,0.0,0.0,0.0,0.0,0.0,0.0,0.0,0.0,0.0,0.0,0.0,0.0,0.0,0.0,0.0
9.833496,-1.5269215107,0.940640628338,1.43024742603,-0.62789273262,2.71286845207,-1.34757125378,1.47541129589,0.0756470588235,0.0,0.0,0.0,0.0,0.0,0.0,0.0,0.0,0.0,0.0,0.0,0.0,0.0,0.0,0.0
9.866903,-1.52691257,0.94215285778,1.42858815193,-0.629890739918,2.71158790588,-1.34865856171,1.47598910332,0.0756470588235,0.0,0.0,0.0,0.0,0.0,0.0,0.0,0.0,0.0,0.0,0.0,0.0,0.0,0.0,0.0
9.900294,-1.52689862251,0.944147050381,1.42645335197,-0.632516384125,2.71008682251,-1.3501585722,1.47642719746,0.0756470588235,0.0,0.0,0.0,0.0,0.0,0.0,0.0,0.0,0.0,0.0,0.0,0.0,0.0,0.0,0.0
9.933477,-1.52692401409,0.945551872253,1.42483770847,-0.633854866028,2.70867133141,-1.35055553913,1.47778379917,0.0756470588235,0.0,0.0,0.0,0.0,0.0,0.0,0.0,0.0,0.0,0.0,0.0,0.0,0.0,0.0,0.0
9.966852,-1.52705192566,0.946805894375,1.42315149307,-0.634332895279,2.70732736588,-1.35055553913,1.47862923145,0.0756470588235,0.0,0.0,0.0,0.0,0.0,0.0,0.0,0.0,0.0,0.0,0.0,0.0,0.0,0.0,0.0
10.000148,-1.52742397785,0.948388457298,1.42142450809,-0.634873628616,2.70599007607,-1.35055732727,1.47869741917,0.0756470588235,0.0,0.0,0.0,0.0,0.0,0.0,0.0,0.0,0.0,0.0,0.0,0.0,0.0,0.0,0.0
10.033497,-1.52777409554,0.949523627758,1.42045032978,-0.635672569275,2.70544600487,-1.3506051302,1.47888493538,0.0756470588235,0.0,0.0,0.0,0.0,0.0,0.0,0.0,0.0,0.0,0.0,0.0,0.0,0.0,0.0,0.0
10.066862,-1.52797746658,0.950175583363,1.41971933842,-0.636323273182,2.70516371727,-1.35074138641,1.47907066345,0.0756470588235,0.0,0.0,0.0,0.0,0.0,0.0,0.0,0.0,0.0,0.0,0.0,0.0,0.0,0.0,0.0
10.100139,-1.52819228172,0.951893627644,1.41788363457,-0.637925028801,2.70360946655,-1.35091519356,1.48102736473,0.0756470588235,0.0,0.0,0.0,0.0,0.0,0.0,0.0,0.0,0.0,0.0,0.0,0.0,0.0,0.0,0.0
10.133479,-1.52819478512,0.953019857407,1.41679179668,-0.638720035553,2.70258641243,-1.3509169817,1.48203825951,0.0756470588235,0.0,0.0,0.0,0.0,0.0,0.0,0.0,0.0,0.0,0.0,0.0,0.0,0.0,0.0,0.0
10.166858,-1.5282189846,0.954005420208,1.41558265686,-0.639462709427,2.70197725296,-1.35092544556,1.48308801651,0.0756470588235,0.0,0.0,0.0,0.0,0.0,0.0,0.0,0.0,0.0,0.0,0.0,0.0,0.0,0.0,0.0
10.200141,-1.52828431129,0.95536673069,1.41430938244,-0.640503287315,2.70176434517,-1.35152387619,1.4848793745,0.0756470588235,0.0,0.0,0.0,0.0,0.0,0.0,0.0,0.0,0.0,0.0,0.0,0.0,0.0,0.0,0.0
10.233548,-1.52826499939,0.956490397453,1.41351175308,-0.641648709774,2.70173764229,-1.35249006748,1.48542833328,0.0756470588235,0.0,0.0,0.0,0.0,0.0,0.0,0.0,0.0,0.0,0.0,0.0,0.0,0.0,0.0,0.0
10.266849,-1.5282241106,0.957633256912,1.41262972355,-0.642828643322,2.70172142982,-1.3539763689,1.48603653908,0.0756470588235,0.0,0.0,0.0,0.0,0.0,0.0,0.0,0.0,0.0,0.0,0.0,0.0,0.0,0.0,0.0
10.300153,-1.52814996243,0.959259271622,1.41117358208,-0.644760072231,2.70172524452,-1.35486960411,1.4868581295,0.0756470588235,0.0,0.0,0.0,0.0,0.0,0.0,0.0,0.0,0.0,0.0,0.0,0.0,0.0,0.0,0.0
10.333887,-1.52804136276,0.960608005524,1.41031849384,-0.646473050117,2.70172977448,-1.35499572754,1.48697066307,0.0756470588235,0.0,0.0,0.0,0.0,0.0,0.0,0.0,0.0,0.0,0.0,0.0,0.0,0.0,0.0,0.0
10.366841,-1.52787768841,0.961906671524,1.40959107876,-0.648035168648,2.70172977448,-1.35499382019,1.48703217506,0.0756470588235,0.0,0.0,0.0,0.0,0.0,0.0,0.0,0.0,0.0,0.0,0.0,0.0,0.0,0.0,0.0
10.400119,-1.52755689621,0.963626027107,1.40871167183,-0.649691879749,2.70173168182,-1.35499382019,1.48714458942,0.0756470588235,0.0,0.0,0.0,0.0,0.0,0.0,0.0,0.0,0.0,0.0,0.0,0.0,0.0,0.0,0.0
10.433442,-1.52746343613,0.964805960655,1.40792286396,-0.651045560837,2.70173168182,-1.35499382019,1.48747181892,0.0756470588235,0.0,0.0,0.0,0.0,0.0,0.0,0.0,0.0,0.0,0.0,0.0,0.0,0.0,0.0,0.0
10.466881,-1.52746343613,0.965488493443,1.40735280514,-0.651821494102,2.70173168182,-1.35499382019,1.48783147335,0.0756470588235,0.0,0.0,0.0,0.0,0.0,0.0,0.0,0.0,0.0,0.0,0.0,0.0,0.0,0.0,0.0
10.500129,-1.52750444412,0.967146515846,1.40616250038,-0.653076767921,2.70173168182,-1.35502636433,1.48925459385,0.0756470588235,0.0,0.0,0.0,0.0,0.0,0.0,0.0,0.0,0.0,0.0,0.0,0.0,0.0,0.0,0.0
10.533454,-1.52765893936,0.967968463898,1.40587770939,-0.653786361217,2.70173168182,-1.35552060604,1.49019896984,0.0756470588235,0.0,0.0,0.0,0.0,0.0,0.0,0.0,0.0,0.0,0.0,0.0,0.0,0.0,0.0,0.0
10.566877,-1.52796721458,0.968615353107,1.40585458279,-0.654663264751,2.70173168182,-1.35662853718,1.49101519585,0.0756470588235,0.0,0.0,0.0,0.0,0.0,0.0,0.0,0.0,0.0,0.0,0.0,0.0,0.0,0.0,0.0
10.600147,-1.52843511105,0.969300508499,1.40585589409,-0.655363738537,2.70173168182,-1.3593198061,1.49263453484,0.0756470588235,0.0,0.0,0.0,0.0,0.0,0.0,0.0,0.0,0.0,0.0,0.0,0.0,0.0,0.0,0.0
10.633479,-1.52873551846,0.969784975052,1.40585458279,-0.65557974577,2.70172977448,-1.36182701588,1.49338448048,0.0756470588235,0.0,0.0,0.0,0.0,0.0,0.0,0.0,0.0,0.0,0.0,0.0,0.0,0.0,0.0,0.0
10.666877,-1.52899253368,0.970245182514,1.40585458279,-0.655679523945,2.70172762871,-1.3645914793,1.49401152134,0.0756470588235,0.0,0.0,0.0,0.0,0.0,0.0,0.0,0.0,0.0,0.0,0.0,0.0,0.0,0.0,0.0
10.700171,-1.52949869633,0.970911085606,1.40584945679,-0.655734419823,2.70166611671,-1.36769878864,1.49459636211,0.0756470588235,0.0,0.0,0.0,0.0,0.0,0.0,0.0,0.0,0.0,0.0,0.0,0.0,0.0,0.0,0.0
10.733978,-1.52985155582,0.971207678318,1.4058008194,-0.655717849731,2.70138192177,-1.36900770664,1.49492526054,0.0756470588235,0.0,0.0,0.0,0.0,0.0,0.0,0.0,0.0,0.0,0.0,0.0,0.0,0.0,0.0,0.0
10.769442,-1.53096735477,0.971570730209,1.40563857555,-0.655694842339,2.70001578331,-1.37141275406,1.49590539932,0.0756470588235,0.0,0.0,0.0,0.0,0.0,0.0,0.0,0.0,0.0,0.0,0.0,0.0,0.0,0.0,0.0
10.800138,-1.53214478493,0.971798241138,1.405184865,-0.655689716339,2.69866991043,-1.37415671349,1.49599897861,0.0756470588235,0.0,0.0,0.0,0.0,0.0,0.0,0.0,0.0,0.0,0.0,0.0,0.0,0.0,0.0,0.0
10.833530,-1.5329079628,0.97199511528,1.40475261211,-0.655689716339,2.69806671143,-1.37721276283,1.49601256847,0.0756470588235,0.0,0.0,0.0,0.0,0.0,0.0,0.0,0.0,0.0,0.0,0.0,0.0,0.0,0.0,0.0
10.867097,-1.53367888927,0.972101271152,1.40437054634,-0.655688464642,2.69735264778,-1.38041877747,1.49602615833,0.0756470588235,0.0,0.0,0.0,0.0,0.0,0.0,0.0,0.0,0.0,0.0,0.0,0.0,0.0,0.0,0.0
10.900193,-1.53438186646,0.972250878811,1.40384495258,-0.655696153641,2.69661831856,-1.38381230831,1.49602806568,0.0756470588235,0.0,0.0,0.0,0.0,0.0,0.0,0.0,0.0,0.0,0.0,0.0,0.0,0.0,0.0,0.0
10.933695,-1.53499031067,0.972809433937,1.40319573879,-0.655855894089,2.69623804092,-1.38765227795,1.49602615833,0.0756470588235,0.0,0.0,0.0,0.0,0.0,0.0,0.0,0.0,0.0,0.0,0.0,0.0,0.0,0.0,0.0
10.966964,-1.53513872623,0.973410189152,1.40292346478,-0.656372308731,2.69622397423,-1.38979673386,1.49602615833,0.0756470588235,0.0,0.0,0.0,0.0,0.0,0.0,0.0,0.0,0.0,0.0,0.0,0.0,0.0,0.0,0.0
11.000192,-1.53513085842,0.974587619305,1.402795434,-0.657691538334,2.69622159004,-1.39078009129,1.49602615833,0.0756470588235,0.0,0.0,0.0,0.0,0.0,0.0,0.0,0.0,0.0,0.0,0.0,0.0,0.0,0.0,0.0
11.033486,-1.53503870964,0.97574698925,1.40277779102,-0.659120738506,2.69621968269,-1.39078164101,1.49602615833,0.0756470588235,0.0,0.0,0.0,0.0,0.0,0.0,0.0,0.0,0.0,0.0,0.0,0.0,0.0,0.0,0.0
11.066871,-1.53484332561,0.976934492588,1.40243637562,-0.660414338112,2.69619274139,-1.39085316658,1.49602615833,0.0756470588235,0.0,0.0,0.0,0.0,0.0,0.0,0.0,0.0,0.0,0.0,0.0,0.0,0.0,0.0,0.0
11.100121,-1.53445720673,0.978301167488,1.40126919746,-0.661617279053,2.69594168663,-1.39084815979,1.49602615833,0.0756470588235,0.0,0.0,0.0,0.0,0.0,0.0,0.0,0.0,0.0,0.0,0.0,0.0,0.0,0.0,0.0
11.133468,-1.53428983688,0.97928917408,1.40026819706,-0.662292182446,2.6956346035,-1.39084815979,1.49602615833,0.0756470588235,0.0,0.0,0.0,0.0,0.0,0.0,0.0,0.0,0.0,0.0,0.0,0.0,0.0,0.0,0.0
11.166862,-1.53432953358,0.980242908001,1.39932107925,-0.662770271301,2.69518661499,-1.39084970951,1.49602615833,0.0756470588235,0.0,0.0,0.0,0.0,0.0,0.0,0.0,0.0,0.0,0.0,0.0,0.0,0.0,0.0,0.0
11.200130,-1.53456449509,0.981439352036,1.39835596085,-0.663253605366,2.69461393356,-1.39105248451,1.49602806568,0.0756470588235,0.0,0.0,0.0,0.0,0.0,0.0,0.0,0.0,0.0,0.0,0.0,0.0,0.0,0.0,0.0
11.233502,-1.53475379944,0.98228430748,1.39787137508,-0.663377583027,2.6946079731,-1.39172434807,1.49602806568,0.0756470588235,0.0,0.0,0.0,0.0,0.0,0.0,0.0,0.0,0.0,0.0,0.0,0.0,0.0,0.0,0.0
11.266817,-1.53503763676,0.982964396477,1.39773988724,-0.663377583027,2.69461011887,-1.39323449135,1.49602806568,0.0756470588235,0.0,0.0,0.0,0.0,0.0,0.0,0.0,0.0,0.0,0.0,0.0,0.0,0.0,0.0,0.0
11.300130,-1.53560507298,0.983568966389,1.39774119854,-0.663377583027,2.6946079731,-1.39485347271,1.49602985382,0.0756470588235,0.0,0.0,0.0,0.0,0.0,0.0,0.0,0.0,0.0,0.0,0.0,0.0,0.0,0.0,0.0
11.333505,-1.536195755,0.983870685101,1.39774250984,-0.663377583027,2.6946079731,-1.39564275742,1.49602985382,0.0756470588235,0.0,0.0,0.0,0.0,0.0,0.0,0.0,0.0,0.0,0.0,0.0,0.0,0.0,0.0,0.0
11.366868,-1.53676319122,0.984145641327,1.39774250984,-0.663377583027,2.69460582733,-1.39726352692,1.49602985382,0.0756470588235,0.0,0.0,0.0,0.0,0.0,0.0,0.0,0.0,0.0,0.0,0.0,0.0,0.0,0.0,0.0
11.400131,-1.53738081455,0.984762966633,1.39773726463,-0.663377583027,2.69460582733,-1.39974522591,1.49602985382,0.0756470588235,0.0,0.0,0.0,0.0,0.0,0.0,0.0,0.0,0.0,0.0,0.0,0.0,0.0,0.0,0.0
11.433463,-1.53769254684,0.985441744328,1.39764654636,-0.663377583027,2.69451570511,-1.40153479576,1.49602985382,0.0756470588235,0.0,0.0,0.0,0.0,0.0,0.0,0.0,0.0,0.0,0.0,0.0,0.0,0.0,0.0,0.0
11.466851,-1.53798925877,0.986288070679,1.39737033844,-0.663377583027,2.69434404373,-1.40243661404,1.49602985382,0.0756470588235,0.0,0.0,0.0,0.0,0.0,0.0,0.0,0.0,0.0,0.0,0.0,0.0,0.0,0.0,0.0
11.500125,-1.53845334053,0.987511277199,1.39670324326,-0.663377583027,2.69416809082,-1.40264797211,1.49602985382,0.0756470588235,0.0,0.0,0.0,0.0,0.0,0.0,0.0,0.0,0.0,0.0,0.0,0.0,0.0,0.0,0.0
11.533496,-1.53872156143,0.988485395908,1.39583134651,-0.663377583027,2.69416809082,-1.40282845497,1.49602985382,0.0756470588235,0.0,0.0,0.0,0.0,0.0,0.0,0.0,0.0,0.0,0.0,0.0,0.0,0.0,0.0,0.0
11.566830,-1.53890705109,0.989540040493,1.39486610889,-0.663377583027,2.69416618347,-1.40284740925,1.49602985382,0.0756470588235,0.0,0.0,0.0,0.0,0.0,0.0,0.0,0.0,0.0,0.0,0.0,0.0,0.0,0.0,0.0
11.600144,-1.53904247284,0.991098403931,1.39356482029,-0.663376271725,2.69414758682,-1.40284562111,1.49602985382,0.0756470588235,0.0,0.0,0.0,0.0,0.0,0.0,0.0,0.0,0.0,0.0,0.0,0.0,0.0,0.0,0.0
11.633547,-1.53904891014,0.992356181145,1.39271724224,-0.663377583027,2.69414997101,-1.40284562111,1.49602985382,0.0756470588235,0.0,0.0,0.0,0.0,0.0,0.0,0.0,0.0,0.0,0.0,0.0,0.0,0.0,0.0,0.0
11.666872,-1.53904640675,0.993488848209,1.39179563522,-0.663377583027,2.69414997101,-1.40284562111,1.49602985382,0.0756470588235,0.0,0.0,0.0,0.0,0.0,0.0,0.0,0.0,0.0,0.0,0.0,0.0,0.0,0.0,0.0
11.700171,-1.53905272484,0.99454087019,1.39095568657,-0.663359582424,2.69413733482,-1.40284562111,1.49602985382,0.0756470588235,0.0,0.0,0.0,0.0,0.0,0.0,0.0,0.0,0.0,0.0,0.0,0.0,0.0,0.0,0.0
11.733499,-1.53942346573,0.995791077614,1.38991904259,-0.663009405136,2.69364666939,-1.40284562111,1.49602806568,0.0756470588235,0.0,0.0,0.0,0.0,0.0,0.0,0.0,0.0,0.0,0.0,0.0,0.0,0.0,0.0,0.0
11.766812,-1.53996539116,0.996543943882,1.3895150423,-0.662575960159,2.69321513176,-1.40287470818,1.49602806568,0.0756470588235,0.0,0.0,0.0,0.0,0.0,0.0,0.0,0.0,0.0,0.0,0.0,0.0,0.0,0.0,0.0
11.800141,-1.54131543636,0.997238099575,1.38943731785,-0.661564826965,2.69313120842,-1.40462660789,1.49602806568,0.0755294117647,0.0,0.0,0.0,0.0,0.0,0.0,0.0,0.0,0.0,0.0,0.0,0.0,0.0,0.0,0.0
11.833473,-1.54184067249,0.997347950935,1.38944101334,-0.660946190357,2.69313335419,-1.40571570396,1.49602806568,0.0755294117647,0.0,0.0,0.0,0.0,0.0,0.0,0.0,0.0,0.0,0.0,0.0,0.0,0.0,0.0,0.0
11.866878,-1.54239284992,0.997349381447,1.38944220543,-0.660269916058,2.69312691689,-1.40679311752,1.49602806568,0.0755294117647,0.0,0.0,0.0,0.0,0.0,0.0,0.0,0.0,0.0,0.0,0.0,0.0,0.0,0.0,0.0
11.900147,-1.54361903667,0.997341632843,1.38944220543,-0.659619271755,2.69303703308,-1.41092288494,1.49602985382,0.0755294117647,0.0,0.0,0.0,0.0,0.0,0.0,0.0,0.0,0.0,0.0,0.0,0.0,0.0,0.0,0.0
11.933490,-1.54426443577,0.997344136238,1.38944220543,-0.659606456757,2.6925766468,-1.4127959013,1.49603307247,0.0755294117647,0.0,0.0,0.0,0.0,0.0,0.0,0.0,0.0,0.0,0.0,0.0,0.0,0.0,0.0,0.0
11.970835,-1.54496765137,0.997344136238,1.38944220543,-0.659552812576,2.69139266014,-1.41378808022,1.49604165554,0.0755294117647,0.0,0.0,0.0,0.0,0.0,0.0,0.0,0.0,0.0,0.0,0.0,0.0,0.0,0.0,0.0
12.000110,-1.54602849483,0.997359454632,1.38943839073,-0.659384071827,2.6908159256,-1.41513454914,1.49606370926,0.0755294117647,0.0,0.0,0.0,0.0,0.0,0.0,0.0,0.0,0.0,0.0,0.0,0.0,0.0,0.0,0.0
12.033494,-1.54685807228,0.997356951237,1.38943970203,-0.658646464348,2.69074630737,-1.41682338715,1.49629545212,0.0755294117647,0.0,0.0,0.0,0.0,0.0,0.0,0.0,0.0,0.0,0.0,0.0,0.0,0.0,0.0,0.0
12.066875,-1.54773771763,0.997378587723,1.38943326473,-0.657341301441,2.69061970711,-1.41928291321,1.49670624733,0.0755294117647,0.0,0.0,0.0,0.0,0.0,0.0,0.0,0.0,0.0,0.0,0.0,0.0,0.0,0.0,0.0
12.100143,-1.54916679859,0.997327566147,1.38944876194,-0.655356049538,2.69053959846,-1.42312657833,1.49679505825,0.0755294117647,0.0,0.0,0.0,0.0,0.0,0.0,0.0,0.0,0.0,0.0,0.0,0.0,0.0,0.0,0.0
12.133502,-1.5504707098,0.997271299362,1.38945245743,-0.653979301453,2.69034314156,-1.42562842369,1.49679338932,0.0755294117647,0.0,0.0,0.0,0.0,0.0,0.0,0.0,0.0,0.0,0.0,0.0,0.0,0.0,0.0,0.0
12.166880,-1.55170929432,0.997270047665,1.38945126534,-0.652585923672,2.69005680084,-1.4283965826,1.4968239069,0.0755294117647,0.0,0.0,0.0,0.0,0.0,0.0,0.0,0.0,0.0,0.0,0.0,0.0,0.0,0.0,0.0
12.200119,-1.55301964283,0.997227847576,1.38945364952,-0.650924146175,2.68996286392,-1.43047428131,1.49683749676,0.0755294117647,0.0,0.0,0.0,0.0,0.0,0.0,0.0,0.0,0.0,0.0,0.0,0.0,0.0,0.0,0.0
12.233507,-1.55475568771,0.997174203396,1.38945519924,-0.648882567883,2.68995499611,-1.43347072601,1.49682569504,0.0755294117647,0.0,0.0,0.0,0.0,0.0,0.0,0.0,0.0,0.0,0.0,0.0,0.0,0.0,0.0,0.0
12.266845,-1.55592012405,0.997140884399,1.38946270943,-0.647640109062,2.68995499611,-1.43619275093,1.4968239069,0.0755294117647,0.0,0.0,0.0,0.0,0.0,0.0,0.0,0.0,0.0,0.0,0.0,0.0,0.0,0.0,0.0
12.300136,-1.55735945702,0.997009277344,1.38950359821,-0.645964205265,2.68995499611,-1.43929123878,1.4968239069,0.0755294117647,0.0,0.0,0.0,0.0,0.0,0.0,0.0,0.0,0.0,0.0,0.0,0.0,0.0,0.0,0.0
12.333469,-1.55838096142,0.996928691864,1.38951003551,-0.644361197948,2.68995285034,-1.44186496735,1.4968239069,0.0755294117647,0.0,0.0,0.0,0.0,0.0,0.0,0.0,0.0,0.0,0.0,0.0,0.0,0.0,0.0,0.0
12.366912,-1.55955576897,0.996900618076,1.38951134682,-0.643035709858,2.689930439,-1.44443356991,1.49682569504,0.0755294117647,0.0,0.0,0.0,0.0,0.0,0.0,0.0,0.0,0.0,0.0,0.0,0.0,0.0,0.0,0.0
12.400238,-1.56132221222,0.996899306774,1.38951134682,-0.641041517258,2.68991804123,-1.4475235939,1.4968239069,0.0755294117647,0.0,0.0,0.0,0.0,0.0,0.0,0.0,0.0,0.0,0.0,0.0,0.0,0.0,0.0,0.0
12.433470,-1.56263017654,0.996898114681,1.38951253891,-0.639324605465,2.68991565704,-1.44976842403,1.4968239069,0.0755294117647,0.0,0.0,0.0,0.0,0.0,0.0,0.0,0.0,0.0,0.0,0.0,0.0,0.0,0.0,0.0
12.466842,-1.56411802769,0.996871173382,1.38951253891,-0.637582302094,2.6898932457,-1.4522755146,1.4968239069,0.0755294117647,0.0,0.0,0.0,0.0,0.0,0.0,0.0,0.0,0.0,0.0,0.0,0.0,0.0,0.0,0.0
12.500123,-1.56603300571,0.996795773506,1.389513731,-0.635300576687,2.68984651566,-1.45596718788,1.49682569504,0.0755294117647,0.0,0.0,0.0,0.0,0.0,0.0,0.0,0.0,0.0,0.0,0.0,0.0,0.0,0.0,0.0
12.533483,-1.56751585007,0.996630907059,1.389513731,-0.633408606052,2.68944144249,-1.45886838436,1.4968239069,0.0755294117647,0.0,0.0,0.0,0.0,0.0,0.0,0.0,0.0,0.0,0.0,0.0,0.0,0.0,0.0,0.0
12.566904,-1.56898725033,0.996482610703,1.389513731,-0.63154232502,2.6890039444,-1.46246623993,1.4968239069,0.0755294117647,0.0,0.0,0.0,0.0,0.0,0.0,0.0,0.0,0.0,0.0,0.0,0.0,0.0,0.0,0.0
12.600136,-1.57117569447,0.996088862419,1.3895150423,-0.629102051258,2.6887357235,-1.46642065048,1.4968239069,0.0755294117647,0.0,0.0,0.0,0.0,0.0,0.0,0.0,0.0,0.0,0.0,0.0,0.0,0.0,0.0,0.0
12.633477,-1.57284510136,0.995618522167,1.3895150423,-0.626835525036,2.68794631958,-1.46893274784,1.4968239069,0.0755294117647,0.0,0.0,0.0,0.0,0.0,0.0,0.0,0.0,0.0,0.0,0.0,0.0,0.0,0.0,0.0
12.666854,-1.57400345802,0.995280981064,1.3895150423,-0.625428140163,2.68760681152,-1.47042429447,1.4968239069,0.0755294117647,0.0,0.0,0.0,0.0,0.0,0.0,0.0,0.0,0.0,0.0,0.0,0.0,0.0,0.0,0.0
12.700262,-1.57716453075,0.994579136372,1.3895150423,-0.622026503086,2.68744945526,-1.47682774067,1.4968239069,0.0755294117647,0.0,0.0,0.0,0.0,0.0,0.0,0.0,0.0,0.0,0.0,0.0,0.0,0.0,0.0,0.0
12.733484,-1.57812845707,0.994510173798,1.3895150423,-0.62114828825,2.6874370575,-1.47967743874,1.49682235718,0.0755294117647,0.0,0.0,0.0,0.0,0.0,0.0,0.0,0.0,0.0,0.0,0.0,0.0,0.0,0.0,0.0
12.766844,-1.57949888706,0.994508862495,1.3895150423,-0.61993265152,2.68731641769,-1.48371863365,1.49682068825,0.0755294117647,0.0,0.0,0.0,0.0,0.0,0.0,0.0,0.0,0.0,0.0,0.0,0.0,0.0,0.0,0.0
12.800124,-1.58106589317,0.994508862495,1.3895150423,-0.618746399879,2.68701338768,-1.48672032356,1.49681890011,0.0755294117647,0.0,0.0,0.0,0.0,0.0,0.0,0.0,0.0,0.0,0.0,0.0,0.0,0.0,0.0,0.0
12.833528,-1.58292591572,0.994510173798,1.3895150423,-0.616969525814,2.68674397469,-1.49149775505,1.49681711197,0.0755294117647,0.0,0.0,0.0,0.0,0.0,0.0,0.0,0.0,0.0,0.0,0.0,0.0,0.0,0.0,0.0
12.866853,-1.58435511589,0.994517743587,1.3895150423,-0.616132199764,2.68647146225,-1.49560368061,1.49681544304,0.0755294117647,0.0,0.0,0.0,0.0,0.0,0.0,0.0,0.0,0.0,0.0,0.0,0.0,0.0,0.0,0.0
12.900116,-1.5862994194,0.994519174099,1.3895150423,-0.615412592888,2.68550634384,-1.50125908852,1.49681544304,0.0755294117647,0.0,0.0,0.0,0.0,0.0,0.0,0.0,0.0,0.0,0.0,0.0,0.0,0.0,0.0,0.0
12.933464,-1.58775544167,0.994515299797,1.3895150423,-0.614250540733,2.68459606171,-1.50510406494,1.4968136549,0.0755294117647,0.0,0.0,0.0,0.0,0.0,0.0,0.0,0.0,0.0,0.0,0.0,0.0,0.0,0.0,0.0
12.966889,-1.58924341202,0.994510173798,1.3895150423,-0.612962067127,2.68442225456,-1.5090123415,1.4968136549,0.0755294117647,0.0,0.0,0.0,0.0,0.0,0.0,0.0,0.0,0.0,0.0,0.0,0.0,0.0,0.0,0.0
13.006843,-1.59129631519,0.994512736797,1.3895150423,-0.611702859402,2.6843957901,-1.51399946213,1.4968136549,0.0755294117647,0.0,0.0,0.0,0.0,0.0,0.0,0.0,0.0,0.0,0.0,0.0,0.0,0.0,0.0,0.0
13.033481,-1.59279453754,0.994534432888,1.38951253891,-0.6110419631,2.68416833878,-1.51810717583,1.4968136549,0.0755294117647,0.0,0.0,0.0,0.0,0.0,0.0,0.0,0.0,0.0,0.0,0.0,0.0,0.0,0.0,0.0
13.066815,-1.59377634525,0.99453574419,1.38951253891,-0.61053186655,2.68383741379,-1.52098929882,1.49681210518,0.0755294117647,0.0,0.0,0.0,0.0,0.0,0.0,0.0,0.0,0.0,0.0,0.0,0.0,0.0,0.0,0.0
13.100129,-1.59631252289,0.99456256628,1.38948583603,-0.609175562859,2.68273258209,-1.52733325958,1.49681210518,0.0755294117647,0.0,0.0,0.0,0.0,0.0,0.0,0.0,0.0,0.0,0.0,0.0,0.0,0.0,0.0,0.0
13.133509,-1.59791302681,0.99456256628,1.38946914673,-0.608269333839,2.68204951286,-1.53084266186,1.49681210518,0.0755294117647,0.0,0.0,0.0,0.0,0.0,0.0,0.0,0.0,0.0,0.0,0.0,0.0,0.0,0.0,0.0
13.166907,-1.5995272398,0.99456256628,1.38943970203,-0.607260704041,2.68130111694,-1.53498601913,1.49681210518,0.0755294117647,0.0,0.0,0.0,0.0,0.0,0.0,0.0,0.0,0.0,0.0,0.0,0.0,0.0,0.0,0.0
13.200120,-1.60170304775,0.994593262672,1.38906395435,-0.605615496635,2.67987990379,-1.54101645947,1.49681210518,0.0755294117647,0.0,0.0,0.0,0.0,0.0,0.0,0.0,0.0,0.0,0.0,0.0,0.0,0.0,0.0,0.0
13.233463,-1.60336220264,0.99459451437,1.38875699043,-0.604448437691,2.67937445641,-1.54493653774,1.49681031704,0.0755294117647,0.0,0.0,0.0,0.0,0.0,0.0,0.0,0.0,0.0,0.0,0.0,0.0,0.0,0.0,0.0
13.266943,-1.60506117344,0.99459451437,1.38871622086,-0.603475630283,2.67870974541,-1.54855823517,1.49681031704,0.0755294117647,0.0,0.0,0.0,0.0,0.0,0.0,0.0,0.0,0.0,0.0,0.0,0.0,0.0,0.0,0.0
13.300139,-1.60707473755,0.994602203369,1.38864719868,-0.60217165947,2.67769527435,-1.55376195908,1.49681031704,0.0755294117647,0.0,0.0,0.0,0.0,0.0,0.0,0.0,0.0,0.0,0.0,0.0,0.0,0.0,0.0,0.0
13.333479,-1.60852813721,0.994604706764,1.38836741447,-0.601435363293,2.67665600777,-1.55843377113,1.49681031704,0.0755294117647,0.0,0.0,0.0,0.0,0.0,0.0,0.0,0.0,0.0,0.0,0.0,0.0,0.0,0.0,0.0
13.366845,-1.61010432243,0.994652032852,1.38779973984,-0.600858867168,2.67569923401,-1.56275629997,1.49681031704,0.0755294117647,0.0,0.0,0.0,0.0,0.0,0.0,0.0,0.0,0.0,0.0,0.0,0.0,0.0,0.0,0.0
13.400150,-1.61230671406,0.994764626026,1.38713252544,-0.600398659706,2.67499136925,-1.56793940067,1.49681031704,0.0755294117647,0.0,0.0,0.0,0.0,0.0,0.0,0.0,0.0,0.0,0.0,0.0,0.0,0.0,0.0,0.0
13.433551,-1.61390721798,0.99494099617,1.38664269447,-0.599916696548,2.6742079258,-1.57169091702,1.49681031704,0.0755294117647,0.0,0.0,0.0,0.0,0.0,0.0,0.0,0.0,0.0,0.0,0.0,0.0,0.0,0.0,0.0
13.466830,-1.61543107033,0.995261847973,1.38603687286,-0.599043667316,2.67325258255,-1.57584965229,1.49681031704,0.0755294117647,0.0,0.0,0.0,0.0,0.0,0.0,0.0,0.0,0.0,0.0,0.0,0.0,0.0,0.0,0.0
13.500367,-1.61749792099,0.995649158955,1.38530182838,-0.59773594141,2.67200303078,-1.58164799213,1.49680864811,0.0755294117647,0.0,0.0,0.0,0.0,0.0,0.0,0.0,0.0,0.0,0.0,0.0,0.0,0.0,0.0,0.0
13.533476,-1.61911511421,0.995898425579,1.38470721245,-0.596883296967,2.67133235931,-1.58563649654,1.49680864811,0.0755294117647,0.0,0.0,0.0,0.0,0.0,0.0,0.0,0.0,0.0,0.0,0.0,0.0,0.0,0.0,0.0
13.566809,-1.6207972765,0.996158003807,1.38394665718,-0.596276164055,2.67070627213,-1.58937430382,1.49681031704,0.0755294117647,0.0,0.0,0.0,0.0,0.0,0.0,0.0,0.0,0.0,0.0,0.0,0.0,0.0,0.0,0.0
13.600136,-1.62293088436,0.996533751488,1.3829075098,-0.595331430435,2.66966962814,-1.59481799603,1.49680864811,0.0755294117647,0.0,0.0,0.0,0.0,0.0,0.0,0.0,0.0,0.0,0.0,0.0,0.0,0.0,0.0,0.0
13.633474,-1.62441253662,0.996878862381,1.38209450245,-0.594315171242,2.66864871979,-1.59917294979,1.49680864811,0.0755294117647,0.0,0.0,0.0,0.0,0.0,0.0,0.0,0.0,0.0,0.0,0.0,0.0,0.0,0.0,0.0
13.666894,-1.62595403194,0.997227847576,1.38128399849,-0.593361616135,2.66772437096,-1.60293626785,1.49680864811,0.0755294117647,0.0,0.0,0.0,0.0,0.0,0.0,0.0,0.0,0.0,0.0,0.0,0.0,0.0,0.0,0.0
13.700136,-1.62806332111,0.997615158558,1.38005805016,-0.592303156853,2.66678953171,-1.60785698891,1.49680864811,0.0755294117647,0.0,0.0,0.0,0.0,0.0,0.0,0.0,0.0,0.0,0.0,0.0,0.0,0.0,0.0,0.0
13.733481,-1.62970209122,0.998006343842,1.37919020653,-0.591759860516,2.66584253311,-1.61183845997,1.49681031704,0.0755294117647,0.0,0.0,0.0,0.0,0.0,0.0,0.0,0.0,0.0,0.0,0.0,0.0,0.0,0.0,0.0
13.766843,-1.63130760193,0.998542010784,1.37819170952,-0.590985119343,2.66480779648,-1.61660420895,1.49680864811,0.0755294117647,0.0,0.0,0.0,0.0,0.0,0.0,0.0,0.0,0.0,0.0,0.0,0.0,0.0,0.0,0.0
13.800140,-1.63344120979,0.99926674366,1.37680602074,-0.590141534805,2.66372156143,-1.62267172337,1.49680864811,0.0755294117647,0.0,0.0,0.0,0.0,0.0,0.0,0.0,0.0,0.0,0.0,0.0,0.0,0.0,0.0,0.0
13.833506,-1.63508248329,0.999682307243,1.37557005882,-0.589536845684,2.66248631477,-1.6263449192,1.49680864811,0.0755294117647,0.0,0.0,0.0,0.0,0.0,0.0,0.0,0.0,0.0,0.0,0.0,0.0,0.0,0.0,0.0
13.866945,-1.63670349121,1.00017571449,1.37450897694,-0.588930904865,2.66160678864,-1.63013219833,1.49680864811,0.0755294117647,0.0,0.0,0.0,0.0,0.0,0.0,0.0,0.0,0.0,0.0,0.0,0.0,0.0,0.0,0.0
13.900148,-1.63881146908,1.00091314316,1.37349772453,-0.588235557079,2.66088485718,-1.6358846426,1.49680864811,0.0755294117647,0.0,0.0,0.0,0.0,0.0,0.0,0.0,0.0,0.0,0.0,0.0,0.0,0.0,0.0,0.0
13.933494,-1.64026856422,1.00137221813,1.37288677692,-0.587941467762,2.66021585464,-1.63997352123,1.49680864811,0.0755294117647,0.0,0.0,0.0,0.0,0.0,0.0,0.0,0.0,0.0,0.0,0.0,0.0,0.0,0.0,0.0
13.966842,-1.64162611961,1.00177359581,1.37208640575,-0.587956786156,2.65935301781,-1.64354419708,1.49680531025,0.0755294117647,0.0,0.0,0.0,0.0,0.0,0.0,0.0,0.0,0.0,0.0,0.0,0.0,0.0,0.0,0.0
14.000115,-1.64337110519,1.0024087429,1.37115085125,-0.588043749332,2.65848374367,-1.64830970764,1.49680531025,0.0755294117647,0.0,0.0,0.0,0.0,0.0,0.0,0.0,0.0,0.0,0.0,0.0,0.0,0.0,0.0,0.0
14.033527,-1.6446801424,1.00293159485,1.37067914009,-0.588082075119,2.65796637535,-1.65167927742,1.49680531025,0.0755294117647,0.0,0.0,0.0,0.0,0.0,0.0,0.0,0.0,0.0,0.0,0.0,0.0,0.0,0.0,0.0
14.066849,-1.64590966702,1.00356054306,1.37042975426,-0.58809620142,2.65780282021,-1.65528762341,1.49679839611,0.0755294117647,0.0,0.0,0.0,0.0,0.0,0.0,0.0,0.0,0.0,0.0,0.0,0.0,0.0,0.0,0.0
14.100141,-1.64739668369,1.00453972816,1.37042737007,-0.588250875473,2.65781283379,-1.65987098217,1.49666202068,0.0755294117647,0.0,0.0,0.0,0.0,0.0,0.0,0.0,0.0,0.0,0.0,0.0,0.0,0.0,0.0,0.0
14.133498,-1.64807152748,1.00502169132,1.37042737007,-0.588304460049,2.65781474113,-1.66140127182,1.49623262882,0.0755294117647,0.0,0.0,0.0,0.0,0.0,0.0,0.0,0.0,0.0,0.0,0.0,0.0,0.0,0.0,0.0
14.166816,-1.64941501617,1.00602006912,1.37042975426,-0.588386356831,2.65782308578,-1.66394269466,1.49492871761,0.0755294117647,0.0,0.0,0.0,0.0,0.0,0.0,0.0,0.0,0.0,0.0,0.0,0.0,0.0,0.0,0.0
14.200247,-1.65087592602,1.00717556477,1.37042975426,-0.588397800922,2.65782737732,-1.66634249687,1.49423491955,0.0755294117647,0.0,0.0,0.0,0.0,0.0,0.0,0.0,0.0,0.0,0.0,0.0,0.0,0.0,0.0,0.0
14.233512,-1.65210962296,1.00833392143,1.37042975426,-0.588589549065,2.65783333778,-1.66892659664,1.49335896969,0.0755294117647,0.0,0.0,0.0,0.0,0.0,0.0,0.0,0.0,0.0,0.0,0.0,0.0,0.0,0.0,0.0
14.266845,-1.65334963799,1.00960326195,1.37042844296,-0.589227437973,2.65788459778,-1.67230439186,1.49250340462,0.0755294117647,0.0,0.0,0.0,0.0,0.0,0.0,0.0,0.0,0.0,0.0,0.0,0.0,0.0,0.0,0.0
14.300157,-1.65482747555,1.01145553589,1.3702930212,-0.590302586555,2.65788459778,-1.67630493641,1.49187958241,0.0755294117647,0.0,0.0,0.0,0.0,0.0,0.0,0.0,0.0,0.0,0.0,0.0,0.0,0.0,0.0,0.0
14.333485,-1.65593576431,1.01285910606,1.37001824379,-0.59141343832,2.65788650513,-1.67821037769,1.48915231228,0.0755294117647,0.0,0.0,0.0,0.0,0.0,0.0,0.0,0.0,0.0,0.0,0.0,0.0,0.0,0.0,0.0
14.366844,-1.65698134899,1.01429975033,1.36978554726,-0.592437326908,2.65789031982,-1.67947840691,1.48781263828,0.0755294117647,0.0,0.0,0.0,0.0,0.0,0.0,0.0,0.0,0.0,0.0,0.0,0.0,0.0,0.0,0.0
14.400141,-1.65814971924,1.01630675793,1.36972284317,-0.593369185925,2.65790271759,-1.68088638783,1.48634004593,0.0755294117647,0.0,0.0,0.0,0.0,0.0,0.0,0.0,0.0,0.0,0.0,0.0,0.0,0.0,0.0,0.0
14.433486,-1.65915834904,1.01785719395,1.36960661411,-0.594244837761,2.65793323517,-1.6815340519,1.48439717293,0.0755294117647,0.0,0.0,0.0,0.0,0.0,0.0,0.0,0.0,0.0,0.0,0.0,0.0,0.0,0.0,0.0
14.467067,-1.66021692753,1.01941680908,1.36957716942,-0.595406830311,2.65800523758,-1.68199765682,1.48289704323,0.0755294117647,0.0,0.0,0.0,0.0,0.0,0.0,0.0,0.0,0.0,0.0,0.0,0.0,0.0,0.0,0.0
14.500141,-1.66143631935,1.02141737938,1.36956453323,-0.596926748753,2.65801930428,-1.68265557289,1.48082792759,0.0755294117647,0.0,0.0,0.0,0.0,0.0,0.0,0.0,0.0,0.0,0.0,0.0,0.0,0.0,0.0,0.0
14.533488,-1.66216886044,1.02299869061,1.36949801445,-0.597891926765,2.65801930428,-1.68293845654,1.47786903381,0.0755294117647,0.0,0.0,0.0,0.0,0.0,0.0,0.0,0.0,0.0,0.0,0.0,0.0,0.0,0.0,0.0
14.566861,-1.66301894188,1.02456450462,1.36910676956,-0.598993778229,2.65801525116,-1.68296742439,1.47663509846,0.0755294117647,0.0,0.0,0.0,0.0,0.0,0.0,0.0,0.0,0.0,0.0,0.0,0.0,0.0,0.0,0.0
14.600136,-1.66445434093,1.02668023109,1.36711406708,-0.600465118885,2.65800094604,-1.6833782196,1.47552549839,0.0755294117647,0.0,0.0,0.0,0.0,0.0,0.0,0.0,0.0,0.0,0.0,0.0,0.0,0.0,0.0,0.0
14.633548,-1.66564202309,1.02846217155,1.36536645889,-0.601229548454,2.65799474716,-1.68438541889,1.47247469425,0.0755294117647,0.0,0.0,0.0,0.0,0.0,0.0,0.0,0.0,0.0,0.0,0.0,0.0,0.0,0.0,0.0
14.666812,-1.6668908596,1.03012907505,1.36415445805,-0.601932644844,2.6579887867,-1.68529558182,1.47006452084,0.0755294117647,0.0,0.0,0.0,0.0,0.0,0.0,0.0,0.0,0.0,0.0,0.0,0.0,0.0,0.0,0.0
14.700131,-1.66870999336,1.03198647499,1.36274087429,-0.602184474468,2.65792107582,-1.6854082346,1.46953964233,0.0755294117647,0.0,0.0,0.0,0.0,0.0,0.0,0.0,0.0,0.0,0.0,0.0,0.0,0.0,0.0,0.0
14.733497,-1.67028617859,1.03327894211,1.36144459248,-0.602042555809,2.65773701668,-1.68552911282,1.46954298019,0.0755294117647,0.0,0.0,0.0,0.0,0.0,0.0,0.0,0.0,0.0,0.0,0.0,0.0,0.0,0.0,0.0
14.766850,-1.67135357857,1.03419029713,1.36028766632,-0.602028608322,2.65763902664,-1.6862757206,1.46954298019,0.0755294117647,0.0,0.0,0.0,0.0,0.0,0.0,0.0,0.0,0.0,0.0,0.0,0.0,0.0,0.0,0.0
14.800122,-1.67375159264,1.03682243824,1.35791635513,-0.602050244808,2.65763902664,-1.69112324715,1.46952939034,0.0755294117647,0.0,0.0,0.0,0.0,0.0,0.0,0.0,0.0,0.0,0.0,0.0,0.0,0.0,0.0,0.0
14.833465,-1.67498004436,1.03839218616,1.35668420792,-0.602072000504,2.65763688087,-1.69376671314,1.46953785419,0.0755294117647,0.0,0.0,0.0,0.0,0.0,0.0,0.0,0.0,0.0,0.0,0.0,0.0,0.0,0.0,0.0
14.866841,-1.67614722252,1.0399415493,1.35506689548,-0.602093756199,2.65763258934,-1.69615280628,1.46953630447,0.0755294117647,0.0,0.0,0.0,0.0,0.0,0.0,0.0,0.0,0.0,0.0,0.0,0.0,0.0,0.0,0.0
14.900134,-1.67770671844,1.04214537144,1.35315990448,-0.602282941341,2.65763473511,-1.69835317135,1.46953439713,0.0755294117647,0.0,0.0,0.0,0.0,0.0,0.0,0.0,0.0,0.0,0.0,0.0,0.0,0.0,0.0,0.0
14.933484,-1.67840337753,1.04318702221,1.35216259956,-0.602389037609,2.65763068199,-1.69933509827,1.46953785419,0.0755294117647,0.0,0.0,0.0,0.0,0.0,0.0,0.0,0.0,0.0,0.0,0.0,0.0,0.0,0.0,0.0
14.966832,-1.67981719971,1.04528605938,1.35032844543,-0.602562904358,2.65762877464,-1.70041048527,1.46953439713,0.0755294117647,0.0,0.0,0.0,0.0,0.0,0.0,0.0,0.0,0.0,0.0,0.0,0.0,0.0,0.0,0.0
15.000138,-1.68132174015,1.04749763012,1.34871637821,-0.602973222733,2.65763688087,-1.70090484619,1.46953630447,0.0755294117647,0.0,0.0,0.0,0.0,0.0,0.0,0.0,0.0,0.0,0.0,0.0,0.0,0.0,0.0,0.0
15.033502,-1.68245971203,1.04912877083,1.34740233421,-0.603447437286,2.65763688087,-1.70093381405,1.46953785419,0.0755294117647,0.0,0.0,0.0,0.0,0.0,0.0,0.0,0.0,0.0,0.0,0.0,0.0,0.0,0.0,0.0
15.066852,-1.68352949619,1.05088126659,1.34592700005,-0.60389739275,2.65763902664,-1.70093536377,1.46953785419,0.0755294117647,0.0,0.0,0.0,0.0,0.0,0.0,0.0,0.0,0.0,0.0,0.0,0.0,0.0,0.0,0.0
15.100138,-1.68482303619,1.05324494839,1.34371042252,-0.604991614819,2.65764117241,-1.70095920563,1.46953785419,0.0755294117647,0.0,0.0,0.0,0.0,0.0,0.0,0.0,0.0,0.0,0.0,0.0,0.0,0.0,0.0,0.0
15.133457,-1.68579339981,1.05499482155,1.34227383137,-0.606125533581,2.65764117241,-1.70097637177,1.46953785419,0.0755294117647,0.0,0.0,0.0,0.0,0.0,0.0,0.0,0.0,0.0,0.0,0.0,0.0,0.0,0.0,0.0
15.166837,-1.68678641319,1.05676412582,1.34072566032,-0.607500970364,2.65764331818,-1.70103430748,1.46953964233,0.0755294117647,0.0,0.0,0.0,0.0,0.0,0.0,0.0,0.0,0.0,0.0,0.0,0.0,0.0,0.0,0.0
15.200106,-1.68807637691,1.05926203728,1.33853590488,-0.60929441452,2.65764331818,-1.70173311234,1.46953785419,0.0755294117647,0.0,0.0,0.0,0.0,0.0,0.0,0.0,0.0,0.0,0.0,0.0,0.0,0.0,0.0,0.0
15.234852,-1.68894553185,1.06103241444,1.33686256409,-0.610568940639,2.65764331818,-1.7030916214,1.46953964233,0.0755294117647,0.0,0.0,0.0,0.0,0.0,0.0,0.0,0.0,0.0,0.0,0.0,0.0,0.0,0.0,0.0
15.266869,-1.68989419937,1.06268656254,1.33523786068,-0.611709237099,2.65764331818,-1.70411777496,1.46953964233,0.0755294117647,0.0,0.0,0.0,0.0,0.0,0.0,0.0,0.0,0.0,0.0,0.0,0.0,0.0,0.0,0.0
15.300133,-1.69127464294,1.06492495537,1.33329856396,-0.612930059433,2.65764522552,-1.70436811447,1.46953964233,0.0755294117647,0.0,0.0,0.0,0.0,0.0,0.0,0.0,0.0,0.0,0.0,0.0,0.0,0.0,0.0,0.0
15.333468,-1.69239330292,1.06658685207,1.33183372021,-0.613635659218,2.65764522552,-1.70438861847,1.46954298019,0.0755294117647,0.0,0.0,0.0,0.0,0.0,0.0,0.0,0.0,0.0,0.0,0.0,0.0,0.0,0.0,0.0
15.367099,-1.69355142117,1.06834959984,1.33012211323,-0.614338696003,2.65764331818,-1.70460700989,1.46954119205,0.0755294117647,0.0,0.0,0.0,0.0,0.0,0.0,0.0,0.0,0.0,0.0,0.0,0.0,0.0,0.0,0.0
15.400130,-1.69512760639,1.0707937479,1.32759487629,-0.615078866482,2.65763688087,-1.70463395119,1.46954119205,0.0755294117647,0.0,0.0,0.0,0.0,0.0,0.0,0.0,0.0,0.0,0.0,0.0,0.0,0.0,0.0,0.0
15.433485,-1.69636762142,1.07250273228,1.32602119446,-0.615490496159,2.65763688087,-1.70463395119,1.46954119205,0.0755294117647,0.0,0.0,0.0,0.0,0.0,0.0,0.0,0.0,0.0,0.0,0.0,0.0,0.0,0.0,0.0
15.466905,-1.69759726524,1.07414662838,1.32431602478,-0.615684807301,2.65763902664,-1.70463764668,1.46954476833,0.0755294117647,0.0,0.0,0.0,0.0,0.0,0.0,0.0,0.0,0.0,0.0,0.0,0.0,0.0,0.0,0.0
15.500212,-1.69880402088,1.07584941387,1.32262456417,-0.615793406963,2.65763902664,-1.70469379425,1.46954298019,0.0755294117647,0.0,0.0,0.0,0.0,0.0,0.0,0.0,0.0,0.0,0.0,0.0,0.0,0.0,0.0,0.0
15.533491,-1.70019102097,1.07810819149,1.32043600082,-0.616159081459,2.65764117241,-1.70508742332,1.46954298019,0.0755294117647,0.0,0.0,0.0,0.0,0.0,0.0,0.0,0.0,0.0,0.0,0.0,0.0,0.0,0.0,0.0
15.566883,-1.70113062859,1.07976484299,1.31875145435,-0.6166883111,2.65763902664,-1.70583736897,1.46955657005,0.0755294117647,0.0,0.0,0.0,0.0,0.0,0.0,0.0,0.0,0.0,0.0,0.0,0.0,0.0,0.0,0.0
15.600132,-1.70245623589,1.08213233948,1.31608736515,-0.617756962776,2.65763688087,-1.70788276196,1.46957373619,0.0755294117647,0.0,0.0,0.0,0.0,0.0,0.0,0.0,0.0,0.0,0.0,0.0,0.0,0.0,0.0,0.0
15.633464,-1.70358240604,1.08396029472,1.31414949894,-0.61876553297,2.65743875504,-1.70900428295,1.46957182884,0.0755294117647,0.0,0.0,0.0,0.0,0.0,0.0,0.0,0.0,0.0,0.0,0.0,0.0,0.0,0.0,0.0
15.667003,-1.70465254784,1.08579611778,1.31209254265,-0.619668066502,2.65666747093,-1.7096092701,1.46957874298,0.0755294117647,0.0,0.0,0.0,0.0,0.0,0.0,0.0,0.0,0.0,0.0,0.0,0.0,0.0,0.0,0.0
15.700137,-1.7060199976,1.08833348751,1.30936336517,-0.620567917824,2.65550160408,-1.71122014523,1.46968114376,0.0755294117647,0.0,0.0,0.0,0.0,0.0,0.0,0.0,0.0,0.0,0.0,0.0,0.0,0.0,0.0,0.0
15.733495,-1.7070120573,1.09031867981,1.307259202,-0.621147096157,2.65506792068,-1.71260213852,1.46979868412,0.0755294117647,0.0,0.0,0.0,0.0,0.0,0.0,0.0,0.0,0.0,0.0,0.0,0.0,0.0,0.0,0.0
15.766879,-1.70807051659,1.09223484993,1.30517685413,-0.622071266174,2.65466284752,-1.71363520622,1.46979022026,0.0755294117647,0.0,0.0,0.0,0.0,0.0,0.0,0.0,0.0,0.0,0.0,0.0,0.0,0.0,0.0,0.0
15.800273,-1.70938587189,1.09472501278,1.3026444912,-0.622856199741,2.65411496162,-1.71477377415,1.46979868412,0.0755294117647,0.0,0.0,0.0,0.0,0.0,0.0,0.0,0.0,0.0,0.0,0.0,0.0,0.0,0.0,0.0
15.833882,-1.70999181271,1.09590494633,1.30141210556,-0.623120844364,2.65408635139,-1.71527636051,1.46980202198,0.0755294117647,0.0,0.0,0.0,0.0,0.0,0.0,0.0,0.0,0.0,0.0,0.0,0.0,0.0,0.0,0.0
15.866879,-1.71111166477,1.09817779064,1.29932081699,-0.623591125011,2.65408635139,-1.71543502808,1.46979510784,0.0755294117647,0.0,0.0,0.0,0.0,0.0,0.0,0.0,0.0,0.0,0.0,0.0,0.0,0.0,0.0,0.0
15.900147,-1.71215093136,1.10035991669,1.2973074913,-0.624526917934,2.65408825874,-1.71584224701,1.46995699406,0.0755294117647,0.0,0.0,0.0,0.0,0.0,0.0,0.0,0.0,0.0,0.0,0.0,0.0,0.0,0.0,0.0
15.933485,-1.71280920506,1.10207021236,1.29562902451,-0.625283718109,2.65408825874,-1.71638596058,1.47082960606,0.0755294117647,0.0,0.0,0.0,0.0,0.0,0.0,0.0,0.0,0.0,0.0,0.0,0.0,0.0,0.0,0.0
15.966833,-1.71348297596,1.10379981995,1.29400324821,-0.626026332378,2.65408825874,-1.71642684937,1.47127461433,0.0755294117647,0.0,0.0,0.0,0.0,0.0,0.0,0.0,0.0,0.0,0.0,0.0,0.0,0.0,0.0,0.0
16.000217,-1.7143560648,1.10613286495,1.29186189175,-0.626854777336,2.65408825874,-1.71642684937,1.47126090527,0.0755294117647,0.0,0.0,0.0,0.0,0.0,0.0,0.0,0.0,0.0,0.0,0.0,0.0,0.0,0.0,0.0
16.033514,-1.71507585049,1.10781753063,1.29042243958,-0.627323925495,2.65409064293,-1.71642684937,1.47124743462,0.0755294117647,0.0,0.0,0.0,0.0,0.0,0.0,0.0,0.0,0.0,0.0,0.0,0.0,0.0,0.0,0.0
16.066851,-1.71573150158,1.10944616795,1.28908407688,-0.627634525299,2.65409064293,-1.71642684937,1.47123897076,0.0755294117647,0.0,0.0,0.0,0.0,0.0,0.0,0.0,0.0,0.0,0.0,0.0,0.0,0.0,0.0,0.0
16.100210,-1.7162810564,1.11102867126,1.28792715073,-0.62776106596,2.65409255028,-1.71642684937,1.47123217583,0.0755294117647,0.0,0.0,0.0,0.0,0.0,0.0,0.0,0.0,0.0,0.0,0.0,0.0,0.0,0.0,0.0
16.133510,-1.71689462662,1.11308181286,1.28626418114,-0.627996265888,2.65409255028,-1.71642684937,1.47123372555,0.0755294117647,0.0,0.0,0.0,0.0,0.0,0.0,0.0,0.0,0.0,0.0,0.0,0.0,0.0,0.0,0.0
16.166934,-1.71734857559,1.11470508575,1.28469705582,-0.628732562065,2.65409255028,-1.71642684937,1.47123551369,0.0755294117647,0.0,0.0,0.0,0.0,0.0,0.0,0.0,0.0,0.0,0.0,0.0,0.0,0.0,0.0,0.0
16.200200,-1.7179813385,1.11702525616,1.28256869316,-0.629748821259,2.65409064293,-1.71642684937,1.47123217583,0.0755294117647,0.0,0.0,0.0,0.0,0.0,0.0,0.0,0.0,0.0,0.0,0.0,0.0,0.0,0.0,0.0
16.233504,-1.71836876869,1.11866784096,1.28118658066,-0.629976332188,2.65409255028,-1.71642684937,1.47123217583,0.0755294117647,0.0,0.0,0.0,0.0,0.0,0.0,0.0,0.0,0.0,0.0,0.0,0.0,0.0,0.0,0.0
16.267615,-1.71874463558,1.12008428574,1.28058087826,-0.629949569702,2.65414977074,-1.71642017365,1.47122526169,0.0755294117647,0.0,0.0,0.0,0.0,0.0,0.0,0.0,0.0,0.0,0.0,0.0,0.0,0.0,0.0,0.0
16.300132,-1.71896827221,1.1211758852,1.28063821793,-0.629751443863,2.6564013958,-1.71640324593,1.47122001648,0.0755294117647,0.0,0.0,0.0,0.0,0.0,0.0,0.0,0.0,0.0,0.0,0.0,0.0,0.0,0.0,0.0
16.333469,-1.71875607967,1.12138426304,1.28126597404,-0.629410147667,2.65926909447,-1.71636390686,1.47122001648,0.0755294117647,0.0,0.0,0.0,0.0,0.0,0.0,0.0,0.0,0.0,0.0,0.0,0.0,0.0,0.0,0.0
16.366843,-1.71833658218,1.12138056755,1.28313612938,-0.628880918026,2.66078877449,-1.71636044979,1.47122001648,0.0755294117647,0.0,0.0,0.0,0.0,0.0,0.0,0.0,0.0,0.0,0.0,0.0,0.0,0.0,0.0,0.0
16.400169,-1.71776664257,1.12125515938,1.28518533707,-0.628205955029,2.66299533844,-1.71636044979,1.47122001648,0.0755294117647,0.0,0.0,0.0,0.0,0.0,0.0,0.0,0.0,0.0,0.0,0.0,0.0,0.0,0.0,0.0
16.433459,-1.71693432331,1.12081408501,1.28762948513,-0.627588570118,2.66622281075,-1.71636044979,1.47122001648,0.0755294117647,0.0,0.0,0.0,0.0,0.0,0.0,0.0,0.0,0.0,0.0,0.0,0.0,0.0,0.0,0.0
16.467007,-1.71638989449,1.12045502663,1.28933978081,-0.627529621124,2.66852211952,-1.71636044979,1.47122001648,0.0755294117647,0.0,0.0,0.0,0.0,0.0,0.0,0.0,0.0,0.0,0.0,0.0,0.0,0.0,0.0,0.0
16.500149,-1.7156701088,1.12002789974,1.29201900959,-0.627543747425,2.67180275917,-1.71636044979,1.47121846676,0.0755294117647,0.0,0.0,0.0,0.0,0.0,0.0,0.0,0.0,0.0,0.0,0.0,0.0,0.0,0.0,0.0
16.533521,-1.71510887146,1.11947333813,1.29423332214,-0.627468287945,2.67452478409,-1.71635043621,1.47121846676,0.0755294117647,0.0,0.0,0.0,0.0,0.0,0.0,0.0,0.0,0.0,0.0,0.0,0.0,0.0,0.0,0.0
16.566854,-1.71436488628,1.11870634556,1.29649960995,-0.62724584341,2.67716956139,-1.71633672714,1.47122001648,0.0755294117647,0.0,0.0,0.0,0.0,0.0,0.0,0.0,0.0,0.0,0.0,0.0,0.0,0.0,0.0,0.0
16.600129,-1.71316087246,1.11741626263,1.29975295067,-0.626454651356,2.68090653419,-1.71615588665,1.47123014927,0.0755294117647,0.0,0.0,0.0,0.0,0.0,0.0,0.0,0.0,0.0,0.0,0.0,0.0,0.0,0.0,0.0
16.633466,-1.71217525005,1.11635291576,1.30225849152,-0.625577688217,2.68390870094,-1.715929389,1.47170245647,0.0755294117647,0.0,0.0,0.0,0.0,0.0,0.0,0.0,0.0,0.0,0.0,0.0,0.0,0.0,0.0,0.0
16.666839,-1.71116542816,1.11529457569,1.30488288403,-0.624710977077,2.68692374229,-1.71564280987,1.47413980961,0.0755294117647,0.0,0.0,0.0,0.0,0.0,0.0,0.0,0.0,0.0,0.0,0.0,0.0,0.0,0.0,0.0
16.700158,-1.70982313156,1.11374390125,1.30837535858,-0.623441636562,2.69075036049,-1.71457266808,1.47677159309,0.0755294117647,0.0,0.0,0.0,0.0,0.0,0.0,0.0,0.0,0.0,0.0,0.0,0.0,0.0,0.0,0.0
16.733468,-1.70876860619,1.11249363422,1.31100869179,-0.622007369995,2.69393897057,-1.71256637573,1.47785878181,0.0755294117647,0.0,0.0,0.0,0.0,0.0,0.0,0.0,0.0,0.0,0.0,0.0,0.0,0.0,0.0,0.0
16.767276,-1.70770120621,1.1112383604,1.31388342381,-0.620268821716,2.69703364372,-1.71042394638,1.47885930538,0.0755294117647,0.0,0.0,0.0,0.0,0.0,0.0,0.0,0.0,0.0,0.0,0.0,0.0,0.0,0.0,0.0
16.800139,-1.7063601017,1.10933494568,1.31775295734,-0.618339836597,2.70122218132,-1.70685493946,1.4790623188,0.0755294117647,0.0,0.0,0.0,0.0,0.0,0.0,0.0,0.0,0.0,0.0,0.0,0.0,0.0,0.0,0.0
16.833472,-1.70521354675,1.10792243481,1.32068049908,-0.617083311081,2.70429849625,-1.70463073254,1.47902297974,0.0755294117647,0.0,0.0,0.0,0.0,0.0,0.0,0.0,0.0,0.0,0.0,0.0,0.0,0.0,0.0,0.0
16.866927,-1.70396077633,1.10653162003,1.32349264622,-0.616088688374,2.7072763443,-1.70293307304,1.47901797295,0.0755294117647,0.0,0.0,0.0,0.0,0.0,0.0,0.0,0.0,0.0,0.0,0.0,0.0,0.0,0.0,0.0
16.900136,-1.70244979858,1.10478293896,1.32704758644,-0.615037977695,2.71097230911,-1.70047366619,1.47901272774,0.0755294117647,0.0,0.0,0.0,0.0,0.0,0.0,0.0,0.0,0.0,0.0,0.0,0.0,0.0,0.0,0.0
16.933502,-1.70137214661,1.10359787941,1.32960033417,-0.613764762878,2.71389722824,-1.69904708862,1.4790109396,0.0755294117647,0.0,0.0,0.0,0.0,0.0,0.0,0.0,0.0,0.0,0.0,0.0,0.0,0.0,0.0,0.0
16.966881,-1.70039558411,1.10243332386,1.33228361607,-0.612299799919,2.71648669243,-1.69784379005,1.4790109396,0.0755294117647,0.0,0.0,0.0,0.0,0.0,0.0,0.0,0.0,0.0,0.0,0.0,0.0,0.0,0.0,0.0
17.000141,-1.69937038422,1.10074067116,1.33553433418,-0.610233962536,2.7201025486,-1.69613409042,1.4790109396,0.0755294117647,0.0,0.0,0.0,0.0,0.0,0.0,0.0,0.0,0.0,0.0,0.0,0.0,0.0,0.0,0.0
17.033499,-1.69866716862,1.09947919846,1.33798086643,-0.608522355556,2.72266721725,-1.69572663307,1.4790109396,0.0755294117647,0.0,0.0,0.0,0.0,0.0,0.0,0.0,0.0,0.0,0.0,0.0,0.0,0.0,0.0,0.0
17.067200,-1.6981215477,1.09822762012,1.34053122997,-0.606893777847,2.725481987,-1.69552052021,1.4790109396,0.0755294117647,0.0,0.0,0.0,0.0,0.0,0.0,0.0,0.0,0.0,0.0,0.0,0.0,0.0,0.0,0.0
17.100193,-1.69731104374,1.09648275375,1.34394323826,-0.604447066784,2.72881364822,-1.69542014599,1.47901272774,0.0755294117647,0.0,0.0,0.0,0.0,0.0,0.0,0.0,0.0,0.0,0.0,0.0,0.0,0.0,0.0,0.0
17.133604,-1.69682013988,1.09509694576,1.34631311893,-0.602560281754,2.73155450821,-1.69499909878,1.47901427746,0.0755294117647,0.0,0.0,0.0,0.0,0.0,0.0,0.0,0.0,0.0,0.0,0.0,0.0,0.0,0.0,0.0
17.166818,-1.69635856152,1.09378921986,1.34896814823,-0.600449800491,2.73423552513,-1.69407522678,1.47901427746,0.0755294117647,0.0,0.0,0.0,0.0,0.0,0.0,0.0,0.0,0.0,0.0,0.0,0.0,0.0,0.0,0.0
17.200125,-1.69584226608,1.09185516834,1.35250782967,-0.597650289536,2.73806452751,-1.69192266464,1.4790418148,0.0754117647059,0.0,0.0,0.0,0.0,0.0,0.0,0.0,0.0,0.0,0.0,0.0,0.0,0.0,0.0,0.0
17.233573,-1.69538843632,1.09028935432,1.35529077053,-0.595424771309,2.74074196815,-1.69020605087,1.47914230824,0.0754117647059,0.0,0.0,0.0,0.0,0.0,0.0,0.0,0.0,0.0,0.0,0.0,0.0,0.0,0.0,0.0
17.266897,-1.69499218464,1.08858275414,1.358035326,-0.5931442976,2.74368715286,-1.68754398823,1.47966372967,0.0754117647059,0.0,0.0,0.0,0.0,0.0,0.0,0.0,0.0,0.0,0.0,0.0,0.0,0.0,0.0,0.0
17.300145,-1.69441187382,1.08644413948,1.36179614067,-0.589980363846,2.74738693237,-1.68332540989,1.48177051544,0.0754117647059,0.0,0.0,0.0,0.0,0.0,0.0,0.0,0.0,0.0,0.0,0.0,0.0,0.0,0.0,0.0
17.333482,-1.69389152527,1.08483982086,1.36458671093,-0.587555468082,2.7504427433,-1.68041920662,1.48348164558,0.0754117647059,0.0,0.0,0.0,0.0,0.0,0.0,0.0,0.0,0.0,0.0,0.0,0.0,0.0,0.0,0.0
17.366889,-1.69334316254,1.08322536945,1.36749100685,-0.585035920143,2.75323271751,-1.67792236805,1.485268116,0.0754117647059,0.0,0.0,0.0,0.0,0.0,0.0,0.0,0.0,0.0,0.0,0.0,0.0,0.0,0.0,0.0
17.400146,-1.6927382946,1.08101248741,1.37126457691,-0.581710994244,2.7572145462,-1.67444884777,1.48654127121,0.0754117647059,0.0,0.0,0.0,0.0,0.0,0.0,0.0,0.0,0.0,0.0,0.0,0.0,0.0,0.0,0.0
17.433509,-1.69230246544,1.07933032513,1.37422251701,-0.579209268093,2.76007199287,-1.67116415501,1.48744630814,0.0752941176471,0.0,0.0,0.0,0.0,0.0,0.0,0.0,0.0,0.0,0.0,0.0,0.0,0.0,0.0,0.0
17.466849,-1.69197785854,1.07818746567,1.37618494034,-0.577515602112,2.76214599609,-1.66858029366,1.48818266392,0.0752941176471,0.0,0.0,0.0,0.0,0.0,0.0,0.0,0.0,0.0,0.0,0.0,0.0,0.0,0.0,0.0
17.500140,-1.69107413292,1.07527410984,1.38125598431,-0.573114275932,2.76717972755,-1.66189396381,1.48841941357,0.0751764705882,0.0,0.0,0.0,0.0,0.0,0.0,0.0,0.0,0.0,0.0,0.0,0.0,0.0,0.0,0.0
17.533507,-1.6904258728,1.07354331017,1.38427007198,-0.570414543152,2.77030491829,-1.65803694725,1.4884262085,0.0751764705882,0.0,0.0,0.0,0.0,0.0,0.0,0.0,0.0,0.0,0.0,0.0,0.0,0.0,0.0,0.0
17.566868,-1.68971657753,1.07187771797,1.38719880581,-0.567809283733,2.77309060097,-1.65439975262,1.48844146729,0.0751764705882,0.0,0.0,0.0,0.0,0.0,0.0,0.0,0.0,0.0,0.0,0.0,0.0,0.0,0.0,0.0
17.600612,-1.68880259991,1.06986439228,1.39084196091,-0.564536809921,2.77697873116,-1.64912438393,1.48844516277,0.0751764705882,0.0,0.0,0.0,0.0,0.0,0.0,0.0,0.0,0.0,0.0,0.0,0.0,0.0,0.0,0.0
17.633498,-1.6884239912,1.06886982918,1.39263546467,-0.562960624695,2.778840065,-1.64625930786,1.48844516277,0.0751764705882,0.0,0.0,0.0,0.0,0.0,0.0,0.0,0.0,0.0,0.0,0.0,0.0,0.0,0.0,0.0
17.666812,-1.68749094009,1.06694853306,1.39623129368,-0.559769928455,2.78261160851,-1.64072680473,1.48844671249,0.0751764705882,0.0,0.0,0.0,0.0,0.0,0.0,0.0,0.0,0.0,0.0,0.0,0.0,0.0,0.0,0.0
