IRLabUoB/boris-robot/boris_tools/scripts/contact_trajectories/test_traj.csv
time,left_arm_0_joint,left_arm_1_joint,left_arm_2_joint,left_arm_3_joint,left_arm_4_joint,left_arm_5_joint,left_arm_6_joint,left_hand_synergy_joint,right_arm_0_joint,right_arm_1_joint,right_arm_2_joint,right_arm_3_joint,right_arm_4_joint,right_arm_5_joint,right_arm_6_joint,right_hand_synergy_joint,head_neck_pitch_joint,head_neck_roll_joint,head_neck_yaw_joint,head_head_tilt_joint,head_eyes_tilt_joint,head_left_eye_joint,head_right_eye_joint
0.000105,-2.16372179985,0.843250751495,1.68007659912,-1.70115888119,-0.569530069828,0.462304204702,-2.56956744194,0.0195294117647,0.0,0.0,0.0,0.0,0.0,0.0,0.0,0.0,0.0,0.0,0.0,0.0,0.0,0.0,0.0
0.033489,-2.16372179985,0.843250751495,1.68007659912,-1.70115888119,-0.569530069828,0.462304204702,-2.56956744194,0.0195294117647,0.0,0.0,0.0,0.0,0.0,0.0,0.0,0.0,0.0,0.0,0.0,0.0,0.0,0.0,0.0
0.066856,-2.16372179985,0.843250751495,1.68007659912,-1.70115888119,-0.569530069828,0.462304204702,-2.56956744194,0.0195294117647,0.0,0.0,0.0,0.0,0.0,0.0,0.0,0.0,0.0,0.0,0.0,0.0,0.0,0.0,0.0
0.100327,-2.16372179985,0.843250751495,1.68007659912,-1.70115888119,-0.569530069828,0.462304204702,-2.56956744194,0.0195294117647,0.0,0.0,0.0,0.0,0.0,0.0,0.0,0.0,0.0,0.0,0.0,0.0,0.0,0.0,0.0
0.133496,-2.16372179985,0.843250751495,1.68007659912,-1.70115888119,-0.569530069828,0.462304204702,-2.56956744194,0.0195294117647,0.0,0.0,0.0,0.0,0.0,0.0,0.0,0.0,0.0,0.0,0.0,0.0,0.0,0.0,0.0
0.166827,-2.16372179985,0.843250751495,1.68007659912,-1.70115888119,-0.569530069828,0.462304204702,-2.56956744194,0.0195294117647,0.0,0.0,0.0,0.0,0.0,0.0,0.0,0.0,0.0,0.0,0.0,0.0,0.0,0.0,0.0
0.202293,-2.16372179985,0.843250751495,1.68007659912,-1.70115888119,-0.569530069828,0.462304204702,-2.56956744194,0.0195294117647,0.0,0.0,0.0,0.0,0.0,0.0,0.0,0.0,0.0,0.0,0.0,0.0,0.0,0.0,0.0
0.233556,-2.16372179985,0.843250751495,1.68007659912,-1.70115888119,-0.569530069828,0.462304204702,-2.56956744194,0.0195294117647,0.0,0.0,0.0,0.0,0.0,0.0,0.0,0.0,0.0,0.0,0.0,0.0,0.0,0.0,0.0
0.266849,-2.16372179985,0.843250751495,1.68007659912,-1.70115888119,-0.569530069828,0.462304204702,-2.56956744194,0.0195294117647,0.0,0.0,0.0,0.0,0.0,0.0,0.0,0.0,0.0,0.0,0.0,0.0,0.0,0.0,0.0
0.300133,-2.16372179985,0.843250751495,1.68007659912,-1.70115888119,-0.569530069828,0.462304204702,-2.56956744194,0.0195294117647,0.0,0.0,0.0,0.0,0.0,0.0,0.0,0.0,0.0,0.0,0.0,0.0,0.0,0.0,0.0
0.333435,-2.16372179985,0.843250751495,1.68007659912,-1.70115888119,-0.569530069828,0.462304204702,-2.56956744194,0.0195294117647,0.0,0.0,0.0,0.0,0.0,0.0,0.0,0.0,0.0,0.0,0.0,0.0,0.0,0.0,0.0
0.366819,-2.16372179985,0.843250751495,1.68007659912,-1.70115888119,-0.569530069828,0.462304204702,-2.56956744194,0.0195294117647,0.0,0.0,0.0,0.0,0.0,0.0,0.0,0.0,0.0,0.0,0.0,0.0,0.0,0.0,0.0
0.400165,-2.16372179985,0.843250751495,1.68007659912,-1.70115888119,-0.569530069828,0.462304204702,-2.56956744194,0.0195294117647,0.0,0.0,0.0,0.0,0.0,0.0,0.0,0.0,0.0,0.0,0.0,0.0,0.0,0.0,0.0
0.433535,-2.16372179985,0.843250751495,1.68007659912,-1.70115888119,-0.569530069828,0.462304204702,-2.56956744194,0.0195294117647,0.0,0.0,0.0,0.0,0.0,0.0,0.0,0.0,0.0,0.0,0.0,0.0,0.0,0.0,0.0
0.466785,-2.16372179985,0.843250751495,1.68007659912,-1.70115888119,-0.569530069828,0.462304204702,-2.56956744194,0.0195294117647,0.0,0.0,0.0,0.0,0.0,0.0,0.0,0.0,0.0,0.0,0.0,0.0,0.0,0.0,0.0
0.500124,-2.16372179985,0.843250751495,1.68007659912,-1.70115888119,-0.569530069828,0.462304204702,-2.56956744194,0.0195294117647,0.0,0.0,0.0,0.0,0.0,0.0,0.0,0.0,0.0,0.0,0.0,0.0,0.0,0.0,0.0
0.533539,-2.16372179985,0.843250751495,1.68007659912,-1.70115888119,-0.569530069828,0.462304204702,-2.56956744194,0.0195294117647,0.0,0.0,0.0,0.0,0.0,0.0,0.0,0.0,0.0,0.0,0.0,0.0,0.0,0.0,0.0
0.566835,-2.16372179985,0.843250751495,1.68007659912,-1.70115888119,-0.569530069828,0.462304204702,-2.56956744194,0.0195294117647,0.0,0.0,0.0,0.0,0.0,0.0,0.0,0.0,0.0,0.0,0.0,0.0,0.0,0.0,0.0
0.601705,-2.16372179985,0.843250751495,1.68007659912,-1.70115888119,-0.569530069828,0.462304204702,-2.56956744194,0.0195294117647,0.0,0.0,0.0,0.0,0.0,0.0,0.0,0.0,0.0,0.0,0.0,0.0,0.0,0.0,0.0
0.633486,-2.16372179985,0.843250751495,1.68007659912,-1.70115888119,-0.569530069828,0.462304204702,-2.56956744194,0.0195294117647,0.0,0.0,0.0,0.0,0.0,0.0,0.0,0.0,0.0,0.0,0.0,0.0,0.0,0.0,0.0
0.670935,-2.16372179985,0.843250751495,1.68007659912,-1.70115888119,-0.569530069828,0.462304204702,-2.56956744194,0.0195294117647,0.0,0.0,0.0,0.0,0.0,0.0,0.0,0.0,0.0,0.0,0.0,0.0,0.0,0.0,0.0
0.700128,-2.16372179985,0.843250751495,1.68007659912,-1.70115888119,-0.569530069828,0.462304204702,-2.56956744194,0.0195294117647,0.0,0.0,0.0,0.0,0.0,0.0,0.0,0.0,0.0,0.0,0.0,0.0,0.0,0.0,0.0
0.733554,-2.16372179985,0.843250751495,1.68007659912,-1.70115888119,-0.569530069828,0.462304204702,-2.56956744194,0.0195294117647,0.0,0.0,0.0,0.0,0.0,0.0,0.0,0.0,0.0,0.0,0.0,0.0,0.0,0.0,0.0
0.766832,-2.16372179985,0.843250751495,1.68007659912,-1.70115888119,-0.569530069828,0.462304204702,-2.56956744194,0.0195294117647,0.0,0.0,0.0,0.0,0.0,0.0,0.0,0.0,0.0,0.0,0.0,0.0,0.0,0.0,0.0
0.800119,-2.16372179985,0.843250751495,1.68007659912,-1.70115888119,-0.569530069828,0.462304204702,-2.56956744194,0.0195294117647,0.0,0.0,0.0,0.0,0.0,0.0,0.0,0.0,0.0,0.0,0.0,0.0,0.0,0.0,0.0
0.833475,-2.16372179985,0.843250751495,1.68007659912,-1.70115888119,-0.569530069828,0.462304204702,-2.56956744194,0.0194117647059,0.0,0.0,0.0,0.0,0.0,0.0,0.0,0.0,0.0,0.0,0.0,0.0,0.0,0.0,0.0
0.866799,-2.16372179985,0.843250751495,1.68007659912,-1.70115888119,-0.569530069828,0.462304204702,-2.56956744194,0.0195294117647,0.0,0.0,0.0,0.0,0.0,0.0,0.0,0.0,0.0,0.0,0.0,0.0,0.0,0.0,0.0
0.900136,-2.16372179985,0.843250751495,1.68007659912,-1.70115888119,-0.569530069828,0.462304204702,-2.56956744194,0.0195294117647,0.0,0.0,0.0,0.0,0.0,0.0,0.0,0.0,0.0,0.0,0.0,0.0,0.0,0.0,0.0
0.933501,-2.16372179985,0.843250751495,1.68007659912,-1.70115888119,-0.569530069828,0.462304204702,-2.56956744194,0.0195294117647,0.0,0.0,0.0,0.0,0.0,0.0,0.0,0.0,0.0,0.0,0.0,0.0,0.0,0.0,0.0
0.966892,-2.16372179985,0.843250751495,1.68007659912,-1.70115888119,-0.569530069828,0.462304204702,-2.56956744194,0.0195294117647,0.0,0.0,0.0,0.0,0.0,0.0,0.0,0.0,0.0,0.0,0.0,0.0,0.0,0.0,0.0
1.000139,-2.16372179985,0.843250751495,1.68007659912,-1.70115888119,-0.569530069828,0.462304204702,-2.56956744194,0.0195294117647,0.0,0.0,0.0,0.0,0.0,0.0,0.0,0.0,0.0,0.0,0.0,0.0,0.0,0.0,0.0
1.033460,-2.16372179985,0.843250751495,1.68007659912,-1.70115888119,-0.569530069828,0.462304204702,-2.56956744194,0.0195294117647,0.0,0.0,0.0,0.0,0.0,0.0,0.0,0.0,0.0,0.0,0.0,0.0,0.0,0.0,0.0
1.066821,-2.16372179985,0.843250751495,1.68007659912,-1.70115888119,-0.569530069828,0.462304204702,-2.56956744194,0.0195294117647,0.0,0.0,0.0,0.0,0.0,0.0,0.0,0.0,0.0,0.0,0.0,0.0,0.0,0.0,0.0
1.100177,-2.16372179985,0.843250751495,1.68007659912,-1.70115888119,-0.569530069828,0.462304204702,-2.56956744194,0.0195294117647,0.0,0.0,0.0,0.0,0.0,0.0,0.0,0.0,0.0,0.0,0.0,0.0,0.0,0.0,0.0
1.133481,-2.16372179985,0.843250751495,1.68007659912,-1.70115888119,-0.569530069828,0.462304204702,-2.56956744194,0.0195294117647,0.0,0.0,0.0,0.0,0.0,0.0,0.0,0.0,0.0,0.0,0.0,0.0,0.0,0.0,0.0
1.166818,-2.16372179985,0.843250751495,1.68007659912,-1.70115888119,-0.569530069828,0.462304204702,-2.56956744194,0.0195294117647,0.0,0.0,0.0,0.0,0.0,0.0,0.0,0.0,0.0,0.0,0.0,0.0,0.0,0.0,0.0
1.200132,-2.16372179985,0.843250751495,1.68007659912,-1.70115888119,-0.569530069828,0.462304204702,-2.56956744194,0.0195294117647,0.0,0.0,0.0,0.0,0.0,0.0,0.0,0.0,0.0,0.0,0.0,0.0,0.0,0.0,0.0
1.233489,-2.16372179985,0.843250751495,1.68007659912,-1.70115888119,-0.569530069828,0.462304204702,-2.56956744194,0.0195294117647,0.0,0.0,0.0,0.0,0.0,0.0,0.0,0.0,0.0,0.0,0.0,0.0,0.0,0.0,0.0
1.266842,-2.16372179985,0.843250751495,1.68007659912,-1.70115888119,-0.569530069828,0.462304204702,-2.56956744194,0.0195294117647,0.0,0.0,0.0,0.0,0.0,0.0,0.0,0.0,0.0,0.0,0.0,0.0,0.0,0.0,0.0
1.300143,-2.16372179985,0.843250751495,1.68007659912,-1.70115888119,-0.569530069828,0.462304204702,-2.56956744194,0.0195294117647,0.0,0.0,0.0,0.0,0.0,0.0,0.0,0.0,0.0,0.0,0.0,0.0,0.0,0.0,0.0
1.333476,-2.16372179985,0.843250751495,1.68007659912,-1.70115888119,-0.569530069828,0.462304204702,-2.56956744194,0.0195294117647,0.0,0.0,0.0,0.0,0.0,0.0,0.0,0.0,0.0,0.0,0.0,0.0,0.0,0.0,0.0
1.366847,-2.16372179985,0.843250751495,1.68007659912,-1.70115888119,-0.569530069828,0.462304204702,-2.56956744194,0.0195294117647,0.0,0.0,0.0,0.0,0.0,0.0,0.0,0.0,0.0,0.0,0.0,0.0,0.0,0.0,0.0
1.400143,-2.16372179985,0.843250751495,1.68007659912,-1.70115888119,-0.569530069828,0.462304204702,-2.56956744194,0.0195294117647,0.0,0.0,0.0,0.0,0.0,0.0,0.0,0.0,0.0,0.0,0.0,0.0,0.0,0.0,0.0
1.433510,-2.16372179985,0.843250751495,1.68007659912,-1.70115888119,-0.569530069828,0.462304204702,-2.56956744194,0.0195294117647,0.0,0.0,0.0,0.0,0.0,0.0,0.0,0.0,0.0,0.0,0.0,0.0,0.0,0.0,0.0
1.466826,-2.16372179985,0.843250751495,1.68007659912,-1.70115888119,-0.569530069828,0.462304204702,-2.56956744194,0.0195294117647,0.0,0.0,0.0,0.0,0.0,0.0,0.0,0.0,0.0,0.0,0.0,0.0,0.0,0.0,0.0
1.500154,-2.16372179985,0.843250751495,1.68007659912,-1.70115888119,-0.569530069828,0.462304204702,-2.56956744194,0.0195294117647,0.0,0.0,0.0,0.0,0.0,0.0,0.0,0.0,0.0,0.0,0.0,0.0,0.0,0.0,0.0
1.533462,-2.16372179985,0.843250751495,1.68007659912,-1.70115888119,-0.569530069828,0.462304204702,-2.56956744194,0.0195294117647,0.0,0.0,0.0,0.0,0.0,0.0,0.0,0.0,0.0,0.0,0.0,0.0,0.0,0.0,0.0
1.566823,-2.16372179985,0.843250751495,1.68007659912,-1.70115888119,-0.569530069828,0.462304204702,-2.56956744194,0.0195294117647,0.0,0.0,0.0,0.0,0.0,0.0,0.0,0.0,0.0,0.0,0.0,0.0,0.0,0.0,0.0
1.605747,-2.16372179985,0.843250751495,1.68007659912,-1.70115888119,-0.569530069828,0.462304204702,-2.56956744194,0.0195294117647,0.0,0.0,0.0,0.0,0.0,0.0,0.0,0.0,0.0,0.0,0.0,0.0,0.0,0.0,0.0
1.633488,-2.16372179985,0.843250751495,1.68007659912,-1.70115888119,-0.569530069828,0.462304204702,-2.56956744194,0.0195294117647,0.0,0.0,0.0,0.0,0.0,0.0,0.0,0.0,0.0,0.0,0.0,0.0,0.0,0.0,0.0
1.666816,-2.16372179985,0.843250751495,1.68007659912,-1.70115888119,-0.569530069828,0.462304204702,-2.56956744194,0.0195294117647,0.0,0.0,0.0,0.0,0.0,0.0,0.0,0.0,0.0,0.0,0.0,0.0,0.0,0.0,0.0
1.700141,-2.16372179985,0.843250751495,1.68007659912,-1.70115888119,-0.569530069828,0.462304204702,-2.56956744194,0.0195294117647,0.0,0.0,0.0,0.0,0.0,0.0,0.0,0.0,0.0,0.0,0.0,0.0,0.0,0.0,0.0
1.733478,-2.16372179985,0.843250751495,1.68007659912,-1.70115888119,-0.569530069828,0.462304204702,-2.56956744194,0.0195294117647,0.0,0.0,0.0,0.0,0.0,0.0,0.0,0.0,0.0,0.0,0.0,0.0,0.0,0.0,0.0
1.766825,-2.16372179985,0.843250751495,1.68007659912,-1.70115888119,-0.569530069828,0.462304204702,-2.56956744194,0.0195294117647,0.0,0.0,0.0,0.0,0.0,0.0,0.0,0.0,0.0,0.0,0.0,0.0,0.0,0.0,0.0
1.800140,-2.16372179985,0.843250751495,1.68007659912,-1.70115888119,-0.569530069828,0.462304204702,-2.56956744194,0.0195294117647,0.0,0.0,0.0,0.0,0.0,0.0,0.0,0.0,0.0,0.0,0.0,0.0,0.0,0.0,0.0
1.833494,-2.16372179985,0.843250751495,1.68007659912,-1.70115888119,-0.569530069828,0.462304204702,-2.56956744194,0.0195294117647,0.0,0.0,0.0,0.0,0.0,0.0,0.0,0.0,0.0,0.0,0.0,0.0,0.0,0.0,0.0
1.866834,-2.16372179985,0.843250751495,1.68007659912,-1.70115888119,-0.569530069828,0.462304204702,-2.56956744194,0.0195294117647,0.0,0.0,0.0,0.0,0.0,0.0,0.0,0.0,0.0,0.0,0.0,0.0,0.0,0.0,0.0
1.900135,-2.16372179985,0.843250751495,1.68007659912,-1.70115888119,-0.569530069828,0.462304204702,-2.56956744194,0.0195294117647,0.0,0.0,0.0,0.0,0.0,0.0,0.0,0.0,0.0,0.0,0.0,0.0,0.0,0.0,0.0
1.933518,-2.16372179985,0.843250751495,1.68007659912,-1.70115888119,-0.569530069828,0.462304204702,-2.56956744194,0.0195294117647,0.0,0.0,0.0,0.0,0.0,0.0,0.0,0.0,0.0,0.0,0.0,0.0,0.0,0.0,0.0
1.966827,-2.16372179985,0.843250751495,1.68007659912,-1.70115888119,-0.569530069828,0.462304204702,-2.56956744194,0.0195294117647,0.0,0.0,0.0,0.0,0.0,0.0,0.0,0.0,0.0,0.0,0.0,0.0,0.0,0.0,0.0
2.000158,-2.16372179985,0.843250751495,1.68007659912,-1.70115888119,-0.569530069828,0.462304204702,-2.56956744194,0.0195294117647,0.0,0.0,0.0,0.0,0.0,0.0,0.0,0.0,0.0,0.0,0.0,0.0,0.0,0.0,0.0
2.033478,-2.16372179985,0.843250751495,1.68007659912,-1.70115888119,-0.569530069828,0.462304204702,-2.56956744194,0.0195294117647,0.0,0.0,0.0,0.0,0.0,0.0,0.0,0.0,0.0,0.0,0.0,0.0,0.0,0.0,0.0
2.066832,-2.16372179985,0.843250751495,1.68007659912,-1.70115888119,-0.569530069828,0.462304204702,-2.56956744194,0.0195294117647,0.0,0.0,0.0,0.0,0.0,0.0,0.0,0.0,0.0,0.0,0.0,0.0,0.0,0.0,0.0
2.100144,-2.16372179985,0.843250751495,1.68007659912,-1.70115888119,-0.569530069828,0.462304204702,-2.56956744194,0.0195294117647,0.0,0.0,0.0,0.0,0.0,0.0,0.0,0.0,0.0,0.0,0.0,0.0,0.0,0.0,0.0
2.136005,-2.16372179985,0.843250751495,1.68007659912,-1.70115888119,-0.569530069828,0.462304204702,-2.56956744194,0.0195294117647,0.0,0.0,0.0,0.0,0.0,0.0,0.0,0.0,0.0,0.0,0.0,0.0,0.0,0.0,0.0
2.166825,-2.16372179985,0.843250751495,1.68007659912,-1.70115888119,-0.569530069828,0.462304204702,-2.56956744194,0.0195294117647,0.0,0.0,0.0,0.0,0.0,0.0,0.0,0.0,0.0,0.0,0.0,0.0,0.0,0.0,0.0
2.200133,-2.16372179985,0.843250751495,1.68007659912,-1.70115888119,-0.569530069828,0.462304204702,-2.56956744194,0.0195294117647,0.0,0.0,0.0,0.0,0.0,0.0,0.0,0.0,0.0,0.0,0.0,0.0,0.0,0.0,0.0
2.233502,-2.16372179985,0.843250751495,1.68007659912,-1.70115888119,-0.569530069828,0.462304204702,-2.56956744194,0.0195294117647,0.0,0.0,0.0,0.0,0.0,0.0,0.0,0.0,0.0,0.0,0.0,0.0,0.0,0.0,0.0
2.266835,-2.16372179985,0.843250751495,1.68007659912,-1.70115888119,-0.569530069828,0.462304204702,-2.56956744194,0.0195294117647,0.0,0.0,0.0,0.0,0.0,0.0,0.0,0.0,0.0,0.0,0.0,0.0,0.0,0.0,0.0
2.300140,-2.16372179985,0.843250751495,1.68007659912,-1.70115888119,-0.569530069828,0.462304204702,-2.56956744194,0.0195294117647,0.0,0.0,0.0,0.0,0.0,0.0,0.0,0.0,0.0,0.0,0.0,0.0,0.0,0.0,0.0
2.333478,-2.16372179985,0.843250751495,1.68007659912,-1.70115888119,-0.569530069828,0.462304204702,-2.56956744194,0.0195294117647,0.0,0.0,0.0,0.0,0.0,0.0,0.0,0.0,0.0,0.0,0.0,0.0,0.0,0.0,0.0
2.366833,-2.16372179985,0.843250751495,1.68007659912,-1.70115888119,-0.569530069828,0.462304204702,-2.56956744194,0.0195294117647,0.0,0.0,0.0,0.0,0.0,0.0,0.0,0.0,0.0,0.0,0.0,0.0,0.0,0.0,0.0
2.400121,-2.16372179985,0.843250751495,1.68007659912,-1.70115888119,-0.569530069828,0.462304204702,-2.56956744194,0.0195294117647,0.0,0.0,0.0,0.0,0.0,0.0,0.0,0.0,0.0,0.0,0.0,0.0,0.0,0.0,0.0
2.433472,-2.16372179985,0.843250751495,1.68007659912,-1.70115888119,-0.569530069828,0.462304204702,-2.56956744194,0.0195294117647,0.0,0.0,0.0,0.0,0.0,0.0,0.0,0.0,0.0,0.0,0.0,0.0,0.0,0.0,0.0
2.466830,-2.16372179985,0.843250751495,1.68007659912,-1.70115888119,-0.569530069828,0.462304204702,-2.56956744194,0.0195294117647,0.0,0.0,0.0,0.0,0.0,0.0,0.0,0.0,0.0,0.0,0.0,0.0,0.0,0.0,0.0
2.500148,-2.16372179985,0.843250751495,1.68007659912,-1.70115888119,-0.569530069828,0.462304204702,-2.56956744194,0.0195294117647,0.0,0.0,0.0,0.0,0.0,0.0,0.0,0.0,0.0,0.0,0.0,0.0,0.0,0.0,0.0
2.533495,-2.16372179985,0.843250751495,1.68007659912,-1.70115888119,-0.569530069828,0.462304204702,-2.56956744194,0.0195294117647,0.0,0.0,0.0,0.0,0.0,0.0,0.0,0.0,0.0,0.0,0.0,0.0,0.0,0.0,0.0
2.566832,-2.16372179985,0.843250751495,1.68007659912,-1.70115888119,-0.569530069828,0.462304204702,-2.56956744194,0.0195294117647,0.0,0.0,0.0,0.0,0.0,0.0,0.0,0.0,0.0,0.0,0.0,0.0,0.0,0.0,0.0
2.600144,-2.16372179985,0.843250751495,1.68007659912,-1.70115888119,-0.569530069828,0.462304204702,-2.56956744194,0.0195294117647,0.0,0.0,0.0,0.0,0.0,0.0,0.0,0.0,0.0,0.0,0.0,0.0,0.0,0.0,0.0
2.633506,-2.16372179985,0.843250751495,1.68007659912,-1.70115888119,-0.569530069828,0.462304204702,-2.56956744194,0.0195294117647,0.0,0.0,0.0,0.0,0.0,0.0,0.0,0.0,0.0,0.0,0.0,0.0,0.0,0.0,0.0
2.666840,-2.16372179985,0.843250751495,1.68007659912,-1.70115888119,-0.569530069828,0.462304204702,-2.56956744194,0.0195294117647,0.0,0.0,0.0,0.0,0.0,0.0,0.0,0.0,0.0,0.0,0.0,0.0,0.0,0.0,0.0
2.700157,-2.16372179985,0.843250751495,1.68007659912,-1.70115888119,-0.569530069828,0.462304204702,-2.56956744194,0.0195294117647,0.0,0.0,0.0,0.0,0.0,0.0,0.0,0.0,0.0,0.0,0.0,0.0,0.0,0.0,0.0
2.733513,-2.16372179985,0.843250751495,1.68007659912,-1.70115888119,-0.569530069828,0.462304204702,-2.56956744194,0.0195294117647,0.0,0.0,0.0,0.0,0.0,0.0,0.0,0.0,0.0,0.0,0.0,0.0,0.0,0.0,0.0
2.766854,-2.16372179985,0.843250751495,1.68007659912,-1.70115888119,-0.569530069828,0.462304204702,-2.56956744194,0.0195294117647,0.0,0.0,0.0,0.0,0.0,0.0,0.0,0.0,0.0,0.0,0.0,0.0,0.0,0.0,0.0
2.800136,-2.16372179985,0.843250751495,1.68007659912,-1.70115888119,-0.569530069828,0.462304204702,-2.56956744194,0.0195294117647,0.0,0.0,0.0,0.0,0.0,0.0,0.0,0.0,0.0,0.0,0.0,0.0,0.0,0.0,0.0
2.833514,-2.16372179985,0.843250751495,1.68007659912,-1.70115888119,-0.569530069828,0.462304204702,-2.56956744194,0.0195294117647,0.0,0.0,0.0,0.0,0.0,0.0,0.0,0.0,0.0,0.0,0.0,0.0,0.0,0.0,0.0
2.866831,-2.16372179985,0.843250751495,1.68007659912,-1.70115888119,-0.569530069828,0.462304204702,-2.56956744194,0.0195294117647,0.0,0.0,0.0,0.0,0.0,0.0,0.0,0.0,0.0,0.0,0.0,0.0,0.0,0.0,0.0
2.900135,-2.16372179985,0.843250751495,1.68007659912,-1.70115888119,-0.569530069828,0.462304204702,-2.56956744194,0.0195294117647,0.0,0.0,0.0,0.0,0.0,0.0,0.0,0.0,0.0,0.0,0.0,0.0,0.0,0.0,0.0
2.933470,-2.16372179985,0.843250751495,1.68007659912,-1.70115888119,-0.569530069828,0.462304204702,-2.56956744194,0.0195294117647,0.0,0.0,0.0,0.0,0.0,0.0,0.0,0.0,0.0,0.0,0.0,0.0,0.0,0.0,0.0
2.966826,-2.16372179985,0.843250751495,1.68007659912,-1.70115888119,-0.569530069828,0.462304204702,-2.56956744194,0.0195294117647,0.0,0.0,0.0,0.0,0.0,0.0,0.0,0.0,0.0,0.0,0.0,0.0,0.0,0.0,0.0
3.000160,-2.16372179985,0.843250751495,1.68007659912,-1.70115888119,-0.569530069828,0.462304204702,-2.56956744194,0.0195294117647,0.0,0.0,0.0,0.0,0.0,0.0,0.0,0.0,0.0,0.0,0.0,0.0,0.0,0.0,0.0
3.033488,-2.16372179985,0.843250751495,1.68007659912,-1.70115888119,-0.569530069828,0.462304204702,-2.56956744194,0.0195294117647,0.0,0.0,0.0,0.0,0.0,0.0,0.0,0.0,0.0,0.0,0.0,0.0,0.0,0.0,0.0
3.066821,-2.16372179985,0.843250751495,1.68007659912,-1.70115888119,-0.569530069828,0.462304204702,-2.56956744194,0.0195294117647,0.0,0.0,0.0,0.0,0.0,0.0,0.0,0.0,0.0,0.0,0.0,0.0,0.0,0.0,0.0
3.100151,-2.16372179985,0.843250751495,1.68007659912,-1.70115888119,-0.569530069828,0.462304204702,-2.56956744194,0.0195294117647,0.0,0.0,0.0,0.0,0.0,0.0,0.0,0.0,0.0,0.0,0.0,0.0,0.0,0.0,0.0
3.133449,-2.16372179985,0.843250751495,1.68007659912,-1.70115888119,-0.569530069828,0.462304204702,-2.56956744194,0.0195294117647,0.0,0.0,0.0,0.0,0.0,0.0,0.0,0.0,0.0,0.0,0.0,0.0,0.0,0.0,0.0
3.166803,-2.16372179985,0.843250751495,1.68007659912,-1.70115888119,-0.569530069828,0.462304204702,-2.56956744194,0.0195294117647,0.0,0.0,0.0,0.0,0.0,0.0,0.0,0.0,0.0,0.0,0.0,0.0,0.0,0.0,0.0
3.200189,-2.16372179985,0.843250751495,1.68007659912,-1.70115888119,-0.569530069828,0.462304204702,-2.56956744194,0.0195294117647,0.0,0.0,0.0,0.0,0.0,0.0,0.0,0.0,0.0,0.0,0.0,0.0,0.0,0.0,0.0
3.233488,-2.16372179985,0.843250751495,1.68007659912,-1.70115888119,-0.569530069828,0.462304204702,-2.56956744194,0.0195294117647,0.0,0.0,0.0,0.0,0.0,0.0,0.0,0.0,0.0,0.0,0.0,0.0,0.0,0.0,0.0
3.267890,-2.16372179985,0.843250751495,1.68007659912,-1.70115888119,-0.569530069828,0.462304204702,-2.56956744194,0.0195294117647,0.0,0.0,0.0,0.0,0.0,0.0,0.0,0.0,0.0,0.0,0.0,0.0,0.0,0.0,0.0
3.300156,-2.16372179985,0.843250751495,1.68007659912,-1.70115888119,-0.569530069828,0.462304204702,-2.56956744194,0.0195294117647,0.0,0.0,0.0,0.0,0.0,0.0,0.0,0.0,0.0,0.0,0.0,0.0,0.0,0.0,0.0
3.333518,-2.16372179985,0.843250751495,1.68007659912,-1.70115888119,-0.569530069828,0.462304204702,-2.56956744194,0.0195294117647,0.0,0.0,0.0,0.0,0.0,0.0,0.0,0.0,0.0,0.0,0.0,0.0,0.0,0.0,0.0
3.366824,-2.16372179985,0.843250751495,1.68007659912,-1.70115888119,-0.569530069828,0.462304204702,-2.56956744194,0.0195294117647,0.0,0.0,0.0,0.0,0.0,0.0,0.0,0.0,0.0,0.0,0.0,0.0,0.0,0.0,0.0
3.400142,-2.16372179985,0.843250751495,1.68007659912,-1.70115888119,-0.569530069828,0.462304204702,-2.56956744194,0.0195294117647,0.0,0.0,0.0,0.0,0.0,0.0,0.0,0.0,0.0,0.0,0.0,0.0,0.0,0.0,0.0
3.433476,-2.16372179985,0.843250751495,1.68007659912,-1.70115888119,-0.569530069828,0.462304204702,-2.56956744194,0.0195294117647,0.0,0.0,0.0,0.0,0.0,0.0,0.0,0.0,0.0,0.0,0.0,0.0,0.0,0.0,0.0
3.466817,-2.16372179985,0.843250751495,1.68007659912,-1.70115888119,-0.569530069828,0.462304204702,-2.56956744194,0.0195294117647,0.0,0.0,0.0,0.0,0.0,0.0,0.0,0.0,0.0,0.0,0.0,0.0,0.0,0.0,0.0
3.500134,-2.16372179985,0.843250751495,1.68007659912,-1.70115888119,-0.569530069828,0.462304204702,-2.56956744194,0.0195294117647,0.0,0.0,0.0,0.0,0.0,0.0,0.0,0.0,0.0,0.0,0.0,0.0,0.0,0.0,0.0
3.533521,-2.16372179985,0.843250751495,1.68007659912,-1.70115888119,-0.569530069828,0.462304204702,-2.56956744194,0.0195294117647,0.0,0.0,0.0,0.0,0.0,0.0,0.0,0.0,0.0,0.0,0.0,0.0,0.0,0.0,0.0
3.566826,-2.16372179985,0.843250751495,1.68007659912,-1.70115888119,-0.569530069828,0.462304204702,-2.56956744194,0.0195294117647,0.0,0.0,0.0,0.0,0.0,0.0,0.0,0.0,0.0,0.0,0.0,0.0,0.0,0.0,0.0
3.600129,-2.16372179985,0.843250751495,1.68007659912,-1.70115888119,-0.569530069828,0.462304204702,-2.56956744194,0.0195294117647,0.0,0.0,0.0,0.0,0.0,0.0,0.0,0.0,0.0,0.0,0.0,0.0,0.0,0.0,0.0
3.633510,-2.16372179985,0.843250751495,1.68007659912,-1.70115888119,-0.569530069828,0.462304204702,-2.56956744194,0.0195294117647,0.0,0.0,0.0,0.0,0.0,0.0,0.0,0.0,0.0,0.0,0.0,0.0,0.0,0.0,0.0
3.666844,-2.16372179985,0.843250751495,1.68007659912,-1.70115888119,-0.569530069828,0.462304204702,-2.56956744194,0.0195294117647,0.0,0.0,0.0,0.0,0.0,0.0,0.0,0.0,0.0,0.0,0.0,0.0,0.0,0.0,0.0
3.700140,-2.16372179985,0.843250751495,1.68007659912,-1.70115888119,-0.569530069828,0.462304204702,-2.56956744194,0.0195294117647,0.0,0.0,0.0,0.0,0.0,0.0,0.0,0.0,0.0,0.0,0.0,0.0,0.0,0.0,0.0
3.733498,-2.16372179985,0.843250751495,1.68007659912,-1.70115888119,-0.569530069828,0.462304204702,-2.56956744194,0.0195294117647,0.0,0.0,0.0,0.0,0.0,0.0,0.0,0.0,0.0,0.0,0.0,0.0,0.0,0.0,0.0
3.766834,-2.16372179985,0.843250751495,1.68007659912,-1.70115888119,-0.569530069828,0.462304204702,-2.56956744194,0.0195294117647,0.0,0.0,0.0,0.0,0.0,0.0,0.0,0.0,0.0,0.0,0.0,0.0,0.0,0.0,0.0
3.800143,-2.16372179985,0.843250751495,1.68007659912,-1.70115888119,-0.569530069828,0.462304204702,-2.56956744194,0.0195294117647,0.0,0.0,0.0,0.0,0.0,0.0,0.0,0.0,0.0,0.0,0.0,0.0,0.0,0.0,0.0
3.833493,-2.16372179985,0.843250751495,1.68007659912,-1.70115888119,-0.569530069828,0.462304204702,-2.56956744194,0.0195294117647,0.0,0.0,0.0,0.0,0.0,0.0,0.0,0.0,0.0,0.0,0.0,0.0,0.0,0.0,0.0
3.866855,-2.16372179985,0.843250751495,1.68007659912,-1.70115888119,-0.569530069828,0.462304204702,-2.56956744194,0.0195294117647,0.0,0.0,0.0,0.0,0.0,0.0,0.0,0.0,0.0,0.0,0.0,0.0,0.0,0.0,0.0
3.900141,-2.16372179985,0.843250751495,1.68007659912,-1.70115888119,-0.569530069828,0.462304204702,-2.56956744194,0.0195294117647,0.0,0.0,0.0,0.0,0.0,0.0,0.0,0.0,0.0,0.0,0.0,0.0,0.0,0.0,0.0
3.933477,-2.16372179985,0.843250751495,1.68007659912,-1.70115888119,-0.569530069828,0.462304204702,-2.56956744194,0.0195294117647,0.0,0.0,0.0,0.0,0.0,0.0,0.0,0.0,0.0,0.0,0.0,0.0,0.0,0.0,0.0
3.966829,-2.16372179985,0.843250751495,1.68007659912,-1.70115888119,-0.569530069828,0.462304204702,-2.56956744194,0.0194117647059,0.0,0.0,0.0,0.0,0.0,0.0,0.0,0.0,0.0,0.0,0.0,0.0,0.0,0.0,0.0
4.000132,-2.16372179985,0.843250751495,1.68007659912,-1.70115888119,-0.569530069828,0.462304204702,-2.56956744194,0.0195294117647,0.0,0.0,0.0,0.0,0.0,0.0,0.0,0.0,0.0,0.0,0.0,0.0,0.0,0.0,0.0
4.033478,-2.16372179985,0.843250751495,1.68007659912,-1.70115888119,-0.569530069828,0.462304204702,-2.56956744194,0.0195294117647,0.0,0.0,0.0,0.0,0.0,0.0,0.0,0.0,0.0,0.0,0.0,0.0,0.0,0.0,0.0
4.066837,-2.16372179985,0.843250751495,1.68007659912,-1.70115888119,-0.569530069828,0.462304204702,-2.56956744194,0.0195294117647,0.0,0.0,0.0,0.0,0.0,0.0,0.0,0.0,0.0,0.0,0.0,0.0,0.0,0.0,0.0
4.100224,-2.16372179985,0.843250751495,1.68007659912,-1.70115888119,-0.569530069828,0.462304204702,-2.56956744194,0.0195294117647,0.0,0.0,0.0,0.0,0.0,0.0,0.0,0.0,0.0,0.0,0.0,0.0,0.0,0.0,0.0
4.133480,-2.16372179985,0.843250751495,1.68007659912,-1.70115888119,-0.569530069828,0.462304204702,-2.56956744194,0.0195294117647,0.0,0.0,0.0,0.0,0.0,0.0,0.0,0.0,0.0,0.0,0.0,0.0,0.0,0.0,0.0
4.166791,-2.16372179985,0.843250751495,1.68007659912,-1.70115888119,-0.569530069828,0.462304204702,-2.56956744194,0.0195294117647,0.0,0.0,0.0,0.0,0.0,0.0,0.0,0.0,0.0,0.0,0.0,0.0,0.0,0.0,0.0
4.200136,-2.16372179985,0.843250751495,1.68007659912,-1.70115888119,-0.569530069828,0.462304204702,-2.56956744194,0.0195294117647,0.0,0.0,0.0,0.0,0.0,0.0,0.0,0.0,0.0,0.0,0.0,0.0,0.0,0.0,0.0
4.233463,-2.16372179985,0.843250751495,1.68007659912,-1.70115888119,-0.569530069828,0.462304204702,-2.56956744194,0.0195294117647,0.0,0.0,0.0,0.0,0.0,0.0,0.0,0.0,0.0,0.0,0.0,0.0,0.0,0.0,0.0
4.266831,-2.16372179985,0.843250751495,1.68007659912,-1.70115888119,-0.569530069828,0.462304204702,-2.56956744194,0.0195294117647,0.0,0.0,0.0,0.0,0.0,0.0,0.0,0.0,0.0,0.0,0.0,0.0,0.0,0.0,0.0
4.300138,-2.16372179985,0.843250751495,1.68007659912,-1.70115888119,-0.569530069828,0.462304204702,-2.56956744194,0.0195294117647,0.0,0.0,0.0,0.0,0.0,0.0,0.0,0.0,0.0,0.0,0.0,0.0,0.0,0.0,0.0
4.333484,-2.16372179985,0.843250751495,1.68007659912,-1.70115888119,-0.569530069828,0.462304204702,-2.56956744194,0.0195294117647,0.0,0.0,0.0,0.0,0.0,0.0,0.0,0.0,0.0,0.0,0.0,0.0,0.0,0.0,0.0
4.366839,-2.16372179985,0.843250751495,1.68007659912,-1.70115888119,-0.569530069828,0.462304204702,-2.56956744194,0.0195294117647,0.0,0.0,0.0,0.0,0.0,0.0,0.0,0.0,0.0,0.0,0.0,0.0,0.0,0.0,0.0
4.400147,-2.16372179985,0.843250751495,1.68007659912,-1.70115888119,-0.569530069828,0.462304204702,-2.56956744194,0.0195294117647,0.0,0.0,0.0,0.0,0.0,0.0,0.0,0.0,0.0,0.0,0.0,0.0,0.0,0.0,0.0
4.433486,-2.16372179985,0.843250751495,1.68007659912,-1.70115888119,-0.569530069828,0.462304204702,-2.56956744194,0.0195294117647,0.0,0.0,0.0,0.0,0.0,0.0,0.0,0.0,0.0,0.0,0.0,0.0,0.0,0.0,0.0
4.466843,-2.16372179985,0.843250751495,1.68007659912,-1.70115888119,-0.569530069828,0.462304204702,-2.56956744194,0.0195294117647,0.0,0.0,0.0,0.0,0.0,0.0,0.0,0.0,0.0,0.0,0.0,0.0,0.0,0.0,0.0
4.500170,-2.16372179985,0.843250751495,1.68007659912,-1.70115888119,-0.569530069828,0.462304204702,-2.56956744194,0.0195294117647,0.0,0.0,0.0,0.0,0.0,0.0,0.0,0.0,0.0,0.0,0.0,0.0,0.0,0.0,0.0
4.533526,-2.16372179985,0.843250751495,1.68007659912,-1.70115888119,-0.569530069828,0.462304204702,-2.56956744194,0.0195294117647,0.0,0.0,0.0,0.0,0.0,0.0,0.0,0.0,0.0,0.0,0.0,0.0,0.0,0.0,0.0
4.566837,-2.16372179985,0.843250751495,1.68007659912,-1.70115888119,-0.569530069828,0.462304204702,-2.56956744194,0.0195294117647,0.0,0.0,0.0,0.0,0.0,0.0,0.0,0.0,0.0,0.0,0.0,0.0,0.0,0.0,0.0
4.600141,-2.16372179985,0.843250751495,1.68007659912,-1.70115888119,-0.569530069828,0.462304204702,-2.56956744194,0.0195294117647,0.0,0.0,0.0,0.0,0.0,0.0,0.0,0.0,0.0,0.0,0.0,0.0,0.0,0.0,0.0
4.633565,-2.16372179985,0.843250751495,1.68007659912,-1.70115888119,-0.569530069828,0.462304204702,-2.56956744194,0.0195294117647,0.0,0.0,0.0,0.0,0.0,0.0,0.0,0.0,0.0,0.0,0.0,0.0,0.0,0.0,0.0
4.666826,-2.16372179985,0.843250751495,1.68007659912,-1.70115888119,-0.569530069828,0.462304204702,-2.56956744194,0.0195294117647,0.0,0.0,0.0,0.0,0.0,0.0,0.0,0.0,0.0,0.0,0.0,0.0,0.0,0.0,0.0
4.700133,-2.16372179985,0.843250751495,1.68007659912,-1.70115888119,-0.569530069828,0.462304204702,-2.56956744194,0.0195294117647,0.0,0.0,0.0,0.0,0.0,0.0,0.0,0.0,0.0,0.0,0.0,0.0,0.0,0.0,0.0
4.733479,-2.16372179985,0.843250751495,1.68007659912,-1.70115888119,-0.569530069828,0.462304204702,-2.56956744194,0.0195294117647,0.0,0.0,0.0,0.0,0.0,0.0,0.0,0.0,0.0,0.0,0.0,0.0,0.0,0.0,0.0
4.766841,-2.16372179985,0.843250751495,1.68007659912,-1.70115888119,-0.569530069828,0.462304204702,-2.56956744194,0.0194117647059,0.0,0.0,0.0,0.0,0.0,0.0,0.0,0.0,0.0,0.0,0.0,0.0,0.0,0.0,0.0
4.800143,-2.16372179985,0.843250751495,1.68007659912,-1.70115888119,-0.569530069828,0.462304204702,-2.56956744194,0.0195294117647,0.0,0.0,0.0,0.0,0.0,0.0,0.0,0.0,0.0,0.0,0.0,0.0,0.0,0.0,0.0
4.833504,-2.16372179985,0.843250751495,1.68007659912,-1.70115888119,-0.569530069828,0.462304204702,-2.56956744194,0.0195294117647,0.0,0.0,0.0,0.0,0.0,0.0,0.0,0.0,0.0,0.0,0.0,0.0,0.0,0.0,0.0
4.866828,-2.16372179985,0.843250751495,1.68007659912,-1.70115888119,-0.569530069828,0.462304204702,-2.56956744194,0.0195294117647,0.0,0.0,0.0,0.0,0.0,0.0,0.0,0.0,0.0,0.0,0.0,0.0,0.0,0.0,0.0
4.900142,-2.16372179985,0.843250751495,1.68007659912,-1.70115888119,-0.569530069828,0.462304204702,-2.56956744194,0.0195294117647,0.0,0.0,0.0,0.0,0.0,0.0,0.0,0.0,0.0,0.0,0.0,0.0,0.0,0.0,0.0
4.933489,-2.16372179985,0.843250751495,1.68007659912,-1.70115888119,-0.569530069828,0.462304204702,-2.56956744194,0.0195294117647,0.0,0.0,0.0,0.0,0.0,0.0,0.0,0.0,0.0,0.0,0.0,0.0,0.0,0.0,0.0
4.966848,-2.16372179985,0.843250751495,1.68007659912,-1.70115888119,-0.569530069828,0.462304204702,-2.56956744194,0.0195294117647,0.0,0.0,0.0,0.0,0.0,0.0,0.0,0.0,0.0,0.0,0.0,0.0,0.0,0.0,0.0
5.000127,-2.16372179985,0.843250751495,1.68007659912,-1.70115888119,-0.569530069828,0.462304204702,-2.56956744194,0.0195294117647,0.0,0.0,0.0,0.0,0.0,0.0,0.0,0.0,0.0,0.0,0.0,0.0,0.0,0.0,0.0
5.033491,-2.16372179985,0.843250751495,1.68007659912,-1.70115888119,-0.569530069828,0.462304204702,-2.56956744194,0.0195294117647,0.0,0.0,0.0,0.0,0.0,0.0,0.0,0.0,0.0,0.0,0.0,0.0,0.0,0.0,0.0
5.066820,-2.16372179985,0.843250751495,1.68007659912,-1.70115888119,-0.569530069828,0.462304204702,-2.56956744194,0.0195294117647,0.0,0.0,0.0,0.0,0.0,0.0,0.0,0.0,0.0,0.0,0.0,0.0,0.0,0.0,0.0
5.100119,-2.16372179985,0.843250751495,1.68007659912,-1.70115888119,-0.569530069828,0.462304204702,-2.56956744194,0.0195294117647,0.0,0.0,0.0,0.0,0.0,0.0,0.0,0.0,0.0,0.0,0.0,0.0,0.0,0.0,0.0
5.133453,-2.16372179985,0.843250751495,1.68007659912,-1.70115888119,-0.569530069828,0.462304204702,-2.56956744194,0.0195294117647,0.0,0.0,0.0,0.0,0.0,0.0,0.0,0.0,0.0,0.0,0.0,0.0,0.0,0.0,0.0
5.166833,-2.16372179985,0.843250751495,1.68007659912,-1.70115888119,-0.569530069828,0.462304204702,-2.56956744194,0.0195294117647,0.0,0.0,0.0,0.0,0.0,0.0,0.0,0.0,0.0,0.0,0.0,0.0,0.0,0.0,0.0
5.200136,-2.16372179985,0.843250751495,1.68007659912,-1.70115888119,-0.569530069828,0.462304204702,-2.56956744194,0.0195294117647,0.0,0.0,0.0,0.0,0.0,0.0,0.0,0.0,0.0,0.0,0.0,0.0,0.0,0.0,0.0
5.233492,-2.16372179985,0.843250751495,1.68007659912,-1.70115888119,-0.569530069828,0.462304204702,-2.56956744194,0.0195294117647,0.0,0.0,0.0,0.0,0.0,0.0,0.0,0.0,0.0,0.0,0.0,0.0,0.0,0.0,0.0
5.266841,-2.16372179985,0.843250751495,1.68007659912,-1.70115888119,-0.569530069828,0.462304204702,-2.56956744194,0.0195294117647,0.0,0.0,0.0,0.0,0.0,0.0,0.0,0.0,0.0,0.0,0.0,0.0,0.0,0.0,0.0
5.303196,-2.16372179985,0.843250751495,1.68007659912,-1.70115888119,-0.569530069828,0.462304204702,-2.56956744194,0.0195294117647,0.0,0.0,0.0,0.0,0.0,0.0,0.0,0.0,0.0,0.0,0.0,0.0,0.0,0.0,0.0
5.333512,-2.16372179985,0.843250751495,1.68007659912,-1.70115888119,-0.569530069828,0.462304204702,-2.56956744194,0.0195294117647,0.0,0.0,0.0,0.0,0.0,0.0,0.0,0.0,0.0,0.0,0.0,0.0,0.0,0.0,0.0
5.366929,-2.16372179985,0.843250751495,1.68007659912,-1.70115888119,-0.569530069828,0.462304204702,-2.56956744194,0.0195294117647,0.0,0.0,0.0,0.0,0.0,0.0,0.0,0.0,0.0,0.0,0.0,0.0,0.0,0.0,0.0
5.400184,-2.16372179985,0.843250751495,1.68007659912,-1.70115888119,-0.569530069828,0.462304204702,-2.56956744194,0.0195294117647,0.0,0.0,0.0,0.0,0.0,0.0,0.0,0.0,0.0,0.0,0.0,0.0,0.0,0.0,0.0
5.433496,-2.16372179985,0.843250751495,1.68007659912,-1.70115888119,-0.569530069828,0.462304204702,-2.56956744194,0.0195294117647,0.0,0.0,0.0,0.0,0.0,0.0,0.0,0.0,0.0,0.0,0.0,0.0,0.0,0.0,0.0
5.466810,-2.16372299194,0.843319714069,1.68007659912,-1.70114731789,-0.569525897503,0.462304204702,-2.56959652901,0.0195294117647,0.0,0.0,0.0,0.0,0.0,0.0,0.0,0.0,0.0,0.0,0.0,0.0,0.0,0.0,0.0
5.500327,-2.16372299194,0.8435587883,1.68007659912,-1.70107698441,-0.569525897503,0.462304204702,-2.56960630417,0.0195294117647,0.0,0.0,0.0,0.0,0.0,0.0,0.0,0.0,0.0,0.0,0.0,0.0,0.0,0.0,0.0
5.533496,-2.16372299194,0.843785107136,1.68007779121,-1.70095050335,-0.569525897503,0.462304204702,-2.56960821152,0.0194117647059,0.0,0.0,0.0,0.0,0.0,0.0,0.0,0.0,0.0,0.0,0.0,0.0,0.0,0.0,0.0
5.566856,-2.16372299194,0.84403437376,1.68007910252,-1.7007997036,-0.569523990154,0.462304204702,-2.56961011887,0.0195294117647,0.0,0.0,0.0,0.0,0.0,0.0,0.0,0.0,0.0,0.0,0.0,0.0,0.0,0.0,0.0
5.600145,-2.16372299194,0.844515025616,1.68007910252,-1.70064616203,-0.569525897503,0.462304204702,-2.56961321831,0.0195294117647,0.0,0.0,0.0,0.0,0.0,0.0,0.0,0.0,0.0,0.0,0.0,0.0,0.0,0.0,0.0
5.633544,-2.16372179985,0.844971418381,1.68007910252,-1.70061814785,-0.569525897503,0.462304204702,-2.5696182251,0.0195294117647,0.0,0.0,0.0,0.0,0.0,0.0,0.0,0.0,0.0,0.0,0.0,0.0,0.0,0.0,0.0
5.666844,-2.16369462013,0.845432817936,1.68008434772,-1.70061540604,-0.569523990154,0.462304204702,-2.56961989403,0.0195294117647,0.0,0.0,0.0,0.0,0.0,0.0,0.0,0.0,0.0,0.0,0.0,0.0,0.0,0.0,0.0
5.700146,-2.16353750229,0.845836818218,1.68008923531,-1.70060026646,-0.569525897503,0.462304204702,-2.56963896751,0.0195294117647,0.0,0.0,0.0,0.0,0.0,0.0,0.0,0.0,0.0,0.0,0.0,0.0,0.0,0.0,0.0
5.733513,-2.1631770134,0.8462266922,1.68008923531,-1.70058345795,-0.569530069828,0.462304204702,-2.5700378418,0.0195294117647,0.0,0.0,0.0,0.0,0.0,0.0,0.0,0.0,0.0,0.0,0.0,0.0,0.0,0.0,0.0
5.766821,-2.16287279129,0.846493780613,1.68008923531,-1.70058345795,-0.569530069828,0.462304204702,-2.57028841972,0.0195294117647,0.0,0.0,0.0,0.0,0.0,0.0,0.0,0.0,0.0,0.0,0.0,0.0,0.0,0.0,0.0
5.800122,-2.1619284153,0.847212255001,1.68008923531,-1.70058107376,-0.569536149502,0.462302446365,-2.57050967216,0.0195294117647,0.0,0.0,0.0,0.0,0.0,0.0,0.0,0.0,0.0,0.0,0.0,0.0,0.0,0.0,0.0
5.833476,-2.16096043587,0.848037958145,1.68008923531,-1.70058107376,-0.569544434547,0.462276905775,-2.571423769,0.0195294117647,0.0,0.0,0.0,0.0,0.0,0.0,0.0,0.0,0.0,0.0,0.0,0.0,0.0,0.0,0.0
5.866822,-2.15956234932,0.849130988121,1.68008923531,-1.70057976246,-0.569548487663,0.461944520473,-2.57293820381,0.0195294117647,0.0,0.0,0.0,0.0,0.0,0.0,0.0,0.0,0.0,0.0,0.0,0.0,0.0,0.0,0.0
5.900130,-2.15694522858,0.850872039795,1.68008923531,-1.70058345795,-0.569560825825,0.460408836603,-2.57604932785,0.0195294117647,0.0,0.0,0.0,0.0,0.0,0.0,0.0,0.0,0.0,0.0,0.0,0.0,0.0,0.0,0.0
5.933483,-2.15439248085,0.852421402931,1.68008923531,-1.70050156116,-0.569562792778,0.45887491107,-2.57761716843,0.0195294117647,0.0,0.0,0.0,0.0,0.0,0.0,0.0,0.0,0.0,0.0,0.0,0.0,0.0,0.0,0.0
5.966890,-2.15131545067,0.854306936264,1.68008804321,-1.70033180714,-0.569575130939,0.456976175308,-2.57858037949,0.0195294117647,0.0,0.0,0.0,0.0,0.0,0.0,0.0,0.0,0.0,0.0,0.0,0.0,0.0,0.0,0.0
6.000158,-2.1466562748,0.857371091843,1.68008434772,-1.69988155365,-0.5696220994,0.452314585447,-2.58017730713,0.0195294117647,0.0,0.0,0.0,0.0,0.0,0.0,0.0,0.0,0.0,0.0,0.0,0.0,0.0,0.0,0.0
6.033498,-2.14287996292,0.860139906406,1.68001508713,-1.69936418533,-0.569875717163,0.446352481842,-2.58329987526,0.0195294117647,0.0,0.0,0.0,0.0,0.0,0.0,0.0,0.0,0.0,0.0,0.0,0.0,0.0,0.0,0.0
6.066821,-2.13873171806,0.863400816917,1.67962539196,-1.69853711128,-0.570329785347,0.438839375973,-2.5893933773,0.0195294117647,0.0,0.0,0.0,0.0,0.0,0.0,0.0,0.0,0.0,0.0,0.0,0.0,0.0,0.0,0.0
6.100214,-2.1326611042,0.868286550045,1.67839431763,-1.6968023777,-0.571444511414,0.426818072796,-2.60082817078,0.0195294117647,0.0,0.0,0.0,0.0,0.0,0.0,0.0,0.0,0.0,0.0,0.0,0.0,0.0,0.0,0.0
6.133508,-2.12763237953,0.872340023518,1.67690384388,-1.69517505169,-0.57281690836,0.416463762522,-2.61240792274,0.0195294117647,0.0,0.0,0.0,0.0,0.0,0.0,0.0,0.0,0.0,0.0,0.0,0.0,0.0,0.0,0.0
6.166860,-2.12249875069,0.876867949963,1.67488276958,-1.69276416302,-0.574191391468,0.405490636826,-2.62347173691,0.0195294117647,0.0,0.0,0.0,0.0,0.0,0.0,0.0,0.0,0.0,0.0,0.0,0.0,0.0,0.0,0.0
6.200143,-2.11560606956,0.883639156818,1.67133927345,-1.68888831139,-0.574954211712,0.392511487007,-2.63564252853,0.0195294117647,0.0,0.0,0.0,0.0,0.0,0.0,0.0,0.0,0.0,0.0,0.0,0.0,0.0,0.0,0.0
6.233495,-2.1104388237,0.888994038105,1.66897952557,-1.68583571911,-0.574976801872,0.384776800871,-2.64212799072,0.0195294117647,0.0,0.0,0.0,0.0,0.0,0.0,0.0,0.0,0.0,0.0,0.0,0.0,0.0,0.0,0.0
6.266840,-2.10546755791,0.89469408989,1.66699814796,-1.68276381493,-0.57497882843,0.380551546812,-2.64702320099,0.0195294117647,0.0,0.0,0.0,0.0,0.0,0.0,0.0,0.0,0.0,0.0,0.0,0.0,0.0,0.0,0.0
6.300143,-2.09965634346,0.902813911438,1.664539814,-1.67864131927,-0.574982881546,0.38032656908,-2.65037226677,0.0195294117647,0.0,0.0,0.0,0.0,0.0,0.0,0.0,0.0,0.0,0.0,0.0,0.0,0.0,0.0,0.0
6.333499,-2.09588265419,0.908887207508,1.66325378418,-1.67635679245,-0.574982881546,0.380379408598,-2.65050673485,0.0195294117647,0.0,0.0,0.0,0.0,0.0,0.0,0.0,0.0,0.0,0.0,0.0,0.0,0.0,0.0,0.0
6.366823,-2.09264588356,0.915078043938,1.66210210323,-1.67483961582,-0.575001239777,0.380423694849,-2.65050673485,0.0195294117647,0.0,0.0,0.0,0.0,0.0,0.0,0.0,0.0,0.0,0.0,0.0,0.0,0.0,0.0,0.0
6.400119,-2.08905529976,0.923417747021,1.66081869602,-1.67414283752,-0.575124025345,0.380437344313,-2.65050673485,0.0195294117647,0.0,0.0,0.0,0.0,0.0,0.0,0.0,0.0,0.0,0.0,0.0,0.0,0.0,0.0,0.0
6.433509,-2.08689880371,0.929571628571,1.66051435471,-1.67415559292,-0.575124025345,0.380437344313,-2.65050530434,0.0195294117647,0.0,0.0,0.0,0.0,0.0,0.0,0.0,0.0,0.0,0.0,0.0,0.0,0.0,0.0,0.0
6.466834,-2.08498382568,0.935611665249,1.66061162949,-1.67415452003,-0.575124025345,0.380437344313,-2.65050673485,0.0195294117647,0.0,0.0,0.0,0.0,0.0,0.0,0.0,0.0,0.0,0.0,0.0,0.0,0.0,0.0,0.0
6.500143,-2.08291697502,0.942958235741,1.66064870358,-1.67416453362,-0.575580060482,0.380439072847,-2.65051555634,0.0195294117647,0.0,0.0,0.0,0.0,0.0,0.0,0.0,0.0,0.0,0.0,0.0,0.0,0.0,0.0,0.0
6.533516,-2.08170604706,0.947897613049,1.66064357758,-1.67416214943,-0.577467858791,0.380440741777,-2.65053582191,0.0195294117647,0.0,0.0,0.0,0.0,0.0,0.0,0.0,0.0,0.0,0.0,0.0,0.0,0.0,0.0,0.0
6.566830,-2.08084702492,0.952375471592,1.66064620018,-1.67402017117,-0.580854952335,0.380439072847,-2.65053892136,0.0195294117647,0.0,0.0,0.0,0.0,0.0,0.0,0.0,0.0,0.0,0.0,0.0,0.0,0.0,0.0,0.0
6.600186,-2.0802488327,0.956245005131,1.66064500809,-1.67385005951,-0.586166620255,0.380439072847,-2.65090250969,0.0195294117647,0.0,0.0,0.0,0.0,0.0,0.0,0.0,0.0,0.0,0.0,0.0,0.0,0.0,0.0,0.0
6.633484,-2.08000850677,0.960665524006,1.66064226627,-1.67368257046,-0.59730130434,0.380439072847,-2.65260982513,0.0195294117647,0.0,0.0,0.0,0.0,0.0,0.0,0.0,0.0,0.0,0.0,0.0,0.0,0.0,0.0,0.0
6.666810,-2.08004164696,0.963426589966,1.66064357758,-1.6732609272,-0.608327567577,0.380439072847,-2.65331721306,0.0195294117647,0.0,0.0,0.0,0.0,0.0,0.0,0.0,0.0,0.0,0.0,0.0,0.0,0.0,0.0,0.0
6.700144,-2.08004164696,0.966089308262,1.66065764427,-1.67183303833,-0.625056147575,0.380437344313,-2.65331912041,0.0195294117647,0.0,0.0,0.0,0.0,0.0,0.0,0.0,0.0,0.0,0.0,0.0,0.0,0.0,0.0,0.0
6.733456,-2.08008003235,0.967276871204,1.6606014967,-1.67048048973,-0.638986706734,0.380447566509,-2.65331721306,0.0195294117647,0.0,0.0,0.0,0.0,0.0,0.0,0.0,0.0,0.0,0.0,0.0,0.0,0.0,0.0,0.0
6.766838,-2.08018231392,0.968330264091,1.66025626659,-1.66903090477,-0.653596282005,0.380452692509,-2.65330910683,0.0195294117647,0.0,0.0,0.0,0.0,0.0,0.0,0.0,0.0,0.0,0.0,0.0,0.0,0.0,0.0,0.0
6.800140,-2.08042144775,0.969699323177,1.65979611874,-1.66667747498,-0.669412612915,0.380450963974,-2.6533074379,0.0195294117647,0.0,0.0,0.0,0.0,0.0,0.0,0.0,0.0,0.0,0.0,0.0,0.0,0.0,0.0,0.0
6.833512,-2.08068084717,0.970660626888,1.65976917744,-1.66456699371,-0.676959812641,0.380450963974,-2.65330576897,0.0195294117647,0.0,0.0,0.0,0.0,0.0,0.0,0.0,0.0,0.0,0.0,0.0,0.0,0.0,0.0,0.0
6.866837,-2.08085489273,0.971509456635,1.65974867344,-1.66210377216,-0.680154621601,0.380450963974,-2.65330576897,0.0195294117647,0.0,0.0,0.0,0.0,0.0,0.0,0.0,0.0,0.0,0.0,0.0,0.0,0.0,0.0,0.0
6.900155,-2.08086633682,0.972341537476,1.65942037106,-1.65976810455,-0.6804921031,0.380452692509,-2.65330576897,0.0195294117647,0.0,0.0,0.0,0.0,0.0,0.0,0.0,0.0,0.0,0.0,0.0,0.0,0.0,0.0,0.0
6.933528,-2.08080601692,0.973007559776,1.65908646584,-1.65800535679,-0.680485904217,0.380454421043,-2.65330576897,0.0195294117647,0.0,0.0,0.0,0.0,0.0,0.0,0.0,0.0,0.0,0.0,0.0,0.0,0.0,0.0,0.0
6.966885,-2.08065795898,0.973688900471,1.65839648247,-1.65687525272,-0.680485904217,0.380454421043,-2.65330576897,0.0195294117647,0.0,0.0,0.0,0.0,0.0,0.0,0.0,0.0,0.0,0.0,0.0,0.0,0.0,0.0,0.0
7.000153,-2.08028078079,0.974039196968,1.65752184391,-1.65683579445,-0.680487990379,0.380454421043,-2.65330576897,0.0195294117647,0.0,0.0,0.0,0.0,0.0,0.0,0.0,0.0,0.0,0.0,0.0,0.0,0.0,0.0,0.0
7.033503,-2.07966589928,0.97404050827,1.65642118454,-1.65687024593,-0.680487990379,0.380454421043,-2.65330576897,0.0195294117647,0.0,0.0,0.0,0.0,0.0,0.0,0.0,0.0,0.0,0.0,0.0,0.0,0.0,0.0,0.0
7.066837,-2.07879924774,0.974027633667,1.65496921539,-1.65686130524,-0.680504381657,0.380450963974,-2.6533074379,0.0195294117647,0.0,0.0,0.0,0.0,0.0,0.0,0.0,0.0,0.0,0.0,0.0,0.0,0.0,0.0,0.0
7.100146,-2.07727813721,0.974027633667,1.65280354023,-1.65683579445,-0.680800914764,0.380450963974,-2.65330576897,0.0195294117647,0.0,0.0,0.0,0.0,0.0,0.0,0.0,0.0,0.0,0.0,0.0,0.0,0.0,0.0,0.0
7.133496,-2.07650709152,0.974026322365,1.65179395676,-1.65674221516,-0.681029975414,0.380450963974,-2.65330576897,0.0195294117647,0.0,0.0,0.0,0.0,0.0,0.0,0.0,0.0,0.0,0.0,0.0,0.0,0.0,0.0,0.0
7.166832,-2.07484531403,0.974023878574,1.64989185333,-1.6562833786,-0.681864500046,0.380449265242,-2.6533074379,0.0195294117647,0.0,0.0,0.0,0.0,0.0,0.0,0.0,0.0,0.0,0.0,0.0,0.0,0.0,0.0,0.0
7.200139,-2.0729739666,0.974021315575,1.64787459373,-1.6553068161,-0.684862911701,0.380447566509,-2.6533074379,0.0195294117647,0.0,0.0,0.0,0.0,0.0,0.0,0.0,0.0,0.0,0.0,0.0,0.0,0.0,0.0,0.0
7.233477,-2.07087230682,0.974016129971,1.64595317841,-1.65371799469,-0.689920961857,0.380447566509,-2.65330576897,0.0195294117647,0.0,0.0,0.0,0.0,0.0,0.0,0.0,0.0,0.0,0.0,0.0,0.0,0.0,0.0,0.0
7.266816,-2.06978702545,0.974016129971,1.64512622356,-1.65262115002,-0.692878484726,0.380447566509,-2.65330576897,0.0195294117647,0.0,0.0,0.0,0.0,0.0,0.0,0.0,0.0,0.0,0.0,0.0,0.0,0.0,0.0,0.0
7.300138,-2.06753349304,0.97401368618,1.64371490479,-1.6500184536,-0.700057506561,0.380447566509,-2.65330576897,0.0195294117647,0.0,0.0,0.0,0.0,0.0,0.0,0.0,0.0,0.0,0.0,0.0,0.0,0.0,0.0,0.0
7.333485,-2.0654065609,0.974012374878,1.64248883724,-1.64718961716,-0.709216296673,0.380447566509,-2.65330576897,0.0195294117647,0.0,0.0,0.0,0.0,0.0,0.0,0.0,0.0,0.0,0.0,0.0,0.0,0.0,0.0,0.0
7.366825,-2.0639321804,0.974012374878,1.64170897007,-1.64503192902,-0.71693533659,0.380447566509,-2.65330576897,0.0195294117647,0.0,0.0,0.0,0.0,0.0,0.0,0.0,0.0,0.0,0.0,0.0,0.0,0.0,0.0,0.0
7.400141,-2.06259393692,0.974011003971,1.6410022974,-1.64288914204,-0.725323140621,0.380447566509,-2.65330576897,0.0195294117647,0.0,0.0,0.0,0.0,0.0,0.0,0.0,0.0,0.0,0.0,0.0,0.0,0.0,0.0,0.0
7.433466,-2.06124401093,0.974011003971,1.63996803761,-1.64085412025,-0.733907341957,0.380449265242,-2.65330576897,0.0195294117647,0.0,0.0,0.0,0.0,0.0,0.0,0.0,0.0,0.0,0.0,0.0,0.0,0.0,0.0,0.0
7.466832,-2.06004881859,0.974011003971,1.63879215717,-1.63886523247,-0.741595625877,0.380449265242,-2.65330576897,0.0195294117647,0.0,0.0,0.0,0.0,0.0,0.0,0.0,0.0,0.0,0.0,0.0,0.0,0.0,0.0,0.0
7.500139,-2.05849695206,0.974012374878,1.63713169098,-1.63630723953,-0.749603033066,0.380449265242,-2.65330576897,0.0195294117647,0.0,0.0,0.0,0.0,0.0,0.0,0.0,0.0,0.0,0.0,0.0,0.0,0.0,0.0,0.0
7.533455,-2.05738139153,0.974012374878,1.63578557968,-1.63471961021,-0.754117071629,0.380449265242,-2.65330576897,0.0195294117647,0.0,0.0,0.0,0.0,0.0,0.0,0.0,0.0,0.0,0.0,0.0,0.0,0.0,0.0,0.0
7.566832,-2.05622172356,0.974012374878,1.63438057899,-1.63350880146,-0.756929278374,0.380449265242,-2.65330576897,0.0195294117647,0.0,0.0,0.0,0.0,0.0,0.0,0.0,0.0,0.0,0.0,0.0,0.0,0.0,0.0,0.0
7.600137,-2.05424165726,0.974012374878,1.63220596313,-1.63236355782,-0.758612513542,0.380449265242,-2.65330576897,0.0195294117647,0.0,0.0,0.0,0.0,0.0,0.0,0.0,0.0,0.0,0.0,0.0,0.0,0.0,0.0,0.0
7.633510,-2.05224728584,0.974012374878,1.63028752804,-1.6317807436,-0.758765935898,0.380449265242,-2.65330576897,0.0195294117647,0.0,0.0,0.0,0.0,0.0,0.0,0.0,0.0,0.0,0.0,0.0,0.0,0.0,0.0,0.0
7.666850,-2.04979276657,0.974012374878,1.62819492817,-1.63134610653,-0.758768081665,0.380449265242,-2.65330576897,0.0195294117647,0.0,0.0,0.0,0.0,0.0,0.0,0.0,0.0,0.0,0.0,0.0,0.0,0.0,0.0,0.0
7.700141,-2.04586362839,0.974012374878,1.62479460239,-1.63048446178,-0.758778274059,0.380449265242,-2.65330576897,0.0195294117647,0.0,0.0,0.0,0.0,0.0,0.0,0.0,0.0,0.0,0.0,0.0,0.0,0.0,0.0,0.0
7.733472,-2.04233932495,0.974012374878,1.6214376688,-1.62919592857,-0.758784413338,0.380447566509,-2.65330576897,0.0195294117647,0.0,0.0,0.0,0.0,0.0,0.0,0.0,0.0,0.0,0.0,0.0,0.0,0.0,0.0,0.0
7.771592,-2.03688311577,0.974012374878,1.61589479446,-1.62629425526,-0.758790493011,0.380445867777,-2.65330576897,0.0195294117647,0.0,0.0,0.0,0.0,0.0,0.0,0.0,0.0,0.0,0.0,0.0,0.0,0.0,0.0,0.0
7.800138,-2.03197956085,0.974012374878,1.61128783226,-1.62323379517,-0.758792579174,0.380439072847,-2.65330576897,0.0195294117647,0.0,0.0,0.0,0.0,0.0,0.0,0.0,0.0,0.0,0.0,0.0,0.0,0.0,0.0,0.0
7.833492,-2.02657485008,0.974012374878,1.60643005371,-1.61911249161,-0.758794605732,0.380439072847,-2.65330576897,0.0195294117647,0.0,0.0,0.0,0.0,0.0,0.0,0.0,0.0,0.0,0.0,0.0,0.0,0.0,0.0,0.0
7.866845,-2.02105116844,0.97401368618,1.60141539574,-1.61401212215,-0.75879663229,0.380439072847,-2.65330576897,0.0195294117647,0.0,0.0,0.0,0.0,0.0,0.0,0.0,0.0,0.0,0.0,0.0,0.0,0.0,0.0,0.0
7.900119,-2.01333165169,0.974016129971,1.59482944012,-1.60666179657,-0.75879663229,0.380437344313,-2.65330576897,0.0194117647059,0.0,0.0,0.0,0.0,0.0,0.0,0.0,0.0,0.0,0.0,0.0,0.0,0.0,0.0,0.0
7.933480,-2.00743842125,0.974029004574,1.59041404724,-1.60120201111,-0.758798778057,0.380439072847,-2.65330576897,0.0195294117647,0.0,0.0,0.0,0.0,0.0,0.0,0.0,0.0,0.0,0.0,0.0,0.0,0.0,0.0,0.0
7.966837,-2.00191879272,0.974021315575,1.58671212196,-1.59571421146,-0.758802831173,0.380440741777,-2.65330576897,0.0195294117647,0.0,0.0,0.0,0.0,0.0,0.0,0.0,0.0,0.0,0.0,0.0,0.0,0.0,0.0,0.0
8.000124,-1.99507582188,0.974025130272,1.58304321766,-1.58901321888,-0.758804798126,0.380440741777,-2.65330576897,0.0195294117647,0.0,0.0,0.0,0.0,0.0,0.0,0.0,0.0,0.0,0.0,0.0,0.0,0.0,0.0,0.0
8.033493,-1.99025392532,0.974026322365,1.58105695248,-1.58452379704,-0.758806884289,0.380440741777,-2.65330576897,0.0195294117647,0.0,0.0,0.0,0.0,0.0,0.0,0.0,0.0,0.0,0.0,0.0,0.0,0.0,0.0,0.0
8.066816,-1.98604953289,0.974026322365,1.57954835892,-1.5803232193,-0.758808970451,0.380440741777,-2.65330576897,0.0195294117647,0.0,0.0,0.0,0.0,0.0,0.0,0.0,0.0,0.0,0.0,0.0,0.0,0.0,0.0,0.0
8.101667,-1.98248302937,0.974026322365,1.57844901085,-1.57632982731,-0.758810937405,0.380440741777,-2.65330576897,0.0195294117647,0.0,0.0,0.0,0.0,0.0,0.0,0.0,0.0,0.0,0.0,0.0,0.0,0.0,0.0,0.0
8.133486,-1.97854197025,0.974027633667,1.57707488537,-1.5714122057,-0.758817076683,0.380440741777,-2.65330576897,0.0195294117647,0.0,0.0,0.0,0.0,0.0,0.0,0.0,0.0,0.0,0.0,0.0,0.0,0.0,0.0,0.0
8.166838,-1.97621798515,0.974025130272,1.57615578175,-1.5683811903,-0.758827328682,0.38044244051,-2.65330576897,0.0195294117647,0.0,0.0,0.0,0.0,0.0,0.0,0.0,0.0,0.0,0.0,0.0,0.0,0.0,0.0,0.0
8.200137,-1.97415482998,0.974022507668,1.57528650761,-1.56534516811,-0.758860111237,0.38044244051,-2.65330576897,0.0195294117647,0.0,0.0,0.0,0.0,0.0,0.0,0.0,0.0,0.0,0.0,0.0,0.0,0.0,0.0,0.0
8.233492,-1.97331237793,0.974022507668,1.574644804,-1.56383812428,-0.758958220482,0.38044244051,-2.65330576897,0.0195294117647,0.0,0.0,0.0,0.0,0.0,0.0,0.0,0.0,0.0,0.0,0.0,0.0,0.0,0.0,0.0
8.266831,-1.97306704521,0.974022507668,1.57394182682,-1.56287682056,-0.759134054184,0.380444139242,-2.65330576897,0.0195294117647,0.0,0.0,0.0,0.0,0.0,0.0,0.0,0.0,0.0,0.0,0.0,0.0,0.0,0.0,0.0
8.300143,-1.97321021557,0.974021315575,1.57296252251,-1.56242573261,-0.760093390942,0.380444139242,-2.65330576897,0.0195294117647,0.0,0.0,0.0,0.0,0.0,0.0,0.0,0.0,0.0,0.0,0.0,0.0,0.0,0.0,0.0
8.333486,-1.97327029705,0.974021315575,1.57204973698,-1.56222105026,-0.761081218719,0.380444139242,-2.65330576897,0.0195294117647,0.0,0.0,0.0,0.0,0.0,0.0,0.0,0.0,0.0,0.0,0.0,0.0,0.0,0.0,0.0
8.366855,-1.97326636314,0.974021315575,1.57116651535,-1.56204211712,-0.762054800987,0.380444139242,-2.65330576897,0.0195294117647,0.0,0.0,0.0,0.0,0.0,0.0,0.0,0.0,0.0,0.0,0.0,0.0,0.0,0.0,0.0
8.400167,-1.97328174114,0.974021315575,1.57051837444,-1.56183123589,-0.762447476387,0.380444139242,-2.65330576897,0.0195294117647,0.0,0.0,0.0,0.0,0.0,0.0,0.0,0.0,0.0,0.0,0.0,0.0,0.0,0.0,0.0
8.433506,-1.97328054905,0.974021315575,1.57033574581,-1.56157803535,-0.762445509434,0.380444139242,-2.65330576897,0.0195294117647,0.0,0.0,0.0,0.0,0.0,0.0,0.0,0.0,0.0,0.0,0.0,0.0,0.0,0.0,0.0
8.466836,-1.97328305244,0.974021315575,1.57032799721,-1.56130325794,-0.762445509434,0.380444139242,-2.65330576897,0.0195294117647,0.0,0.0,0.0,0.0,0.0,0.0,0.0,0.0,0.0,0.0,0.0,0.0,0.0,0.0,0.0
8.500140,-1.97328174114,0.974012374878,1.5703690052,-1.56117677689,-0.762443423271,0.380444139242,-2.65330576897,0.0195294117647,0.0,0.0,0.0,0.0,0.0,0.0,0.0,0.0,0.0,0.0,0.0,0.0,0.0,0.0,0.0
8.533468,-1.97328174114,0.974008560181,1.5703779459,-1.56106936932,-0.762443423271,0.380444139242,-2.65330576897,0.0195294117647,0.0,0.0,0.0,0.0,0.0,0.0,0.0,0.0,0.0,0.0,0.0,0.0,0.0,0.0,0.0
8.566815,-1.97328805923,0.974008560181,1.57037508488,-1.56093001366,-0.762443423271,0.380444139242,-2.65330576897,0.0195294117647,0.0,0.0,0.0,0.0,0.0,0.0,0.0,0.0,0.0,0.0,0.0,0.0,0.0,0.0,0.0
8.600138,-1.9733992815,0.974008560181,1.57037389278,-1.56066024303,-0.762441396713,0.380444139242,-2.65330576897,0.0195294117647,0.0,0.0,0.0,0.0,0.0,0.0,0.0,0.0,0.0,0.0,0.0,0.0,0.0,0.0,0.0
8.633509,-1.97364079952,0.974008560181,1.57037508488,-1.5604467392,-0.762439370155,0.380444139242,-2.65330576897,0.0195294117647,0.0,0.0,0.0,0.0,0.0,0.0,0.0,0.0,0.0,0.0,0.0,0.0,0.0,0.0,0.0
8.666941,-1.97408187389,0.974008560181,1.57037508488,-1.56026792526,-0.762437283993,0.380444139242,-2.65330576897,0.0195294117647,0.0,0.0,0.0,0.0,0.0,0.0,0.0,0.0,0.0,0.0,0.0,0.0,0.0,0.0,0.0
8.700157,-1.97489631176,0.974008560181,1.57037508488,-1.56005048752,-0.762437283993,0.380444139242,-2.65330576897,0.0195294117647,0.0,0.0,0.0,0.0,0.0,0.0,0.0,0.0,0.0,0.0,0.0,0.0,0.0,0.0,0.0
8.733476,-1.97560441494,0.974008560181,1.57037508488,-1.55995202065,-0.762435317039,0.380444139242,-2.65330576897,0.0195294117647,0.0,0.0,0.0,0.0,0.0,0.0,0.0,0.0,0.0,0.0,0.0,0.0,0.0,0.0,0.0
8.766855,-1.97632920742,0.974008560181,1.57038676739,-1.55995845795,-0.762433171272,0.380444139242,-2.65330576897,0.0195294117647,0.0,0.0,0.0,0.0,0.0,0.0,0.0,0.0,0.0,0.0,0.0,0.0,0.0,0.0,0.0
8.800137,-1.97720110416,0.974008560181,1.57039582729,-1.55996489525,-0.762429118156,0.380445867777,-2.65330576897,0.0195294117647,0.0,0.0,0.0,0.0,0.0,0.0,0.0,0.0,0.0,0.0,0.0,0.0,0.0,0.0,0.0
8.833545,-1.97783124447,0.974007248878,1.57041752338,-1.55996751785,-0.762427091599,0.380445867777,-2.65330576897,0.0195294117647,0.0,0.0,0.0,0.0,0.0,0.0,0.0,0.0,0.0,0.0,0.0,0.0,0.0,0.0,0.0
8.866856,-1.97841799259,0.974004685879,1.57052981853,-1.55996990204,-0.762422978878,0.380447566509,-2.65330576897,0.0195294117647,0.0,0.0,0.0,0.0,0.0,0.0,0.0,0.0,0.0,0.0,0.0,0.0,0.0,0.0,0.0
8.900139,-1.9790802002,0.974000811577,1.57075750828,-1.55999040604,-0.762412786484,0.380449265242,-2.65330576897,0.0195294117647,0.0,0.0,0.0,0.0,0.0,0.0,0.0,0.0,0.0,0.0,0.0,0.0,0.0,0.0,0.0
8.933495,-1.97948813438,0.974000811577,1.57096970081,-1.56000304222,-0.762408614159,0.380450963974,-2.65330576897,0.0195294117647,0.0,0.0,0.0,0.0,0.0,0.0,0.0,0.0,0.0,0.0,0.0,0.0,0.0,0.0,0.0
8.966846,-1.97989463806,0.974000811577,1.57124185562,-1.56002485752,-0.762404561043,0.380452692509,-2.65330576897,0.0195294117647,0.0,0.0,0.0,0.0,0.0,0.0,0.0,0.0,0.0,0.0,0.0,0.0,0.0,0.0,0.0
9.000181,-1.98036360741,0.973999559879,1.5716496706,-1.56005680561,-0.762400567532,0.380456089973,-2.65330576897,0.0195294117647,0.0,0.0,0.0,0.0,0.0,0.0,0.0,0.0,0.0,0.0,0.0,0.0,0.0,0.0,0.0
9.033461,-1.98098862171,0.973995685577,1.57235276699,-1.56014883518,-0.762398421764,0.380468040705,-2.65330576897,0.0195294117647,0.0,0.0,0.0,0.0,0.0,0.0,0.0,0.0,0.0,0.0,0.0,0.0,0.0,0.0,0.0
9.066831,-1.98146426678,0.97399443388,1.5729830265,-1.56023061275,-0.762394368649,0.380478262901,-2.65330576897,0.0195294117647,0.0,0.0,0.0,0.0,0.0,0.0,0.0,0.0,0.0,0.0,0.0,0.0,0.0,0.0,0.0
9.100146,-1.98225808144,0.973993241787,1.57397997379,-1.56036114693,-0.762388169765,0.380491882563,-2.65330576897,0.0195294117647,0.0,0.0,0.0,0.0,0.0,0.0,0.0,0.0,0.0,0.0,0.0,0.0,0.0,0.0,0.0
9.133510,-1.98298418522,0.973993241787,1.57482123375,-1.56050431728,-0.762382149696,0.380534499884,-2.65330576897,0.0195294117647,0.0,0.0,0.0,0.0,0.0,0.0,0.0,0.0,0.0,0.0,0.0,0.0,0.0,0.0,0.0
9.166838,-1.98383033276,0.97399187088,1.57579278946,-1.56074965,-0.762375950813,0.380664020777,-2.65330576897,0.0195294117647,0.0,0.0,0.0,0.0,0.0,0.0,0.0,0.0,0.0,0.0,0.0,0.0,0.0,0.0,0.0
9.200134,-1.98529422283,0.973988115788,1.57736122608,-1.5614426136,-0.762371838093,0.380906105042,-2.65330576897,0.0195294117647,0.0,0.0,0.0,0.0,0.0,0.0,0.0,0.0,0.0,0.0,0.0,0.0,0.0,0.0,0.0
9.233502,-1.9867169857,0.973986804485,1.57871615887,-1.56227862835,-0.76236987114,0.381209462881,-2.65330576897,0.0195294117647,0.0,0.0,0.0,0.0,0.0,0.0,0.0,0.0,0.0,0.0,0.0,0.0,0.0,0.0,0.0
9.266829,-1.98843479156,0.973986804485,1.58007907867,-1.56325399876,-0.762365698814,0.381667912006,-2.65330576897,0.0195294117647,0.0,0.0,0.0,0.0,0.0,0.0,0.0,0.0,0.0,0.0,0.0,0.0,0.0,0.0,0.0
9.300121,-1.99138784409,0.973985433578,1.58210897446,-1.56489014626,-0.762361705303,0.382409393787,-2.65330576897,0.0195294117647,0.0,0.0,0.0,0.0,0.0,0.0,0.0,0.0,0.0,0.0,0.0,0.0,0.0,0.0,0.0
9.333456,-1.99412465096,0.973984241486,1.58371448517,-1.56635391712,-0.762359619141,0.383292287588,-2.65330576897,0.0195294117647,0.0,0.0,0.0,0.0,0.0,0.0,0.0,0.0,0.0,0.0,0.0,0.0,0.0,0.0,0.0
9.366856,-1.99730920792,0.973977863789,1.58537113667,-1.56795704365,-0.76235550642,0.384631931782,-2.65330576897,0.0195294117647,0.0,0.0,0.0,0.0,0.0,0.0,0.0,0.0,0.0,0.0,0.0,0.0,0.0,0.0,0.0
9.400130,-2.0023226738,0.973972797394,1.58786380291,-1.57069373131,-0.762349426746,0.386135220528,-2.65330576897,0.0195294117647,0.0,0.0,0.0,0.0,0.0,0.0,0.0,0.0,0.0,0.0,0.0,0.0,0.0,0.0,0.0
9.433450,-2.00669050217,0.973971486092,1.59010481834,-1.57319927216,-0.762345314026,0.386794805527,-2.65330576897,0.0195294117647,0.0,0.0,0.0,0.0,0.0,0.0,0.0,0.0,0.0,0.0,0.0,0.0,0.0,0.0,0.0
9.466889,-2.01174879074,0.973968803883,1.59250795841,-1.57608962059,-0.762341201305,0.387306213379,-2.65330576897,0.0195294117647,0.0,0.0,0.0,0.0,0.0,0.0,0.0,0.0,0.0,0.0,0.0,0.0,0.0,0.0,0.0
9.500141,-2.01934599876,0.973958611488,1.59608733654,-1.58058547974,-0.76233702898,0.387860149145,-2.65330576897,0.0195294117647,0.0,0.0,0.0,0.0,0.0,0.0,0.0,0.0,0.0,0.0,0.0,0.0,0.0,0.0,0.0
9.533475,-2.02524280548,0.973952293396,1.59892773628,-1.58443045616,-0.762335062027,0.387919783592,-2.65330576897,0.0195294117647,0.0,0.0,0.0,0.0,0.0,0.0,0.0,0.0,0.0,0.0,0.0,0.0,0.0,0.0,0.0
9.566859,-2.03158068657,0.973951041698,1.60182309151,-1.58836019039,-0.762332975864,0.387926548719,-2.65330576897,0.0195294117647,0.0,0.0,0.0,0.0,0.0,0.0,0.0,0.0,0.0,0.0,0.0,0.0,0.0,0.0,0.0
9.600164,-2.03824830055,0.973949670792,1.60468006134,-1.59236514568,-0.762332975864,0.387926548719,-2.65330576897,0.0195294117647,0.0,0.0,0.0,0.0,0.0,0.0,0.0,0.0,0.0,0.0,0.0,0.0,0.0,0.0,0.0
9.634822,-2.04696416855,0.973949670792,1.608517766,-1.59772229195,-0.762328922749,0.387928307056,-2.65330576897,0.0195294117647,0.0,0.0,0.0,0.0,0.0,0.0,0.0,0.0,0.0,0.0,0.0,0.0,0.0,0.0,0.0
9.666850,-2.05383110046,0.973945915699,1.61138737202,-1.60138094425,-0.762328922749,0.387930035591,-2.65330576897,0.0195294117647,0.0,0.0,0.0,0.0,0.0,0.0,0.0,0.0,0.0,0.0,0.0,0.0,0.0,0.0,0.0
9.700136,-2.06272959709,0.973931789398,1.61554443836,-1.60631513596,-0.762328922749,0.387933403254,-2.65330576897,0.0195294117647,0.0,0.0,0.0,0.0,0.0,0.0,0.0,0.0,0.0,0.0,0.0,0.0,0.0,0.0,0.0
9.733495,-2.0692512989,0.973931789398,1.61857032776,-1.60997378826,-0.762328922749,0.387933403254,-2.65330576897,0.0195294117647,0.0,0.0,0.0,0.0,0.0,0.0,0.0,0.0,0.0,0.0,0.0,0.0,0.0,0.0,0.0
9.766829,-2.07569932938,0.973931789398,1.62137377262,-1.61356985569,-0.762328922749,0.387935131788,-2.65330576897,0.0195294117647,0.0,0.0,0.0,0.0,0.0,0.0,0.0,0.0,0.0,0.0,0.0,0.0,0.0,0.0,0.0
9.800152,-2.08352661133,0.973930597305,1.62483274937,-1.61837363243,-0.762328922749,0.387935131788,-2.65330576897,0.0195294117647,0.0,0.0,0.0,0.0,0.0,0.0,0.0,0.0,0.0,0.0,0.0,0.0,0.0,0.0,0.0
9.833491,-2.08904123306,0.973931789398,1.62734723091,-1.62169742584,-0.762328922749,0.387935131788,-2.65330576897,0.0195294117647,0.0,0.0,0.0,0.0,0.0,0.0,0.0,0.0,0.0,0.0,0.0,0.0,0.0,0.0,0.0
9.866835,-2.09593367577,0.973926723003,1.6307195425,-1.62538015842,-0.762324810028,0.387933403254,-2.65330576897,0.0195294117647,0.0,0.0,0.0,0.0,0.0,0.0,0.0,0.0,0.0,0.0,0.0,0.0,0.0,0.0,0.0
9.900136,-2.10058808327,0.973924100399,1.63348579407,-1.62761461735,-0.762322723866,0.387933403254,-2.65330576897,0.0195294117647,0.0,0.0,0.0,0.0,0.0,0.0,0.0,0.0,0.0,0.0,0.0,0.0,0.0,0.0,0.0
9.933477,-2.10482573509,0.973925471306,1.63614082336,-1.62930715084,-0.762320816517,0.387933403254,-2.65330576897,0.0195294117647,0.0,0.0,0.0,0.0,0.0,0.0,0.0,0.0,0.0,0.0,0.0,0.0,0.0,0.0,0.0
9.966840,-2.10885477066,0.973924100399,1.63862717152,-1.63036549091,-0.762320816517,0.387933403254,-2.65330576897,0.0195294117647,0.0,0.0,0.0,0.0,0.0,0.0,0.0,0.0,0.0,0.0,0.0,0.0,0.0,0.0,0.0
10.000140,-2.11398482323,0.973925471306,1.64151751995,-1.63101625443,-0.762318730354,0.387935131788,-2.65330576897,0.0195294117647,0.0,0.0,0.0,0.0,0.0,0.0,0.0,0.0,0.0,0.0,0.0,0.0,0.0,0.0,0.0
10.033469,-2.11743378639,0.973925471306,1.64331972599,-1.63105845451,-0.762318730354,0.387933403254,-2.65330576897,0.0195294117647,0.0,0.0,0.0,0.0,0.0,0.0,0.0,0.0,0.0,0.0,0.0,0.0,0.0,0.0,0.0
10.066822,-2.12065410614,0.973925471306,1.64504301548,-1.63100731373,-0.762318730354,0.387933403254,-2.65330576897,0.0195294117647,0.0,0.0,0.0,0.0,0.0,0.0,0.0,0.0,0.0,0.0,0.0,0.0,0.0,0.0,0.0
10.100160,-2.12484431267,0.973925471306,1.64699745178,-1.63100600243,-0.762318730354,0.387933403254,-2.65330576897,0.0195294117647,0.0,0.0,0.0,0.0,0.0,0.0,0.0,0.0,0.0,0.0,0.0,0.0,0.0,0.0,0.0
10.133480,-2.12787127495,0.973925471306,1.64824402332,-1.63100218773,-0.762316584587,0.387933403254,-2.65330576897,0.0195294117647,0.0,0.0,0.0,0.0,0.0,0.0,0.0,0.0,0.0,0.0,0.0,0.0,0.0,0.0,0.0
10.166830,-2.13087129593,0.973925471306,1.64924478531,-1.63100218773,-0.762316584587,0.387933403254,-2.65330576897,0.0195294117647,0.0,0.0,0.0,0.0,0.0,0.0,0.0,0.0,0.0,0.0,0.0,0.0,0.0,0.0,0.0
10.206569,-2.13465046883,0.973925471306,1.65027654171,-1.63100218773,-0.762316584587,0.387935131788,-2.65330576897,0.0195294117647,0.0,0.0,0.0,0.0,0.0,0.0,0.0,0.0,0.0,0.0,0.0,0.0,0.0,0.0,0.0
10.233512,-2.13729286194,0.973925471306,1.65081727505,-1.63100087643,-0.762316584587,0.387935131788,-2.65330576897,0.0195294117647,0.0,0.0,0.0,0.0,0.0,0.0,0.0,0.0,0.0,0.0,0.0,0.0,0.0,0.0,0.0
10.267709,-2.13978290558,0.973925471306,1.65114057064,-1.63100087643,-0.762316584587,0.387935131788,-2.65330576897,0.0195294117647,0.0,0.0,0.0,0.0,0.0,0.0,0.0,0.0,0.0,0.0,0.0,0.0,0.0,0.0,0.0
10.300140,-2.1428861618,0.973925471306,1.65122377872,-1.63100087643,-0.762316584587,0.387935131788,-2.65330576897,0.0195294117647,0.0,0.0,0.0,0.0,0.0,0.0,0.0,0.0,0.0,0.0,0.0,0.0,0.0,0.0,0.0
10.333497,-2.14514112473,0.973925471306,1.65120208263,-1.63099968433,-0.762318730354,0.387935131788,-2.65330576897,0.0195294117647,0.0,0.0,0.0,0.0,0.0,0.0,0.0,0.0,0.0,0.0,0.0,0.0,0.0,0.0,0.0
10.366830,-2.14733624458,0.973927915096,1.65118515491,-1.63099825382,-0.762318730354,0.387935131788,-2.65330576897,0.0195294117647,0.0,0.0,0.0,0.0,0.0,0.0,0.0,0.0,0.0,0.0,0.0,0.0,0.0,0.0,0.0
10.400143,-2.15015745163,0.973929286003,1.65118408203,-1.63094830513,-0.762318730354,0.387933403254,-2.65330576897,0.0195294117647,0.0,0.0,0.0,0.0,0.0,0.0,0.0,0.0,0.0,0.0,0.0,0.0,0.0,0.0,0.0
10.433521,-2.15212726593,0.973929286003,1.65118277073,-1.63086926937,-0.762318730354,0.387933403254,-2.65330576897,0.0195294117647,0.0,0.0,0.0,0.0,0.0,0.0,0.0,0.0,0.0,0.0,0.0,0.0,0.0,0.0,0.0
10.466877,-2.15392971039,0.973934412003,1.65115332603,-1.63069415092,-0.762320816517,0.387933403254,-2.65330576897,0.0195294117647,0.0,0.0,0.0,0.0,0.0,0.0,0.0,0.0,0.0,0.0,0.0,0.0,0.0,0.0,0.0
10.500147,-2.1559855938,0.97394323349,1.65113937855,-1.63031435013,-0.762320816517,0.387933403254,-2.65330576897,0.0195294117647,0.0,0.0,0.0,0.0,0.0,0.0,0.0,0.0,0.0,0.0,0.0,0.0,0.0,0.0,0.0
10.533818,-2.15728545189,0.973947107792,1.65112781525,-1.62982237339,-0.762320816517,0.387933403254,-2.65330576897,0.0195294117647,0.0,0.0,0.0,0.0,0.0,0.0,0.0,0.0,0.0,0.0,0.0,0.0,0.0,0.0,0.0
10.566830,-2.15838122368,0.973971486092,1.65105760098,-1.62912428379,-0.762322723866,0.387933403254,-2.65330576897,0.0195294117647,0.0,0.0,0.0,0.0,0.0,0.0,0.0,0.0,0.0,0.0,0.0,0.0,0.0,0.0,0.0
10.600174,-2.15948390961,0.974037885666,1.65071868896,-1.62759292126,-0.762324810028,0.387933403254,-2.65330576897,0.0195294117647,0.0,0.0,0.0,0.0,0.0,0.0,0.0,0.0,0.0,0.0,0.0,0.0,0.0,0.0,0.0
10.633502,-2.16001868248,0.97404050827,1.65025091171,-1.62597596645,-0.762326836586,0.387933403254,-2.65330576897,0.0195294117647,0.0,0.0,0.0,0.0,0.0,0.0,0.0,0.0,0.0,0.0,0.0,0.0,0.0,0.0,0.0
10.666838,-2.16029977798,0.97404050827,1.6496168375,-1.62408924103,-0.762328922749,0.387933403254,-2.65330576897,0.0195294117647,0.0,0.0,0.0,0.0,0.0,0.0,0.0,0.0,0.0,0.0,0.0,0.0,0.0,0.0,0.0
10.700119,-2.1602306366,0.97406733036,1.64851224422,-1.62116682529,-0.762332975864,0.387933403254,-2.65330576897,0.0195294117647,0.0,0.0,0.0,0.0,0.0,0.0,0.0,0.0,0.0,0.0,0.0,0.0,0.0,0.0,0.0
10.733541,-2.16007208824,0.974071204662,1.64747440815,-1.61886334419,-0.762335062027,0.387933403254,-2.65330576897,0.0195294117647,0.0,0.0,0.0,0.0,0.0,0.0,0.0,0.0,0.0,0.0,0.0,0.0,0.0,0.0,0.0
10.766854,-2.15990328789,0.974068522453,1.64637362957,-1.61669147015,-0.76233702898,0.387933403254,-2.65330576897,0.0195294117647,0.0,0.0,0.0,0.0,0.0,0.0,0.0,0.0,0.0,0.0,0.0,0.0,0.0,0.0,0.0
10.800137,-2.15978074074,0.974068522453,1.64474904537,-1.61407732964,-0.762343168259,0.387933403254,-2.65330576897,0.0195294117647,0.0,0.0,0.0,0.0,0.0,0.0,0.0,0.0,0.0,0.0,0.0,0.0,0.0,0.0,0.0
10.833510,-2.15977430344,0.974068522453,1.64344239235,-1.6125497818,-0.762347280979,0.387933403254,-2.65330576897,0.0195294117647,0.0,0.0,0.0,0.0,0.0,0.0,0.0,0.0,0.0,0.0,0.0,0.0,0.0,0.0,0.0
10.866831,-2.15977549553,0.97406733036,1.64204013348,-1.61130595207,-0.762349426746,0.387933403254,-2.65330576897,0.0195294117647,0.0,0.0,0.0,0.0,0.0,0.0,0.0,0.0,0.0,0.0,0.0,0.0,0.0,0.0,0.0
10.900133,-2.15976762772,0.974068522453,1.63993489742,-1.61005938053,-0.7623513937,0.387933403254,-2.65330576897,0.0195294117647,0.0,0.0,0.0,0.0,0.0,0.0,0.0,0.0,0.0,0.0,0.0,0.0,0.0,0.0,0.0
10.933514,-2.15970015526,0.974068522453,1.63819897175,-1.60935139656,-0.762353420258,0.387933403254,-2.65330576897,0.0195294117647,0.0,0.0,0.0,0.0,0.0,0.0,0.0,0.0,0.0,0.0,0.0,0.0,0.0,0.0,0.0
10.966846,-2.15958380699,0.974066078663,1.63628530502,-1.60868144035,-0.762353420258,0.387933403254,-2.65330576897,0.0195294117647,0.0,0.0,0.0,0.0,0.0,0.0,0.0,0.0,0.0,0.0,0.0,0.0,0.0,0.0,0.0
11.000142,-2.15928077698,0.974064767361,1.6333220005,-1.60759997368,-0.76235550642,0.387933403254,-2.65330576897,0.0195294117647,0.0,0.0,0.0,0.0,0.0,0.0,0.0,0.0,0.0,0.0,0.0,0.0,0.0,0.0,0.0
11.033485,-2.15893435478,0.974064767361,1.63069653511,-1.60661196709,-0.762357532978,0.387933403254,-2.65330576897,0.0195294117647,0.0,0.0,0.0,0.0,0.0,0.0,0.0,0.0,0.0,0.0,0.0,0.0,0.0,0.0,0.0
11.066828,-2.15850234032,0.974063515663,1.62789940834,-1.60547041893,-0.762359619141,0.387931674719,-2.65330576897,0.0195294117647,0.0,0.0,0.0,0.0,0.0,0.0,0.0,0.0,0.0,0.0,0.0,0.0,0.0,0.0,0.0
11.100176,-2.15787196159,0.974063515663,1.62414765358,-1.60374331474,-0.762394368649,0.387930035591,-2.6533074379,0.0195294117647,0.0,0.0,0.0,0.0,0.0,0.0,0.0,0.0,0.0,0.0,0.0,0.0,0.0,0.0,0.0
11.133495,-2.15743112564,0.974068522453,1.62124335766,-1.602247715,-0.762406647205,0.387930035591,-2.65330576897,0.0195294117647,0.0,0.0,0.0,0.0,0.0,0.0,0.0,0.0,0.0,0.0,0.0,0.0,0.0,0.0,0.0
11.166839,-2.15709638596,0.974068522453,1.61840808392,-1.60054636002,-0.762406647205,0.387928307056,-2.6533074379,0.0195294117647,0.0,0.0,0.0,0.0,0.0,0.0,0.0,0.0,0.0,0.0,0.0,0.0,0.0,0.0,0.0
11.200135,-2.15679836273,0.974073648453,1.61505746841,-1.59802293777,-0.762410759926,0.387926548719,-2.6533074379,0.0195294117647,0.0,0.0,0.0,0.0,0.0,0.0,0.0,0.0,0.0,0.0,0.0,0.0,0.0,0.0,0.0
11.233521,-2.15663075447,0.97407501936,1.6128218174,-1.59587919712,-0.762414813042,0.387926548719,-2.6533074379,0.0195294117647,0.0,0.0,0.0,0.0,0.0,0.0,0.0,0.0,0.0,0.0,0.0,0.0,0.0,0.0,0.0
11.266848,-2.15644431114,0.974077522755,1.61068046093,-1.59349501133,-0.762482225895,0.387926548719,-2.6533074379,0.0195294117647,0.0,0.0,0.0,0.0,0.0,0.0,0.0,0.0,0.0,0.0,0.0,0.0,0.0,0.0,0.0
11.300133,-2.15619111061,0.974086523056,1.6081725359,-1.59014213085,-0.762860715389,0.387926548719,-2.6533074379,0.0195294117647,0.0,0.0,0.0,0.0,0.0,0.0,0.0,0.0,0.0,0.0,0.0,0.0,0.0,0.0,0.0
11.333499,-2.15587663651,0.974091649055,1.60645830631,-1.58754587173,-0.763130664825,0.387926548719,-2.6533074379,0.0195294117647,0.0,0.0,0.0,0.0,0.0,0.0,0.0,0.0,0.0,0.0,0.0,0.0,0.0,0.0,0.0
11.366843,-2.15536546707,0.974109530449,1.60487723351,-1.58494818211,-0.763494729996,0.387926548719,-2.65330910683,0.0195294117647,0.0,0.0,0.0,0.0,0.0,0.0,0.0,0.0,0.0,0.0,0.0,0.0,0.0,0.0,0.0
11.400139,-2.1542391777,0.974137663841,1.60289430618,-1.58161044121,-0.764302670956,0.387924879789,-2.65330910683,0.0195294117647,0.0,0.0,0.0,0.0,0.0,0.0,0.0,0.0,0.0,0.0,0.0,0.0,0.0,0.0,0.0
11.433510,-2.1529519558,0.97420668602,1.6015406847,-1.57918429375,-0.765188217163,0.387924879789,-2.65330910683,0.0195294117647,0.0,0.0,0.0,0.0,0.0,0.0,0.0,0.0,0.0,0.0,0.0,0.0,0.0,0.0,0.0
11.466820,-2.150588274,0.974301218987,1.59999907017,-1.57628512383,-0.766296803951,0.387924879789,-2.65330910683,0.0195294117647,0.0,0.0,0.0,0.0,0.0,0.0,0.0,0.0,0.0,0.0,0.0,0.0,0.0,0.0,0.0
11.500135,-2.14827466011,0.974354982376,1.5988856554,-1.57428586483,-0.76670986414,0.387924879789,-2.6533074379,0.0195294117647,0.0,0.0,0.0,0.0,0.0,0.0,0.0,0.0,0.0,0.0,0.0,0.0,0.0,0.0,0.0
11.533461,-2.14559388161,0.974476337433,1.59766221046,-1.57232868671,-0.766752898693,0.387924879789,-2.6533074379,0.0195294117647,0.0,0.0,0.0,0.0,0.0,0.0,0.0,0.0,0.0,0.0,0.0,0.0,0.0,0.0,0.0
11.566814,-2.14252877235,0.974652767181,1.59624326229,-1.57030642033,-0.766750812531,0.387924879789,-2.6533074379,0.0195294117647,0.0,0.0,0.0,0.0,0.0,0.0,0.0,0.0,0.0,0.0,0.0,0.0,0.0,0.0,0.0
11.600139,-2.13917541504,0.974872648716,1.59459805489,-1.56820881367,-0.766750812531,0.387924879789,-2.6533074379,0.0195294117647,0.0,0.0,0.0,0.0,0.0,0.0,0.0,0.0,0.0,0.0,0.0,0.0,0.0,0.0,0.0
11.633515,-2.13406586647,0.975325226784,1.59205806255,-1.56516253948,-0.76674669981,0.387921482325,-2.6533074379,0.0195294117647,0.0,0.0,0.0,0.0,0.0,0.0,0.0,0.0,0.0,0.0,0.0,0.0,0.0,0.0,0.0
11.666842,-2.12966251373,0.975737988949,1.58996546268,-1.56259822845,-0.76674669981,0.387921482325,-2.6533074379,0.0195294117647,0.0,0.0,0.0,0.0,0.0,0.0,0.0,0.0,0.0,0.0,0.0,0.0,0.0,0.0,0.0
11.700132,-2.12349295616,0.976402878761,1.58667647839,-1.55838727951,-0.766744732857,0.387921482325,-2.6533074379,0.0195294117647,0.0,0.0,0.0,0.0,0.0,0.0,0.0,0.0,0.0,0.0,0.0,0.0,0.0,0.0,0.0
11.733470,-2.11880660057,0.977033019066,1.5838830471,-1.55459320545,-0.766744732857,0.387921482325,-2.6533074379,0.0195294117647,0.0,0.0,0.0,0.0,0.0,0.0,0.0,0.0,0.0,0.0,0.0,0.0,0.0,0.0,0.0
11.766851,-2.11395931244,0.977742493153,1.58079481125,-1.55044138432,-0.766744732857,0.387921482325,-2.6533074379,0.0195294117647,0.0,0.0,0.0,0.0,0.0,0.0,0.0,0.0,0.0,0.0,0.0,0.0,0.0,0.0,0.0
11.800152,-2.10726213455,0.978822648525,1.57638072968,-1.54439997673,-0.766744732857,0.387921482325,-2.6533074379,0.0195294117647,0.0,0.0,0.0,0.0,0.0,0.0,0.0,0.0,0.0,0.0,0.0,0.0,0.0,0.0,0.0
11.833528,-2.10251450539,0.97974562645,1.57289755344,-1.53933537006,-0.76674669981,0.387921482325,-2.6533074379,0.0195294117647,0.0,0.0,0.0,0.0,0.0,0.0,0.0,0.0,0.0,0.0,0.0,0.0,0.0,0.0,0.0
11.866917,-2.09793186188,0.980727374554,1.56953406334,-1.5339038372,-0.766744732857,0.387921482325,-2.6533074379,0.0195294117647,0.0,0.0,0.0,0.0,0.0,0.0,0.0,0.0,0.0,0.0,0.0,0.0,0.0,0.0,0.0
11.900148,-2.09190201759,0.982202529907,1.56547796726,-1.52646398544,-0.766744732857,0.387919783592,-2.6533074379,0.0195294117647,0.0,0.0,0.0,0.0,0.0,0.0,0.0,0.0,0.0,0.0,0.0,0.0,0.0,0.0,0.0
11.933505,-2.08761310577,0.983473181725,1.56279742718,-1.52075242996,-0.76674669981,0.387919783592,-2.6533074379,0.0195294117647,0.0,0.0,0.0,0.0,0.0,0.0,0.0,0.0,0.0,0.0,0.0,0.0,0.0,0.0,0.0
11.966812,-2.08375382423,0.984902262688,1.56043636799,-1.51489770412,-0.76674669981,0.387919783592,-2.65330910683,0.0195294117647,0.0,0.0,0.0,0.0,0.0,0.0,0.0,0.0,0.0,0.0,0.0,0.0,0.0,0.0,0.0
12.000126,-2.07907533646,0.986932277679,1.55794501305,-1.50724565983,-0.766748845577,0.387919783592,-2.65331053734,0.0195294117647,0.0,0.0,0.0,0.0,0.0,0.0,0.0,0.0,0.0,0.0,0.0,0.0,0.0,0.0,0.0
12.033517,-2.07603311539,0.988664388657,1.55652856827,-1.50186920166,-0.766750812531,0.387921482325,-2.65331244469,0.0195294117647,0.0,0.0,0.0,0.0,0.0,0.0,0.0,0.0,0.0,0.0,0.0,0.0,0.0,0.0,0.0
12.066848,-2.07338309288,0.990471959114,1.55564510822,-1.49694252014,-0.766773343086,0.387921482325,-2.65336370468,0.0195294117647,0.0,0.0,0.0,0.0,0.0,0.0,0.0,0.0,0.0,0.0,0.0,0.0,0.0,0.0,0.0
12.100147,-2.07058858871,0.993038833141,1.55518376827,-1.49137544632,-0.767264246941,0.387921482325,-2.65407633781,0.0195294117647,0.0,0.0,0.0,0.0,0.0,0.0,0.0,0.0,0.0,0.0,0.0,0.0,0.0,0.0,0.0
12.133505,-2.06909680367,0.995026528835,1.55517613888,-1.48802888393,-0.76786762476,0.387921482325,-2.65452098846,0.0195294117647,0.0,0.0,0.0,0.0,0.0,0.0,0.0,0.0,0.0,0.0,0.0,0.0,0.0,0.0,0.0
12.166821,-2.06806778908,0.996816337109,1.55518770218,-1.4854773283,-0.768123209476,0.387921482325,-2.65457034111,0.0195294117647,0.0,0.0,0.0,0.0,0.0,0.0,0.0,0.0,0.0,0.0,0.0,0.0,0.0,0.0,0.0
12.200123,-2.06741976738,0.998881995678,1.55518770218,-1.48336791992,-0.768293023109,0.387921482325,-2.65467596054,0.0195294117647,0.0,0.0,0.0,0.0,0.0,0.0,0.0,0.0,0.0,0.0,0.0,0.0,0.0,0.0,0.0
12.233470,-2.06743121147,1.00014877319,1.55518770218,-1.48265993595,-0.768305242062,0.387921482325,-2.65468096733,0.0195294117647,0.0,0.0,0.0,0.0,0.0,0.0,0.0,0.0,0.0,0.0,0.0,0.0,0.0,0.0,0.0
12.266827,-2.06756305695,1.00126731396,1.55518770218,-1.4824655056,-0.768305242062,0.387921482325,-2.65465903282,0.0195294117647,0.0,0.0,0.0,0.0,0.0,0.0,0.0,0.0,0.0,0.0,0.0,0.0,0.0,0.0,0.0
12.300173,-2.0676612854,1.00213396549,1.55518770218,-1.48245406151,-0.768303275108,0.387923151255,-2.65465331078,0.0195294117647,0.0,0.0,0.0,0.0,0.0,0.0,0.0,0.0,0.0,0.0,0.0,0.0,0.0,0.0,0.0
12.333514,-2.0676484108,1.00307738781,1.55518770218,-1.482457757,-0.768303275108,0.387923151255,-2.65465021133,0.0195294117647,0.0,0.0,0.0,0.0,0.0,0.0,0.0,0.0,0.0,0.0,0.0,0.0,0.0,0.0,0.0
12.366847,-2.0676472187,1.00354647636,1.55518770218,-1.48245930672,-0.768303275108,0.387923151255,-2.65465021133,0.0195294117647,0.0,0.0,0.0,0.0,0.0,0.0,0.0,0.0,0.0,0.0,0.0,0.0,0.0,0.0,0.0
12.400151,-2.0676472187,1.00384187698,1.55517864227,-1.48245930672,-0.768311440945,0.387923151255,-2.65465021133,0.0195294117647,0.0,0.0,0.0,0.0,0.0,0.0,0.0,0.0,0.0,0.0,0.0,0.0,0.0,0.0,0.0
12.433494,-2.0676472187,1.00405776501,1.55517470837,-1.48245930672,-0.768354415894,0.387923151255,-2.65465021133,0.0194117647059,0.0,0.0,0.0,0.0,0.0,0.0,0.0,0.0,0.0,0.0,0.0,0.0,0.0,0.0,0.0
12.466841,-2.0676472187,1.00422787666,1.55517470837,-1.48245930672,-0.768370687962,0.387923151255,-2.65465021133,0.0195294117647,0.0,0.0,0.0,0.0,0.0,0.0,0.0,0.0,0.0,0.0,0.0,0.0,0.0,0.0,0.0
12.500141,-2.0676472187,1.00445926189,1.55516076088,-1.482457757,-0.768483281136,0.387923151255,-2.65465021133,0.0195294117647,0.0,0.0,0.0,0.0,0.0,0.0,0.0,0.0,0.0,0.0,0.0,0.0,0.0,0.0,0.0
12.533469,-2.06764626503,1.00465357304,1.55515944958,-1.48245406151,-0.768552720547,0.387923151255,-2.65465021133,0.0195294117647,0.0,0.0,0.0,0.0,0.0,0.0,0.0,0.0,0.0,0.0,0.0,0.0,0.0,0.0,0.0
12.566901,-2.0676176548,1.00479030609,1.55515944958,-1.48245537281,-0.768681645393,0.387921482325,-2.65465903282,0.0195294117647,0.0,0.0,0.0,0.0,0.0,0.0,0.0,0.0,0.0,0.0,0.0,0.0,0.0,0.0,0.0
12.600124,-2.06748127937,1.00498831272,1.55515944958,-1.48245537281,-0.769430160522,0.387921482325,-2.65473413467,0.0195294117647,0.0,0.0,0.0,0.0,0.0,0.0,0.0,0.0,0.0,0.0,0.0,0.0,0.0,0.0,0.0
12.633493,-2.06734156609,1.00516998768,1.55515825748,-1.48245537281,-0.770520329475,0.387921482325,-2.6548397541,0.0195294117647,0.0,0.0,0.0,0.0,0.0,0.0,0.0,0.0,0.0,0.0,0.0,0.0,0.0,0.0,0.0
12.666842,-2.06700944901,1.0054473877,1.555087924,-1.48245537281,-0.772367238998,0.387921482325,-2.65498781204,0.0195294117647,0.0,0.0,0.0,0.0,0.0,0.0,0.0,0.0,0.0,0.0,0.0,0.0,0.0,0.0,0.0
12.700152,-2.06653380394,1.00575935841,1.55493962765,-1.48245537281,-0.774766325951,0.387921482325,-2.65499973297,0.0195294117647,0.0,0.0,0.0,0.0,0.0,0.0,0.0,0.0,0.0,0.0,0.0,0.0,0.0,0.0,0.0
12.733491,-2.06568098068,1.00627565384,1.55482065678,-1.48243999481,-0.77840089798,0.387921482325,-2.6549642086,0.0195294117647,0.0,0.0,0.0,0.0,0.0,0.0,0.0,0.0,0.0,0.0,0.0,0.0,0.0,0.0,0.0
12.766866,-2.06495499611,1.006757617,1.55482196808,-1.48232102394,-0.780949413776,0.387921482325,-2.65496063232,0.0195294117647,0.0,0.0,0.0,0.0,0.0,0.0,0.0,0.0,0.0,0.0,0.0,0.0,0.0,0.0,0.0
12.800126,-2.0639693737,1.00752592087,1.55481934547,-1.48213720322,-0.784622788429,0.387919783592,-2.65496063232,0.0195294117647,0.0,0.0,0.0,0.0,0.0,0.0,0.0,0.0,0.0,0.0,0.0,0.0,0.0,0.0,0.0
12.833483,-2.06315517426,1.00813567638,1.55482065678,-1.48191988468,-0.787314295769,0.387919783592,-2.65495729446,0.0195294117647,0.0,0.0,0.0,0.0,0.0,0.0,0.0,0.0,0.0,0.0,0.0,0.0,0.0,0.0,0.0
12.866824,-2.06225657463,1.00872242451,1.55482065678,-1.48146343231,-0.789633691311,0.387919783592,-2.65495729446,0.0195294117647,0.0,0.0,0.0,0.0,0.0,0.0,0.0,0.0,0.0,0.0,0.0,0.0,0.0,0.0,0.0
12.900574,-2.06093215942,1.00938713551,1.55482316017,-1.48055195808,-0.792765140533,0.387919783592,-2.65498447418,0.0195294117647,0.0,0.0,0.0,0.0,0.0,0.0,0.0,0.0,0.0,0.0,0.0,0.0,0.0,0.0,0.0
12.933516,-2.05984973907,1.00971829891,1.55482459068,-1.47994351387,-0.795761525631,0.387919783592,-2.6558573246,0.0195294117647,0.0,0.0,0.0,0.0,0.0,0.0,0.0,0.0,0.0,0.0,0.0,0.0,0.0,0.0,0.0
12.966822,-2.05874371529,1.00989592075,1.55482590199,-1.47947692871,-0.799510598183,0.387919783592,-2.6581223011,0.0195294117647,0.0,0.0,0.0,0.0,0.0,0.0,0.0,0.0,0.0,0.0,0.0,0.0,0.0,0.0,0.0
13.000144,-2.05765581131,1.00996112823,1.55482709408,-1.47908449173,-0.803562223911,0.387919783592,-2.66193008423,0.0195294117647,0.0,0.0,0.0,0.0,0.0,0.0,0.0,0.0,0.0,0.0,0.0,0.0,0.0,0.0,0.0
13.033511,-2.05634188652,1.00995862484,1.55485653877,-1.47853600979,-0.80834621191,0.387918055058,-2.66885137558,0.0195294117647,0.0,0.0,0.0,0.0,0.0,0.0,0.0,0.0,0.0,0.0,0.0,0.0,0.0,0.0,0.0
13.066816,-2.05550074577,1.00995719433,1.55485904217,-1.47798633575,-0.810835361481,0.387918055058,-2.67290449142,0.0195294117647,0.0,0.0,0.0,0.0,0.0,0.0,0.0,0.0,0.0,0.0,0.0,0.0,0.0,0.0,0.0
13.100110,-2.05470943451,1.00995719433,1.55486273766,-1.47738039494,-0.813555657864,0.387918055058,-2.67774200439,0.0195294117647,0.0,0.0,0.0,0.0,0.0,0.0,0.0,0.0,0.0,0.0,0.0,0.0,0.0,0.0,0.0
13.133496,-2.05444216728,1.00995719433,1.55486273766,-1.47693693638,-0.814921915531,0.387918055058,-2.68123602867,0.0195294117647,0.0,0.0,0.0,0.0,0.0,0.0,0.0,0.0,0.0,0.0,0.0,0.0,0.0,0.0,0.0
13.166824,-2.05447673798,1.00995719433,1.55486273766,-1.47654700279,-0.815635740757,0.387918055058,-2.68527007103,0.0195294117647,0.0,0.0,0.0,0.0,0.0,0.0,0.0,0.0,0.0,0.0,0.0,0.0,0.0,0.0,0.0
13.200200,-2.05476927757,1.01001989841,1.55485785007,-1.47565722466,-0.815694987774,0.387918055058,-2.68888545036,0.0195294117647,0.0,0.0,0.0,0.0,0.0,0.0,0.0,0.0,0.0,0.0,0.0,0.0,0.0,0.0,0.0
13.233498,-2.05510568619,1.01012098789,1.55485785007,-1.47469198704,-0.815693020821,0.387918055058,-2.68925189972,0.0195294117647,0.0,0.0,0.0,0.0,0.0,0.0,0.0,0.0,0.0,0.0,0.0,0.0,0.0,0.0,0.0
13.266840,-2.05538320541,1.01020157337,1.55485653877,-1.47349059582,-0.815694987774,0.387918055058,-2.68925333023,0.0195294117647,0.0,0.0,0.0,0.0,0.0,0.0,0.0,0.0,0.0,0.0,0.0,0.0,0.0,0.0,0.0
13.300164,-2.05554652214,1.01042771339,1.55485522747,-1.47166371346,-0.815694987774,0.387919783592,-2.68925189972,0.0195294117647,0.0,0.0,0.0,0.0,0.0,0.0,0.0,0.0,0.0,0.0,0.0,0.0,0.0,0.0,0.0
13.333482,-2.05549407005,1.01070261002,1.55485522747,-1.47017967701,-0.815694987774,0.387921482325,-2.68925333023,0.0195294117647,0.0,0.0,0.0,0.0,0.0,0.0,0.0,0.0,0.0,0.0,0.0,0.0,0.0,0.0,0.0
13.366819,-2.0553689003,1.0110604763,1.55484879017,-1.4689013958,-0.815694987774,0.387921482325,-2.68925333023,0.0195294117647,0.0,0.0,0.0,0.0,0.0,0.0,0.0,0.0,0.0,0.0,0.0,0.0,0.0,0.0,0.0
13.400112,-2.05524992943,1.01178145409,1.55484759808,-1.46778035164,-0.815694987774,0.387921482325,-2.68925333023,0.0195294117647,0.0,0.0,0.0,0.0,0.0,0.0,0.0,0.0,0.0,0.0,0.0,0.0,0.0,0.0,0.0
13.433484,-2.05509281158,1.01250755787,1.55484759808,-1.46741604805,-0.815694987774,0.387921482325,-2.68925189972,0.0195294117647,0.0,0.0,0.0,0.0,0.0,0.0,0.0,0.0,0.0,0.0,0.0,0.0,0.0,0.0,0.0
13.466911,-2.05486249924,1.01333582401,1.55484759808,-1.46741211414,-0.815694987774,0.387921482325,-2.68925189972,0.0195294117647,0.0,0.0,0.0,0.0,0.0,0.0,0.0,0.0,0.0,0.0,0.0,0.0,0.0,0.0,0.0
13.500153,-2.05421447754,1.01464235783,1.55484879017,-1.46748244762,-0.815694987774,0.387921482325,-2.68925189972,0.0195294117647,0.0,0.0,0.0,0.0,0.0,0.0,0.0,0.0,0.0,0.0,0.0,0.0,0.0,0.0,0.0
13.533483,-2.05341315269,1.01566755772,1.55484879017,-1.46748769283,-0.815694987774,0.387921482325,-2.68925189972,0.0195294117647,0.0,0.0,0.0,0.0,0.0,0.0,0.0,0.0,0.0,0.0,0.0,0.0,0.0,0.0,0.0
13.566837,-2.05238676071,1.01668894291,1.55485010147,-1.46748888493,-0.815694987774,0.387921482325,-2.68925189972,0.0195294117647,0.0,0.0,0.0,0.0,0.0,0.0,0.0,0.0,0.0,0.0,0.0,0.0,0.0,0.0,0.0
13.600143,-2.0507645607,1.018024683,1.55485010147,-1.46748769283,-0.815694987774,0.387921482325,-2.68925189972,0.0195294117647,0.0,0.0,0.0,0.0,0.0,0.0,0.0,0.0,0.0,0.0,0.0,0.0,0.0,0.0,0.0
13.633494,-2.04941320419,1.01898467541,1.55485129356,-1.46748614311,-0.815694987774,0.387919783592,-2.68925023079,0.0195294117647,0.0,0.0,0.0,0.0,0.0,0.0,0.0,0.0,0.0,0.0,0.0,0.0,0.0,0.0,0.0
13.666829,-2.04802632332,1.01992309093,1.55485260487,-1.46747469902,-0.815694987774,0.387919783592,-2.68925023079,0.0195294117647,0.0,0.0,0.0,0.0,0.0,0.0,0.0,0.0,0.0,0.0,0.0,0.0,0.0,0.0,0.0
13.700170,-2.04660224915,1.02078080177,1.55485129356,-1.46739804745,-0.815694987774,0.387919783592,-2.68925023079,0.0195294117647,0.0,0.0,0.0,0.0,0.0,0.0,0.0,0.0,0.0,0.0,0.0,0.0,0.0,0.0,0.0
13.733502,-2.04481506348,1.0220041275,1.55485129356,-1.46711170673,-0.815693020821,0.387918055058,-2.68925023079,0.0195294117647,0.0,0.0,0.0,0.0,0.0,0.0,0.0,0.0,0.0,0.0,0.0,0.0,0.0,0.0,0.0
13.767936,-2.04361224174,1.02290022373,1.55485129356,-1.46653401852,-0.815694987774,0.387918055058,-2.68925023079,0.0195294117647,0.0,0.0,0.0,0.0,0.0,0.0,0.0,0.0,0.0,0.0,0.0,0.0,0.0,0.0,0.0
13.800125,-2.04220342636,1.02401125431,1.55485129356,-1.46543979645,-0.815694987774,0.387918055058,-2.68925023079,0.0195294117647,0.0,0.0,0.0,0.0,0.0,0.0,0.0,0.0,0.0,0.0,0.0,0.0,0.0,0.0,0.0
13.833475,-2.04135370255,1.02481770515,1.55485010147,-1.46447837353,-0.815697133541,0.387918055058,-2.68925189972,0.0195294117647,0.0,0.0,0.0,0.0,0.0,0.0,0.0,0.0,0.0,0.0,0.0,0.0,0.0,0.0,0.0
13.866860,-2.04071927071,1.02562689781,1.55485010147,-1.4635477066,-0.81569904089,0.387918055058,-2.68925189972,0.0195294117647,0.0,0.0,0.0,0.0,0.0,0.0,0.0,0.0,0.0,0.0,0.0,0.0,0.0,0.0,0.0
13.901145,-2.04001903534,1.02673268318,1.55485010147,-1.46227967739,-0.815701127052,0.387918055058,-2.68925189972,0.0195294117647,0.0,0.0,0.0,0.0,0.0,0.0,0.0,0.0,0.0,0.0,0.0,0.0,0.0,0.0,0.0
13.933578,-2.03958559036,1.02753663063,1.55484879017,-1.46132230759,-0.81570327282,0.387918055058,-2.68925189972,0.0195294117647,0.0,0.0,0.0,0.0,0.0,0.0,0.0,0.0,0.0,0.0,0.0,0.0,0.0,0.0,0.0
13.966882,-2.03921484947,1.0283370018,1.55485010147,-1.46030473709,-0.81570327282,0.387918055058,-2.68925189972,0.0195294117647,0.0,0.0,0.0,0.0,0.0,0.0,0.0,0.0,0.0,0.0,0.0,0.0,0.0,0.0,0.0
14.000143,-2.03879284859,1.02930593491,1.55485010147,-1.45897388458,-0.815705239773,0.387918055058,-2.68925189972,0.0195294117647,0.0,0.0,0.0,0.0,0.0,0.0,0.0,0.0,0.0,0.0,0.0,0.0,0.0,0.0,0.0
14.033482,-2.03840446472,1.03002822399,1.55485010147,-1.45774435997,-0.815707325935,0.387918055058,-2.68925523758,0.0195294117647,0.0,0.0,0.0,0.0,0.0,0.0,0.0,0.0,0.0,0.0,0.0,0.0,0.0,0.0,0.0
14.066841,-2.03824186325,1.03029024601,1.55485010147,-1.45720088482,-0.815709471703,0.387918055058,-2.68925333023,0.0195294117647,0.0,0.0,0.0,0.0,0.0,0.0,0.0,0.0,0.0,0.0,0.0,0.0,0.0,0.0,0.0
14.100139,-2.03800415993,1.03056001663,1.55485010147,-1.4563062191,-0.815709471703,0.387918055058,-2.68925333023,0.0195294117647,0.0,0.0,0.0,0.0,0.0,0.0,0.0,0.0,0.0,0.0,0.0,0.0,0.0,0.0,0.0
14.133494,-2.03795576096,1.03056252003,1.55485129356,-1.45581257343,-0.815711379051,0.387918055058,-2.68925333023,0.0195294117647,0.0,0.0,0.0,0.0,0.0,0.0,0.0,0.0,0.0,0.0,0.0,0.0,0.0,0.0,0.0
14.166906,-2.03795957565,1.03056120872,1.55485129356,-1.45545601845,-0.815711379051,0.387918055058,-2.68925333023,0.0195294117647,0.0,0.0,0.0,0.0,0.0,0.0,0.0,0.0,0.0,0.0,0.0,0.0,0.0,0.0,0.0
14.200148,-2.03796076775,1.03056120872,1.55485260487,-1.45510685444,-0.815711379051,0.387918055058,-2.68925189972,0.0195294117647,0.0,0.0,0.0,0.0,0.0,0.0,0.0,0.0,0.0,0.0,0.0,0.0,0.0,0.0,0.0
14.233478,-2.03796076775,1.03056120872,1.55485391617,-1.45498812199,-0.815711379051,0.387918055058,-2.68925189972,0.0195294117647,0.0,0.0,0.0,0.0,0.0,0.0,0.0,0.0,0.0,0.0,0.0,0.0,0.0,0.0,0.0
14.266868,-2.03796076775,1.03056120872,1.55485653877,-1.45492041111,-0.815711379051,0.387918055058,-2.68925023079,0.0195294117647,0.0,0.0,0.0,0.0,0.0,0.0,0.0,0.0,0.0,0.0,0.0,0.0,0.0,0.0,0.0
14.300167,-2.03796076775,1.03056120872,1.55485904217,-1.45486795902,-0.815711379051,0.387918055058,-2.68925023079,0.0195294117647,0.0,0.0,0.0,0.0,0.0,0.0,0.0,0.0,0.0,0.0,0.0,0.0,0.0,0.0,0.0
14.333514,-2.03796076775,1.03056252003,1.55485785007,-1.45483231544,-0.815711379051,0.387918055058,-2.68925023079,0.0195294117647,0.0,0.0,0.0,0.0,0.0,0.0,0.0,0.0,0.0,0.0,0.0,0.0,0.0,0.0,0.0
14.366842,-2.03796076775,1.03056502342,1.55485785007,-1.45477986336,-0.815711379051,0.387918055058,-2.68925023079,0.0195294117647,0.0,0.0,0.0,0.0,0.0,0.0,0.0,0.0,0.0,0.0,0.0,0.0,0.0,0.0,0.0
14.400131,-2.03796076775,1.03058290482,1.55485653877,-1.45477080345,-0.815709471703,0.387918055058,-2.68925023079,0.0195294117647,0.0,0.0,0.0,0.0,0.0,0.0,0.0,0.0,0.0,0.0,0.0,0.0,0.0,0.0,0.0
14.433513,-2.03796076775,1.03060972691,1.55485391617,-1.45477080345,-0.815711379051,0.387918055058,-2.68925023079,0.0195294117647,0.0,0.0,0.0,0.0,0.0,0.0,0.0,0.0,0.0,0.0,0.0,0.0,0.0,0.0,0.0
14.466832,-2.03796076775,1.03071582317,1.55484759808,-1.45477080345,-0.815711379051,0.387919783592,-2.68925023079,0.0195294117647,0.0,0.0,0.0,0.0,0.0,0.0,0.0,0.0,0.0,0.0,0.0,0.0,0.0,0.0,0.0
14.500127,-2.03795456886,1.0309586525,1.55484759808,-1.45477080345,-0.815711379051,0.387919783592,-2.68925023079,0.0195294117647,0.0,0.0,0.0,0.0,0.0,0.0,0.0,0.0,0.0,0.0,0.0,0.0,0.0,0.0,0.0
14.533530,-2.03791856766,1.03119909763,1.55484759808,-1.45477223396,-0.815711379051,0.387919783592,-2.68925023079,0.0195294117647,0.0,0.0,0.0,0.0,0.0,0.0,0.0,0.0,0.0,0.0,0.0,0.0,0.0,0.0,0.0
14.567087,-2.03787517548,1.03155457973,1.55483603477,-1.45477223396,-0.815711379051,0.387919783592,-2.68925023079,0.0195294117647,0.0,0.0,0.0,0.0,0.0,0.0,0.0,0.0,0.0,0.0,0.0,0.0,0.0,0.0,0.0
14.600151,-2.03771042824,1.03223586082,1.55467116833,-1.45477342606,-0.815711379051,0.387919783592,-2.68925023079,0.0195294117647,0.0,0.0,0.0,0.0,0.0,0.0,0.0,0.0,0.0,0.0,0.0,0.0,0.0,0.0,0.0
14.633503,-2.03747487068,1.03288125992,1.55443716049,-1.45477342606,-0.815711379051,0.387919783592,-2.68925023079,0.0194117647059,0.0,0.0,0.0,0.0,0.0,0.0,0.0,0.0,0.0,0.0,0.0,0.0,0.0,0.0,0.0
14.666827,-2.0371131897,1.03366875648,1.55432724953,-1.45477342606,-0.815711379051,0.387919783592,-2.68925023079,0.0195294117647,0.0,0.0,0.0,0.0,0.0,0.0,0.0,0.0,0.0,0.0,0.0,0.0,0.0,0.0,0.0
14.700113,-2.03638982773,1.0349663496,1.55424916744,-1.45477342606,-0.815711379051,0.387919783592,-2.68925023079,0.0195294117647,0.0,0.0,0.0,0.0,0.0,0.0,0.0,0.0,0.0,0.0,0.0,0.0,0.0,0.0,0.0
14.733498,-2.03567647934,1.03614485264,1.55424427986,-1.45477342606,-0.815711379051,0.387919783592,-2.68925023079,0.0195294117647,0.0,0.0,0.0,0.0,0.0,0.0,0.0,0.0,0.0,0.0,0.0,0.0,0.0,0.0,0.0
14.766832,-2.03481888771,1.03744494915,1.55425179005,-1.45477342606,-0.815711379051,0.387919783592,-2.68925023079,0.0195294117647,0.0,0.0,0.0,0.0,0.0,0.0,0.0,0.0,0.0,0.0,0.0,0.0,0.0,0.0,0.0
14.800109,-2.0335392952,1.0392677784,1.55426847935,-1.45466601849,-0.815711379051,0.387919783592,-2.68925023079,0.0195294117647,0.0,0.0,0.0,0.0,0.0,0.0,0.0,0.0,0.0,0.0,0.0,0.0,0.0,0.0,0.0
14.833480,-2.03256225586,1.04060232639,1.55427610874,-1.45446932316,-0.815711379051,0.387918055058,-2.68925023079,0.0194117647059,0.0,0.0,0.0,0.0,0.0,0.0,0.0,0.0,0.0,0.0,0.0,0.0,0.0,0.0,0.0
14.866835,-2.03156924248,1.04188323021,1.55428516865,-1.45409595966,-0.815711379051,0.387918055058,-2.68925023079,0.0195294117647,0.0,0.0,0.0,0.0,0.0,0.0,0.0,0.0,0.0,0.0,0.0,0.0,0.0,0.0,0.0
14.900112,-2.03037142754,1.04350292683,1.55428647995,-1.453307271,-0.815711379051,0.387918055058,-2.68925023079,0.0195294117647,0.0,0.0,0.0,0.0,0.0,0.0,0.0,0.0,0.0,0.0,0.0,0.0,0.0,0.0,0.0
14.933495,-2.02963018417,1.0445895195,1.55431962013,-1.45259130001,-0.815711379051,0.387918055058,-2.68925023079,0.0195294117647,0.0,0.0,0.0,0.0,0.0,0.0,0.0,0.0,0.0,0.0,0.0,0.0,0.0,0.0,0.0
14.966844,-2.02904081345,1.04545235634,1.55432093143,-1.45177710056,-0.815711379051,0.387918055058,-2.68925023079,0.0195294117647,0.0,0.0,0.0,0.0,0.0,0.0,0.0,0.0,0.0,0.0,0.0,0.0,0.0,0.0,0.0
15.000144,-2.02848339081,1.04636132717,1.55432474613,-1.45064043999,-0.815711379051,0.387918055058,-2.68925023079,0.0195294117647,0.0,0.0,0.0,0.0,0.0,0.0,0.0,0.0,0.0,0.0,0.0,0.0,0.0,0.0,0.0
15.033494,-2.02831983566,1.04678809643,1.55432868004,-1.44986200333,-0.815711379051,0.387918055058,-2.68925023079,0.0195294117647,0.0,0.0,0.0,0.0,0.0,0.0,0.0,0.0,0.0,0.0,0.0,0.0,0.0,0.0,0.0
15.066845,-2.02831602097,1.04695951939,1.55433356762,-1.44925236702,-0.815711379051,0.387918055058,-2.68925023079,0.0195294117647,0.0,0.0,0.0,0.0,0.0,0.0,0.0,0.0,0.0,0.0,0.0,0.0,0.0,0.0,0.0
15.100828,-2.02834534645,1.04696333408,1.55433750153,-1.44852888584,-0.815711379051,0.387918055058,-2.68925023079,0.0195294117647,0.0,0.0,0.0,0.0,0.0,0.0,0.0,0.0,0.0,0.0,0.0,0.0,0.0,0.0,0.0
15.133516,-2.02834534645,1.04696333408,1.55434632301,-1.4480214119,-0.815711379051,0.387918055058,-2.68925023079,0.0195294117647,0.0,0.0,0.0,0.0,0.0,0.0,0.0,0.0,0.0,0.0,0.0,0.0,0.0,0.0,0.0
15.166842,-2.02834534645,1.04696333408,1.55435538292,-1.44765841961,-0.815711379051,0.387918055058,-2.68925023079,0.0195294117647,0.0,0.0,0.0,0.0,0.0,0.0,0.0,0.0,0.0,0.0,0.0,0.0,0.0,0.0,0.0
15.200137,-2.02834653854,1.04696333408,1.55435776711,-1.44729137421,-0.815709471703,0.387918055058,-2.68925023079,0.0195294117647,0.0,0.0,0.0,0.0,0.0,0.0,0.0,0.0,0.0,0.0,0.0,0.0,0.0,0.0,0.0
15.233510,-2.02830171585,1.04696202278,1.55436050892,-1.44723391533,-0.815707325935,0.387918055058,-2.68925023079,0.0195294117647,0.0,0.0,0.0,0.0,0.0,0.0,0.0,0.0,0.0,0.0,0.0,0.0,0.0,0.0,0.0
15.266850,-2.02830171585,1.04696202278,1.55436050892,-1.44723391533,-0.815707325935,0.387918055058,-2.68925023079,0.0195294117647,0.0,0.0,0.0,0.0,0.0,0.0,0.0,0.0,0.0,0.0,0.0,0.0,0.0,0.0,0.0
15.300134,-2.02830171585,1.04696202278,1.55436050892,-1.44723391533,-0.815707325935,0.387918055058,-2.68925023079,0.0195294117647,0.0,0.0,0.0,0.0,0.0,0.0,0.0,0.0,0.0,0.0,0.0,0.0,0.0,0.0,0.0
15.333634,-2.02830171585,1.04696202278,1.55436050892,-1.44723391533,-0.815707325935,0.387918055058,-2.68925023079,0.0195294117647,0.0,0.0,0.0,0.0,0.0,0.0,0.0,0.0,0.0,0.0,0.0,0.0,0.0,0.0,0.0
15.366787,-2.02830171585,1.04696202278,1.55436050892,-1.44723391533,-0.815707325935,0.387918055058,-2.68925023079,0.0195294117647,0.0,0.0,0.0,0.0,0.0,0.0,0.0,0.0,0.0,0.0,0.0,0.0,0.0,0.0,0.0
15.400127,-2.02830171585,1.04696202278,1.55436050892,-1.44723391533,-0.815707325935,0.387918055058,-2.68925023079,0.0195294117647,0.0,0.0,0.0,0.0,0.0,0.0,0.0,0.0,0.0,0.0,0.0,0.0,0.0,0.0,0.0
15.433509,-2.02830171585,1.04696202278,1.55436050892,-1.44723391533,-0.815707325935,0.387918055058,-2.68925023079,0.0195294117647,0.0,0.0,0.0,0.0,0.0,0.0,0.0,0.0,0.0,0.0,0.0,0.0,0.0,0.0,0.0
15.466881,-2.02830171585,1.04696202278,1.55436050892,-1.44723391533,-0.815707325935,0.387918055058,-2.68925023079,0.0195294117647,0.0,0.0,0.0,0.0,0.0,0.0,0.0,0.0,0.0,0.0,0.0,0.0,0.0,0.0,0.0
15.500080,-2.02830171585,1.04696202278,1.55436050892,-1.44723391533,-0.815707325935,0.387918055058,-2.68925023079,0.0195294117647,0.0,0.0,0.0,0.0,0.0,0.0,0.0,0.0,0.0,0.0,0.0,0.0,0.0,0.0,0.0
15.533561,-2.02830171585,1.04696202278,1.55436050892,-1.44723391533,-0.815707325935,0.387918055058,-2.68925023079,0.0195294117647,0.0,0.0,0.0,0.0,0.0,0.0,0.0,0.0,0.0,0.0,0.0,0.0,0.0,0.0,0.0
15.566891,-2.02830171585,1.04696202278,1.55436050892,-1.44723391533,-0.815707325935,0.387918055058,-2.68925023079,0.0195294117647,0.0,0.0,0.0,0.0,0.0,0.0,0.0,0.0,0.0,0.0,0.0,0.0,0.0,0.0,0.0
15.600213,-2.02830171585,1.04696202278,1.55436050892,-1.44723391533,-0.815707325935,0.387918055058,-2.68925023079,0.0195294117647,0.0,0.0,0.0,0.0,0.0,0.0,0.0,0.0,0.0,0.0,0.0,0.0,0.0,0.0,0.0
15.633497,-2.02830171585,1.04696202278,1.55436050892,-1.44723391533,-0.815707325935,0.387918055058,-2.68925023079,0.0195294117647,0.0,0.0,0.0,0.0,0.0,0.0,0.0,0.0,0.0,0.0,0.0,0.0,0.0,0.0,0.0
15.666824,-2.02830171585,1.04696202278,1.55436050892,-1.44723391533,-0.815707325935,0.387918055058,-2.68925023079,0.0195294117647,0.0,0.0,0.0,0.0,0.0,0.0,0.0,0.0,0.0,0.0,0.0,0.0,0.0,0.0,0.0
15.700153,-2.02830171585,1.04696202278,1.55436050892,-1.44723391533,-0.815707325935,0.387918055058,-2.68925023079,0.0195294117647,0.0,0.0,0.0,0.0,0.0,0.0,0.0,0.0,0.0,0.0,0.0,0.0,0.0,0.0,0.0
15.733538,-2.02830171585,1.04696202278,1.55436050892,-1.44723391533,-0.815707325935,0.387918055058,-2.68925023079,0.0195294117647,0.0,0.0,0.0,0.0,0.0,0.0,0.0,0.0,0.0,0.0,0.0,0.0,0.0,0.0,0.0
15.766855,-2.02830171585,1.04696202278,1.55436050892,-1.44723391533,-0.815707325935,0.387918055058,-2.68925023079,0.0195294117647,0.0,0.0,0.0,0.0,0.0,0.0,0.0,0.0,0.0,0.0,0.0,0.0,0.0,0.0,0.0
15.800147,-2.02830171585,1.04696202278,1.55436050892,-1.44723391533,-0.815707325935,0.387918055058,-2.68925023079,0.0195294117647,0.0,0.0,0.0,0.0,0.0,0.0,0.0,0.0,0.0,0.0,0.0,0.0,0.0,0.0,0.0
15.833519,-2.02830171585,1.04696202278,1.55436050892,-1.44723391533,-0.815707325935,0.387918055058,-2.68925023079,0.0195294117647,0.0,0.0,0.0,0.0,0.0,0.0,0.0,0.0,0.0,0.0,0.0,0.0,0.0,0.0,0.0
15.866859,-2.02830171585,1.04696202278,1.55436050892,-1.44723391533,-0.815707325935,0.387918055058,-2.68925023079,0.0195294117647,0.0,0.0,0.0,0.0,0.0,0.0,0.0,0.0,0.0,0.0,0.0,0.0,0.0,0.0,0.0
15.900151,-2.02830171585,1.04696202278,1.55436050892,-1.44723391533,-0.815707325935,0.387918055058,-2.68925023079,0.0195294117647,0.0,0.0,0.0,0.0,0.0,0.0,0.0,0.0,0.0,0.0,0.0,0.0,0.0,0.0,0.0
15.933495,-2.02830171585,1.04696202278,1.55436050892,-1.44723391533,-0.815707325935,0.387918055058,-2.68925023079,0.0195294117647,0.0,0.0,0.0,0.0,0.0,0.0,0.0,0.0,0.0,0.0,0.0,0.0,0.0,0.0,0.0
15.966813,-2.02830171585,1.04696202278,1.55436050892,-1.44723391533,-0.815707325935,0.387918055058,-2.68925023079,0.0195294117647,0.0,0.0,0.0,0.0,0.0,0.0,0.0,0.0,0.0,0.0,0.0,0.0,0.0,0.0,0.0
16.000151,-2.02830171585,1.04696202278,1.55436050892,-1.44723391533,-0.815707325935,0.387918055058,-2.68925023079,0.0195294117647,0.0,0.0,0.0,0.0,0.0,0.0,0.0,0.0,0.0,0.0,0.0,0.0,0.0,0.0,0.0
16.033523,-2.02830171585,1.04696202278,1.55436050892,-1.44723391533,-0.815707325935,0.387918055058,-2.68925023079,0.0195294117647,0.0,0.0,0.0,0.0,0.0,0.0,0.0,0.0,0.0,0.0,0.0,0.0,0.0,0.0,0.0
16.066881,-2.02830171585,1.04696202278,1.55436050892,-1.44723391533,-0.815707325935,0.387918055058,-2.68925023079,0.0195294117647,0.0,0.0,0.0,0.0,0.0,0.0,0.0,0.0,0.0,0.0,0.0,0.0,0.0,0.0,0.0
16.100173,-2.02830171585,1.04696202278,1.55436050892,-1.44723391533,-0.815707325935,0.387918055058,-2.68925023079,0.0195294117647,0.0,0.0,0.0,0.0,0.0,0.0,0.0,0.0,0.0,0.0,0.0,0.0,0.0,0.0,0.0
16.133625,-2.02830171585,1.04696202278,1.55436050892,-1.44723391533,-0.815707325935,0.387918055058,-2.68925023079,0.0195294117647,0.0,0.0,0.0,0.0,0.0,0.0,0.0,0.0,0.0,0.0,0.0,0.0,0.0,0.0,0.0
16.166787,-2.02830171585,1.04696202278,1.55436050892,-1.44723391533,-0.815707325935,0.387918055058,-2.68925023079,0.0195294117647,0.0,0.0,0.0,0.0,0.0,0.0,0.0,0.0,0.0,0.0,0.0,0.0,0.0,0.0,0.0
16.200196,-2.02830171585,1.04696202278,1.55436050892,-1.44723391533,-0.815707325935,0.387918055058,-2.68925023079,0.0195294117647,0.0,0.0,0.0,0.0,0.0,0.0,0.0,0.0,0.0,0.0,0.0,0.0,0.0,0.0,0.0
16.233484,-2.02830171585,1.04696202278,1.55436050892,-1.44723391533,-0.815707325935,0.387918055058,-2.68925023079,0.0195294117647,0.0,0.0,0.0,0.0,0.0,0.0,0.0,0.0,0.0,0.0,0.0,0.0,0.0,0.0,0.0
16.266830,-2.02830171585,1.04696202278,1.55436050892,-1.44723391533,-0.815707325935,0.387918055058,-2.68925023079,0.0195294117647,0.0,0.0,0.0,0.0,0.0,0.0,0.0,0.0,0.0,0.0,0.0,0.0,0.0,0.0,0.0
16.300144,-2.02830171585,1.04696202278,1.55436050892,-1.44723391533,-0.815707325935,0.387918055058,-2.68925023079,0.0195294117647,0.0,0.0,0.0,0.0,0.0,0.0,0.0,0.0,0.0,0.0,0.0,0.0,0.0,0.0,0.0
16.333492,-2.02830171585,1.04696202278,1.55436050892,-1.44723391533,-0.815707325935,0.387918055058,-2.68925023079,0.0195294117647,0.0,0.0,0.0,0.0,0.0,0.0,0.0,0.0,0.0,0.0,0.0,0.0,0.0,0.0,0.0
16.366830,-2.02830171585,1.04696202278,1.55436050892,-1.44723391533,-0.815707325935,0.387918055058,-2.68925023079,0.0195294117647,0.0,0.0,0.0,0.0,0.0,0.0,0.0,0.0,0.0,0.0,0.0,0.0,0.0,0.0,0.0
16.400168,-2.02830171585,1.04696202278,1.55436050892,-1.44723391533,-0.815707325935,0.387918055058,-2.68925023079,0.0195294117647,0.0,0.0,0.0,0.0,0.0,0.0,0.0,0.0,0.0,0.0,0.0,0.0,0.0,0.0,0.0
16.433492,-2.02830171585,1.04696202278,1.55436050892,-1.44723391533,-0.815707325935,0.387918055058,-2.68925023079,0.0195294117647,0.0,0.0,0.0,0.0,0.0,0.0,0.0,0.0,0.0,0.0,0.0,0.0,0.0,0.0,0.0
16.466819,-2.02830171585,1.04696202278,1.55436050892,-1.44723391533,-0.815707325935,0.387918055058,-2.68925023079,0.0195294117647,0.0,0.0,0.0,0.0,0.0,0.0,0.0,0.0,0.0,0.0,0.0,0.0,0.0,0.0,0.0
16.500224,-2.02830171585,1.04696202278,1.55436050892,-1.44723391533,-0.815707325935,0.387918055058,-2.68925023079,0.0195294117647,0.0,0.0,0.0,0.0,0.0,0.0,0.0,0.0,0.0,0.0,0.0,0.0,0.0,0.0,0.0
16.533618,-2.02830171585,1.04696202278,1.55436050892,-1.44723391533,-0.815707325935,0.387918055058,-2.68925023079,0.0195294117647,0.0,0.0,0.0,0.0,0.0,0.0,0.0,0.0,0.0,0.0,0.0,0.0,0.0,0.0,0.0
16.567512,-2.02830171585,1.04696202278,1.55436050892,-1.44723391533,-0.815707325935,0.387918055058,-2.68925023079,0.0195294117647,0.0,0.0,0.0,0.0,0.0,0.0,0.0,0.0,0.0,0.0,0.0,0.0,0.0,0.0,0.0
16.600174,-2.02830171585,1.04696202278,1.55436050892,-1.44723391533,-0.815707325935,0.387918055058,-2.68925023079,0.0195294117647,0.0,0.0,0.0,0.0,0.0,0.0,0.0,0.0,0.0,0.0,0.0,0.0,0.0,0.0,0.0
16.633520,-2.02830171585,1.04696202278,1.55436050892,-1.44723391533,-0.815707325935,0.387918055058,-2.68925023079,0.0195294117647,0.0,0.0,0.0,0.0,0.0,0.0,0.0,0.0,0.0,0.0,0.0,0.0,0.0,0.0,0.0
16.667133,-2.02830171585,1.04696202278,1.55436050892,-1.44723391533,-0.815707325935,0.387918055058,-2.68925023079,0.0195294117647,0.0,0.0,0.0,0.0,0.0,0.0,0.0,0.0,0.0,0.0,0.0,0.0,0.0,0.0,0.0
16.700155,-2.02830171585,1.04696202278,1.55436050892,-1.44723391533,-0.815707325935,0.387918055058,-2.68925023079,0.0195294117647,0.0,0.0,0.0,0.0,0.0,0.0,0.0,0.0,0.0,0.0,0.0,0.0,0.0,0.0,0.0
16.733487,-2.02830171585,1.04696202278,1.55436050892,-1.44723391533,-0.815707325935,0.387918055058,-2.68925023079,0.0195294117647,0.0,0.0,0.0,0.0,0.0,0.0,0.0,0.0,0.0,0.0,0.0,0.0,0.0,0.0,0.0
16.766835,-2.02830171585,1.04696202278,1.55436050892,-1.44723391533,-0.815707325935,0.387918055058,-2.68925023079,0.0195294117647,0.0,0.0,0.0,0.0,0.0,0.0,0.0,0.0,0.0,0.0,0.0,0.0,0.0,0.0,0.0
16.800935,-2.02830171585,1.04696202278,1.55436050892,-1.44723391533,-0.815707325935,0.387918055058,-2.68925023079,0.0195294117647,0.0,0.0,0.0,0.0,0.0,0.0,0.0,0.0,0.0,0.0,0.0,0.0,0.0,0.0,0.0
16.833511,-2.02830171585,1.04696202278,1.55436050892,-1.44723391533,-0.815707325935,0.387918055058,-2.68925023079,0.0195294117647,0.0,0.0,0.0,0.0,0.0,0.0,0.0,0.0,0.0,0.0,0.0,0.0,0.0,0.0,0.0
16.866886,-2.02830171585,1.04696202278,1.55436050892,-1.44723391533,-0.815707325935,0.387918055058,-2.68925023079,0.0195294117647,0.0,0.0,0.0,0.0,0.0,0.0,0.0,0.0,0.0,0.0,0.0,0.0,0.0,0.0,0.0
16.900236,-2.02830171585,1.04696202278,1.55436050892,-1.44723391533,-0.815707325935,0.387918055058,-2.68925023079,0.0195294117647,0.0,0.0,0.0,0.0,0.0,0.0,0.0,0.0,0.0,0.0,0.0,0.0,0.0,0.0,0.0
16.933509,-2.02830171585,1.04696202278,1.55436050892,-1.44723391533,-0.815707325935,0.387918055058,-2.68925023079,0.0195294117647,0.0,0.0,0.0,0.0,0.0,0.0,0.0,0.0,0.0,0.0,0.0,0.0,0.0,0.0,0.0
16.966917,-2.02830171585,1.04696202278,1.55436050892,-1.44723391533,-0.815707325935,0.387918055058,-2.68925023079,0.0194117647059,0.0,0.0,0.0,0.0,0.0,0.0,0.0,0.0,0.0,0.0,0.0,0.0,0.0,0.0,0.0
17.000365,-2.02830171585,1.04696202278,1.55436050892,-1.44723391533,-0.815707325935,0.387918055058,-2.68925023079,0.0195294117647,0.0,0.0,0.0,0.0,0.0,0.0,0.0,0.0,0.0,0.0,0.0,0.0,0.0,0.0,0.0
17.033493,-2.02830171585,1.04696202278,1.55436050892,-1.44723391533,-0.815707325935,0.387918055058,-2.68925023079,0.0195294117647,0.0,0.0,0.0,0.0,0.0,0.0,0.0,0.0,0.0,0.0,0.0,0.0,0.0,0.0,0.0
17.066898,-2.02830171585,1.04696202278,1.55436050892,-1.44723391533,-0.815707325935,0.387918055058,-2.68925023079,0.0195294117647,0.0,0.0,0.0,0.0,0.0,0.0,0.0,0.0,0.0,0.0,0.0,0.0,0.0,0.0,0.0
17.100122,-2.02830171585,1.04696202278,1.55436050892,-1.44723391533,-0.815707325935,0.387918055058,-2.68925023079,0.0195294117647,0.0,0.0,0.0,0.0,0.0,0.0,0.0,0.0,0.0,0.0,0.0,0.0,0.0,0.0,0.0
17.133569,-2.02830171585,1.04696202278,1.55436050892,-1.44723391533,-0.815707325935,0.387918055058,-2.68925023079,0.0195294117647,0.0,0.0,0.0,0.0,0.0,0.0,0.0,0.0,0.0,0.0,0.0,0.0,0.0,0.0,0.0
17.166906,-2.02830171585,1.04696202278,1.55436050892,-1.44723391533,-0.815707325935,0.387918055058,-2.68925023079,0.0195294117647,0.0,0.0,0.0,0.0,0.0,0.0,0.0,0.0,0.0,0.0,0.0,0.0,0.0,0.0,0.0
17.200133,-2.02830171585,1.04696202278,1.55436050892,-1.44723391533,-0.815707325935,0.387918055058,-2.68925023079,0.0195294117647,0.0,0.0,0.0,0.0,0.0,0.0,0.0,0.0,0.0,0.0,0.0,0.0,0.0,0.0,0.0
17.233473,-2.02830171585,1.04696202278,1.55436050892,-1.44723391533,-0.815707325935,0.387918055058,-2.68925023079,0.0195294117647,0.0,0.0,0.0,0.0,0.0,0.0,0.0,0.0,0.0,0.0,0.0,0.0,0.0,0.0,0.0
17.266875,-2.02830171585,1.04696202278,1.55436050892,-1.44723391533,-0.815707325935,0.387918055058,-2.68925023079,0.0195294117647,0.0,0.0,0.0,0.0,0.0,0.0,0.0,0.0,0.0,0.0,0.0,0.0,0.0,0.0,0.0
17.300151,-2.02830171585,1.04696202278,1.55436050892,-1.44723391533,-0.815707325935,0.387918055058,-2.68925023079,0.0195294117647,0.0,0.0,0.0,0.0,0.0,0.0,0.0,0.0,0.0,0.0,0.0,0.0,0.0,0.0,0.0
17.333974,-2.02830171585,1.04696202278,1.55436050892,-1.44723391533,-0.815707325935,0.387918055058,-2.68925023079,0.0195294117647,0.0,0.0,0.0,0.0,0.0,0.0,0.0,0.0,0.0,0.0,0.0,0.0,0.0,0.0,0.0
17.366843,-2.02830171585,1.04696202278,1.55436050892,-1.44723391533,-0.815707325935,0.387918055058,-2.68925023079,0.0195294117647,0.0,0.0,0.0,0.0,0.0,0.0,0.0,0.0,0.0,0.0,0.0,0.0,0.0,0.0,0.0
17.400127,-2.02830171585,1.04696202278,1.55436050892,-1.44723391533,-0.815707325935,0.387918055058,-2.68925023079,0.0195294117647,0.0,0.0,0.0,0.0,0.0,0.0,0.0,0.0,0.0,0.0,0.0,0.0,0.0,0.0,0.0
17.433502,-2.02830171585,1.04696202278,1.55436050892,-1.44723391533,-0.815707325935,0.387918055058,-2.68925023079,0.0195294117647,0.0,0.0,0.0,0.0,0.0,0.0,0.0,0.0,0.0,0.0,0.0,0.0,0.0,0.0,0.0
